LaRojaPlamya162/omx_controller/omx_controller/models/SAC/SAC_log.csv
timestep,episode,s1,s2,s3,s4,s5,s6,next_s1,next_s2,next_s3,next_s4,next_s5,next_s6,a1,a2,a3,a4,a5,a6,ball_pos_x,ball_pos_y,ball_pos_z,wrist_3_x,wrist_3_y,wrist_3_z,reward,done
0,0,0.066049724817276,-1.5868443250656128,0.04839743301272392,-1.5674666166305542,-0.0692850798368454,-0.03406432643532753,0.066049724817276,-1.5868443250656128,0.04839743301272392,-1.5674666166305542,-0.0692850798368454,-0.03406432643532753,-0.37319695949554443,0.38122501969337463,0.3903639018535614,0.6744895577430725,-0.8036742210388184,0.43255284428596497,0.229139,-0.311232,0.03648568405566592,0.000920872456637827,0.23323037047092932,1.078830658532211,98.3582427105285,True
1,1,0.06604809314012527,-1.5868479013442993,0.04840564727783203,-1.5674628019332886,-0.06927621364593506,-0.03407308831810951,0.06604809314012527,-1.5868479013442993,0.048405639827251434,-1.5674628019332886,-0.06927622109651566,-0.034073084592819214,-0.8971347212791443,0.7163976430892944,-0.706918478012085,0.044535547494888306,0.707511842250824,0.8394132852554321,0.670373,-0.170169,0.4514856840562585,0.0009214833292740133,0.23323044537026175,1.0788305187651417,-1.65036151498236,False
2,1,0.06604809314012527,-1.5868479013442993,0.048405639827251434,-1.5674628019332886,-0.06927622109651566,-0.034073084592819214,0.06604643911123276,-1.5868515968322754,0.04841392859816551,-1.5674588680267334,-0.06926727294921875,-0.034081924706697464,-0.1986248791217804,-0.1410563588142395,-0.2645648717880249,0.6361269950866699,-0.12849052250385284,-0.35177114605903625,0.670373,-0.170169,0.4514856840556659,0.0009214833292740133,0.23323044537026175,1.0788305187651417,-1.6603615149827309,False
3,1,0.06604643911123276,-1.5868515968322754,0.04841392859816551,-1.5674588680267334,-0.06926727294921875,-0.034081924706697464,0.06604643911123276,-1.5868515968322754,0.04841392859816551,-1.5674588680267334,-0.06926727294921875,-0.034081924706697464,0.644773006439209,-0.9335774779319763,-0.035792455077171326,0.6158387660980225,-0.16959279775619507,0.48266226053237915,0.670373,-0.170169,0.4514856840556659,0.0009214833292740133,0.23323044537026175,1.0788305187651417,-1.6703615149827309,False
4,1,0.06604643911123276,-1.5868515968322754,0.04841392859816551,-1.5674588680267334,-0.06926727294921875,-0.034081924706697464,0.06604643911123276,-1.5868515968322754,0.04841392859816551,-1.5674588680267334,-0.06926727294921875,-0.034081924706697464,0.9263263940811157,-0.3925166428089142,0.9768052697181702,-0.8919292092323303,0.4786142408847809,-0.809012234210968,0.670373,-0.170169,0.4514856840556659,0.0009214833292740133,0.23323044537026175,1.0788305187651417,-1.680361514982731,False
5,1,0.06604643911123276,-1.5868515968322754,0.04841392859816551,-1.5674588680267334,-0.06926727294921875,-0.034081924706697464,0.06604643911123276,-1.5868515968322754,0.04841392859816551,-1.5674588680267334,-0.06926727294921875,-0.034081924706697464,0.4002320468425751,-0.7076976895332336,-0.7710310220718384,0.9531441330909729,0.12028012424707413,-0.24566179513931274,0.670373,-0.170169,0.4514856840556659,0.0009214833292740133,0.23323044537026175,1.0788305187651417,-1.690361514982731,False
6,1,0.06604643911123276,-1.5868515968322754,0.04841392859816551,-1.5674588680267334,-0.06926727294921875,-0.034081924706697464,0.06604643911123276,-1.5868515968322754,0.04841392859816551,-1.5674588680267334,-0.06926727294921875,-0.034081924706697464,0.20635256171226501,-0.7920360565185547,-0.4743121266365051,0.9284223914146423,-0.7786769866943359,0.8909847736358643,0.670373,-0.170169,0.4514856840556659,0.0009214833292740133,0.23323044537026175,1.0788305187651417,-1.700361514982731,False
7,1,0.06604643911123276,-1.5868515968322754,0.04841392859816551,-1.5674588680267334,-0.06926727294921875,-0.034081924706697464,0.06405942887067795,-1.5882635116577148,0.04577100649476051,-1.5610933303833008,-0.07054847478866577,-0.03760545328259468,0.022323986515402794,0.35676729679107666,0.018599968403577805,-0.5017929673194885,0.5890507102012634,0.9541998505592346,0.670373,-0.170169,0.4514856840556659,0.0009214833292740133,0.23323044537026175,1.0788305187651417,-1.710361514982731,False
8,1,0.06405942887067795,-1.5882635116577148,0.04577100649476051,-1.5610933303833008,-0.07054847478866577,-0.03760545328259468,0.06495562940835953,-1.5846964120864868,0.047399286180734634,-1.5678611993789673,-0.06466235965490341,-0.027410903945565224,-0.5530957579612732,0.8718894124031067,-0.5689198970794678,0.15718597173690796,0.810451865196228,-0.4864608645439148,0.670373,-0.170169,0.4514856840556659,0.0021514270453836526,0.2333235472546939,1.078838298541009,-1.7195827565772561,False
9,1,0.06495562940835953,-1.5846964120864868,0.047399286180734634,-1.5678611993789673,-0.06466235965490341,-0.027410903945565224,0.06143254414200783,-1.5786839723587036,0.047608405351638794,-1.5681535005569458,-0.05967077612876892,-0.0346757136285305,0.3015555143356323,0.501374363899231,0.6220284104347229,0.06600388884544373,-0.9730084538459778,0.6814848184585571,0.670373,-0.170169,0.4514856840556659,0.008048889533156843,0.23365765598123808,1.0787364249528875,-1.7257284479249542,False
10,1,0.06143254414200783,-1.5786839723587036,0.047608405351638794,-1.5681535005569458,-0.05967077612876892,-0.0346757136285305,0.06223073974251747,-1.579853892326355,0.051276687532663345,-1.5702441930770874,-0.06035148352384567,-0.03468214347958565,0.08709041774272919,-0.5284932255744934,-0.10328251868486404,-0.10722179710865021,-0.5060495734214783,-0.7343597412109375,0.670373,-0.170169,0.4514856840556659,0.008451466018825026,0.2336966385410937,1.0786850354934296,-1.7354446798819056,False
11,1,0.06223073974251747,-1.579853892326355,0.051276687532663345,-1.5702441930770874,-0.06035148352384567,-0.03468214347958565,0.06689503788948059,-1.5779457092285156,0.06231040135025978,-1.572221279144287,-0.07203151285648346,-0.026449067518115044,-0.9620523452758789,-0.26554277539253235,-0.4857323169708252,0.34836268424987793,0.20430049300193787,-0.33309975266456604,0.670373,-0.170169,0.4514856840556659,0.015828880460120275,0.2342204103048379,1.0782876472634906,-1.740525800376603,False
12,1,0.06689503788948059,-1.5779457092285156,0.06231040135025978,-1.572221279144287,-0.07203151285648346,-0.026449067518115044,0.06722413748502731,-1.5796244144439697,0.06487087905406952,-1.5735626220703125,-0.07232362776994705,-0.026431849226355553,-0.06555905938148499,-0.24534648656845093,-0.6368088126182556,0.6005867719650269,0.6926013231277466,-0.2437829226255417,0.670373,-0.170169,0.4514856840556659,0.015828880460120275,0.2342204103048379,1.0782876472634906,-1.750525800376603,False
13,1,0.06722413748502731,-1.5796244144439697,0.06487087905406952,-1.5735626220703125,-0.07232362776994705,-0.026431849226355553,0.06760592758655548,-1.5809320211410522,0.06689120829105377,-1.574566125869751,-0.07269181311130524,-0.02648499794304371,0.8792253732681274,-0.3592376410961151,-0.5978369116783142,0.01638050563633442,0.07816719263792038,0.7833400368690491,0.670373,-0.170169,0.4514856840556659,0.015828880460120275,0.2342204103048379,1.0782876472634906,-1.7605258003766031,False
14,1,0.06760592758655548,-1.5809320211410522,0.06689120829105377,-1.574566125869751,-0.07269181311130524,-0.02648499794304371,0.06792650371789932,-1.5819746255874634,0.06829506158828735,-1.5751978158950806,-0.07302536070346832,-0.026573793962597847,-0.5979596376419067,-0.9062287211418152,-0.49924999475479126,0.08300614356994629,-0.6621673703193665,-0.40445104241371155,0.670373,-0.170169,0.4514856840556659,0.015828880460120275,0.2342204103048379,1.0782876472634906,-1.770525800376603,False
15,1,0.06792650371789932,-1.5819746255874634,0.06829506158828735,-1.5751978158950806,-0.07302536070346832,-0.026573793962597847,0.07632787525653839,-1.5843250751495361,0.06052963808178902,-1.5741989612579346,-0.07188225537538528,-0.018649911507964134,0.3174625337123871,0.964076578617096,-0.8005061149597168,-0.0822160392999649,-0.18351410329341888,0.5070363283157349,0.670373,-0.170169,0.4514856840556659,0.00635899621833896,0.2338084357689371,1.0785214732355055,-1.7867772015621926,False
16,1,0.07632787525653839,-1.5843250751495361,0.06052963808178902,-1.5741989612579346,-0.07188225537538528,-0.018649911507964134,0.0789085179567337,-1.575343370437622,0.0573982410132885,-1.5769121646881104,-0.07501901686191559,-0.015383373014628887,-0.9789777994155884,-0.02150159515440464,0.13468238711357117,-0.716690182685852,0.04610603302717209,-0.7364158630371094,0.670373,-0.170169,0.4514856840556659,0.01246781547468819,0.23433182206483746,1.0783903700813229,-1.7928558815729878,False
17,1,0.0789085179567337,-1.575343370437622,0.0573982410132885,-1.5769121646881104,-0.07501901686191559,-0.015383373014628887,0.07948274165391922,-1.5767977237701416,0.059473153203725815,-1.577817678451538,-0.07560524344444275,-0.015560049563646317,-0.08384985476732254,-0.12485501915216446,-0.07723546028137207,-0.5152065753936768,0.7371113896369934,-0.6469691395759583,0.670373,-0.170169,0.4514856840556659,0.011989572365952637,0.23430716116596906,1.0783749200055326,-1.8031524957680511,False
18,1,0.07948274165391922,-1.5767977237701416,0.059473153203725815,-1.577817678451538,-0.07560524344444275,-0.015560049563646317,0.08024800568819046,-1.5784144401550293,0.06279359012842178,-1.5795373916625977,-0.0763302817940712,-0.01566142588853836,-0.7569934725761414,-0.5071824193000793,-0.20141980051994324,-0.21615378558635712,0.17364346981048584,-0.6804442405700684,0.670373,-0.170169,0.4514856840556659,0.012168894728614026,0.23433343007202226,1.078339695266363,-1.8130223360844524,False
19,1,0.08024800568819046,-1.5784144401550293,0.06279359012842178,-1.5795373916625977,-0.0763302817940712,-0.01566142588853836,0.07241816818714142,-1.5827686786651611,0.059628646820783615,-1.581140398979187,-0.07435236126184464,-0.022417809814214706,0.7914829850196838,0.6612456440925598,-0.7846883535385132,-0.005887865088880062,-0.622506856918335,-0.6784192323684692,0.670373,-0.170169,0.4514856840556659,0.012168894728614026,0.23433343007202226,1.078339695266363,-1.8230223360844524,False
20,1,0.07241816818714142,-1.5827686786651611,0.059628646820783615,-1.581140398979187,-0.07435236126184464,-0.022417809814214706,0.08290015906095505,-1.5771024227142334,0.056323014199733734,-1.5828691720962524,-0.08193576335906982,-0.028022341430187225,0.09755278378725052,0.9626346230506897,-0.15420326590538025,-0.9398712515830994,0.16497854888439178,0.7053669691085815,0.670373,-0.170169,0.4514856840556659,0.009499498031037217,0.23415661716766628,1.0785200748127841,-1.8348321041870672,False
21,1,0.08290015906095505,-1.5771024227142334,0.056323014199733734,-1.5828691720962524,-0.08193576335906982,-0.028022341430187225,0.08307971060276031,-1.5694819688796997,0.05963290482759476,-1.5942555665969849,-0.0799553394317627,-0.019996965304017067,0.9787848591804504,-0.9794449806213379,-0.7307582497596741,0.7968280911445618,0.6570873260498047,-0.9144469499588013,0.670373,-0.170169,0.4514856840556659,0.016708232672833057,0.2347781056475115,1.0783032334921343,-1.8401833993730932,False
22,1,0.08307971060276031,-1.5694819688796997,0.05963290482759476,-1.5942555665969849,-0.0799553394317627,-0.019996965304017067,0.09291905909776688,-1.5810399055480957,0.05171121284365654,-1.5839488506317139,-0.07393665611743927,-0.030806073918938637,-0.9143237471580505,-0.9290322661399841,-0.6125609874725342,0.5092808604240417,-0.3729245364665985,0.10977906733751297,0.670373,-0.170169,0.4514856840556659,0.0004028562638983468,0.23367330163691624,1.0787922820475038,-1.8608623637301758,False
23,1,0.09291905909776688,-1.5810399055480957,0.05171121284365654,-1.5839488506317139,-0.07393665611743927,-0.030806073918938637,0.07070627063512802,-1.594995141029358,0.04262954741716385,-1.5778862237930298,-0.08383418619632721,-0.02428501285612583,-0.6223326921463013,0.8635048270225525,0.1803574413061142,0.24358439445495605,0.8060793280601501,0.023453611880540848,0.670373,-0.170169,0.4514856840556659,-0.004795553045539724,0.2329776531188629,1.078985825682267,-1.8741848132219665,False
24,1,0.07070627063512802,-1.594995141029358,0.04262954741716385,-1.5778862237930298,-0.08383418619632721,-0.02428501285612583,0.06904326379299164,-1.58393394947052,0.046787429600954056,-1.5769122838974,-0.07390198111534119,-0.025386430323123932,0.5473897457122803,-0.2686292231082916,-0.4207034409046173,0.099606454372406,-0.9381139874458313,0.40724796056747437,0.670373,-0.170169,0.4514856840556659,-0.004795553045539724,0.2329776531188629,1.078985825682267,-1.8841848132219665,False
25,1,0.06904326379299164,-1.58393394947052,0.046787429600954056,-1.5769122838974,-0.07390198111534119,-0.025386430323123932,0.0748552680015564,-1.5888513326644897,0.04175746440887451,-1.5761048793792725,-0.08528538793325424,-0.021102989092469215,-0.8260782361030579,-0.9571481347084045,-0.0839911699295044,0.9573462009429932,-0.7161231637001038,-0.051984790712594986,0.670373,-0.170169,0.4514856840556659,-0.005486955789632292,0.23277955295610245,1.0790477047193454,-1.8946082018036356,False
26,1,0.0748552680015564,-1.5888513326644897,0.04175746440887451,-1.5761048793792725,-0.08528538793325424,-0.021102989092469215,0.06543216109275818,-1.597436785697937,0.04192618280649185,-1.566689372062683,-0.09017229825258255,-0.02248450368642807,-0.15647989511489868,0.7103937864303589,0.327709436416626,-0.7450573444366455,-0.7016776204109192,0.7154503464698792,0.670373,-0.170169,0.4514856840556659,-0.009639115635997359,0.23236232714045219,1.0790107071144621,-1.9072116082444595,False
27,1,0.06543216109275818,-1.597436785697937,0.04192618280649185,-1.566689372062683,-0.09017229825258255,-0.02248450368642807,0.06574840843677521,-1.5886170864105225,0.04517454281449318,-1.5760256052017212,-0.09620857983827591,-0.01505372580140829,-0.11157821118831635,0.62494957447052,0.22724568843841553,0.6076246500015259,0.31060096621513367,0.5654690861701965,0.670373,-0.170169,0.4514856840556659,-0.0003794584108884302,0.23291772462583385,1.0789497352313346,-1.911179816322589,False
28,1,0.06574840843677521,-1.5886170864105225,0.04517454281449318,-1.5760256052017212,-0.09620857983827591,-0.01505372580140829,0.06487473100423813,-1.5818841457366943,0.05349181592464447,-1.562658667564392,-0.08898291736841202,-0.007033802103251219,0.18057847023010254,0.6657339930534363,-0.02642940916121006,0.12259765714406967,-0.7468245625495911,-0.85994952917099,0.670373,-0.170169,0.4514856840556659,-0.0003794584108884302,0.23291772462583385,1.0789497352313346,-1.921179816322589,False
29,1,0.06487473100423813,-1.5818841457366943,0.05349181592464447,-1.562658667564392,-0.08898291736841202,-0.007033802103251219,0.07095348834991455,-1.5752099752426147,0.05816957354545593,-1.569949984550476,-0.10880192369222641,-0.027760228142142296,0.3935539722442627,0.48287391662597656,0.7560792565345764,0.8766365051269531,0.9625769257545471,-0.4460304379463196,0.670373,-0.170169,0.4514856840556659,0.01887882394412483,0.23423882918056846,1.0780904938470064,-1.9183995815088541,False
30,1,0.07095348834991455,-1.5752099752426147,0.05816957354545593,-1.569949984550476,-0.10880192369222641,-0.027760228142142296,0.07638177275657654,-1.5697615146636963,0.07379257678985596,-1.5508639812469482,-0.08164022862911224,-0.02825244702398777,-0.17056825757026672,-0.44237610697746277,-0.8434014320373535,-0.7177272439002991,0.9121747016906738,-0.6302493810653687,0.670373,-0.170169,0.4514856840556659,0.02939449177276518,0.23549791614984675,1.077086484462045,-1.9213925737500528,False
31,1,0.07638177275657654,-1.5697615146636963,0.07379257678985596,-1.5508639812469482,-0.08164022862911224,-0.02825244702398777,0.07405470311641693,-1.5764061212539673,0.06582486629486084,-1.5640853643417358,-0.07829689979553223,-0.03425624966621399,0.5619536638259888,0.5685825347900391,0.6913463473320007,-0.6766887307167053,-0.7718822956085205,-0.9698582887649536,0.670373,-0.170169,0.4514856840556659,0.018351701454700196,0.23459562871731332,1.0779383060953835,-1.9387959238673955,False
32,1,0.07405470311641693,-1.5764061212539673,0.06582486629486084,-1.5640853643417358,-0.07829689979553223,-0.03425624966621399,0.0809888243675232,-1.570949673652649,0.07951830327510834,-1.5713456869125366,-0.08733716607093811,-0.042569324374198914,0.862471342086792,-0.5962410569190979,-0.33530306816101074,-0.2677096724510193,-0.06968123465776443,-0.15864059329032898,0.670373,-0.170169,0.4514856840556659,0.018351701454700196,0.23459562871731332,1.0779383060953835,-1.9487959238673955,False
33,1,0.0809888243675232,-1.570949673652649,0.07951830327510834,-1.5713456869125366,-0.08733716607093811,-0.042569324374198914,0.09545259922742844,-1.5850651264190674,0.06734330207109451,-1.5738098621368408,-0.08512862771749496,-0.042406607419252396,0.9581153988838196,-0.3196481168270111,-0.5829262733459473,0.169642373919487,-0.28975966572761536,-0.11153032630681992,0.670373,-0.170169,0.4514856840556659,0.005897850487330989,0.2341673970473938,1.0782558007476326,-1.9670623874888074,False
34,1,0.09545259922742844,-1.5850651264190674,0.06734330207109451,-1.5738098621368408,-0.08512862771749496,-0.042406607419252396,0.10880555957555771,-1.5857958793640137,0.06056312099099159,-1.5694555044174194,-0.09181277453899384,-0.04468366876244545,-0.09504087269306183,-0.9367372393608093,0.6053081154823303,0.18284639716148376,0.8493140935897827,-0.7359444499015808,0.670373,-0.170169,0.4514856840556659,-0.00010920574630886561,0.23385152099659695,1.0784073392179108,-1.9810356587494926,False
35,1,0.10880555957555771,-1.5857958793640137,0.06056312099099159,-1.5694555044174194,-0.09181277453899384,-0.04468366876244545,0.10156632214784622,-1.604233980178833,0.07538741081953049,-1.5675418376922607,-0.0721605196595192,-0.05849470943212509,-0.7276203632354736,0.8940081000328064,-0.10909894108772278,-0.3483451008796692,0.30572327971458435,0.9377574920654297,0.670373,-0.170169,0.4514856840556659,-0.004926696818135691,0.23333786881968083,1.078418811335155,-1.9940637349448618,False
36,1,0.10156632214784622,-1.604233980178833,0.07538741081953049,-1.5675418376922607,-0.0721605196595192,-0.05849470943212509,0.08989503234624863,-1.5789800882339478,0.06728528439998627,-1.5752873420715332,-0.07389488071203232,-0.034207090735435486,0.21484977006912231,0.3886539340019226,0.18631665408611298,0.7294394373893738,0.868572473526001,-0.9611942172050476,0.670373,-0.170169,0.4514856840556659,0.011457179678132631,0.23460404347730265,1.0781509981872146,-1.9934845320398313,False
37,1,0.08989503234624863,-1.5789800882339478,0.06728528439998627,-1.5752873420715332,-0.07389488071203232,-0.034207090735435486,0.09885949641466141,-1.5813099145889282,0.07425520569086075,-1.5575997829437256,-0.05582791566848755,-0.06314805150032043,-0.6081017255783081,-0.10102932900190353,0.8249925374984741,0.8056272864341736,0.7611550092697144,0.6512534022331238,0.670373,-0.170169,0.4514856840556659,0.010582377830055235,0.2349363967124225,1.077857922440914,-2.0040146255415,False
38,1,0.09885949641466141,-1.5813099145889282,0.07425520569086075,-1.5575997829437256,-0.05582791566848755,-0.06314805150032043,0.09097759425640106,-1.5818591117858887,0.08112481236457825,-1.5530859231948853,-0.05182146281003952,-0.050850190222263336,-0.27101951837539673,-0.1634044200181961,0.8638885021209717,0.6778388023376465,-0.6308618783950806,-0.13083218038082123,0.670373,-0.170169,0.4514856840556659,0.015333107717239669,0.23513186707103373,1.0775758726006173,-2.010775406956414,False
39,1,0.09097759425640106,-1.5818591117858887,0.08112481236457825,-1.5530859231948853,-0.05182146281003952,-0.050850190222263336,0.08378284424543381,-1.5761483907699585,0.09440988302230835,-1.5501554012298584,-0.05486854165792465,-0.05089952051639557,-0.7141624093055725,0.7646089196205139,0.5277807116508484,-0.06957385689020157,0.34995734691619873,0.3165924847126007,0.670373,-0.170169,0.4514856840556659,0.015334352261830613,0.23513186592013263,1.0775757497762546,-2.0207745077470323,False
40,1,0.08378284424543381,-1.5761483907699585,0.09440988302230835,-1.5501554012298584,-0.05486854165792465,-0.05089952051639557,0.07909441739320755,-1.572381854057312,0.10663856565952301,-1.5563054084777832,-0.05223521217703819,-0.047307904809713364,0.45446208119392395,0.9351240396499634,0.15234234929084778,0.8372778296470642,0.5716351866722107,0.2820538580417633,0.670373,-0.170169,0.4514856840556659,0.0389345490525289,0.23658007473768833,1.0759055434353824,-2.0148946879082863,False
41,1,0.07909441739320755,-1.572381854057312,0.10663856565952301,-1.5563054084777832,-0.05223521217703819,-0.047307904809713364,0.09471254795789719,-1.5654295682907104,0.12715308368206024,-1.5496888160705566,-0.04663493484258652,-0.04277372732758522,-0.46186861395835876,-0.13875940442085266,0.309507817029953,0.895277202129364,0.9267282485961914,-0.5876009464263916,0.670373,-0.170169,0.4514856840556659,0.051601315103880385,0.23874171463567867,1.074070376198163,-2.0164831137809958,False
42,1,0.09471254795789719,-1.5654295682907104,0.12715308368206024,-1.5496888160705566,-0.04663493484258652,-0.04277372732758522,0.07962659746408463,-1.5723844766616821,0.12972180545330048,-1.5374350547790527,-0.030519641935825348,-0.0559232197701931,0.058660704642534256,0.11831936985254288,0.1709975004196167,-0.2285432666540146,-0.050932664424180984,-0.7185991406440735,0.670373,-0.170169,0.4514856840556659,0.05061838613676257,0.23756918062840085,1.0744618839143973,-2.026868993899954,False
43,1,0.07962659746408463,-1.5723844766616821,0.12972180545330048,-1.5374350547790527,-0.030519641935825348,-0.0559232197701931,0.08706401288509369,-1.5685863494873047,0.13359898328781128,-1.5474966764450073,-0.038143694400787354,-0.06497815996408463,-0.7862038016319275,0.48450374603271484,-0.8379994630813599,0.12981179356575012,0.42347660660743713,0.5038053393363953,0.670373,-0.170169,0.4514856840556659,0.05061838613676257,0.23756918062840085,1.0744618839143973,-2.0368689938999536,False
44,1,0.08706401288509369,-1.5685863494873047,0.13359898328781128,-1.5474966764450073,-0.038143694400787354,-0.06497815996408463,0.07980146259069443,-1.569426417350769,0.1372966766357422,-1.5519465208053589,-0.0340178981423378,-0.05748354643583298,-0.10062742233276367,-0.8217653632164001,0.17631949484348297,-0.9261173605918884,-0.45831960439682007,-0.15225724875926971,0.670373,-0.170169,0.4514856840556659,0.0549819946421963,0.23798273212348944,1.0738692648107988,-2.0438757765566673,False
45,1,0.07980146259069443,-1.569426417350769,0.1372966766357422,-1.5519465208053589,-0.0340178981423378,-0.05748354643583298,0.08006204664707184,-1.5846867561340332,0.1358368843793869,-1.566514015197754,-0.04439413920044899,-0.06367474794387817,0.8890215158462524,-0.2069583386182785,0.027696117758750916,0.47538161277770996,-0.49502047896385193,-0.6017928719520569,0.670373,-0.170169,0.4514856840556659,0.039981658230275954,0.23676248063216498,1.0750928301923903,-2.0637744551372497,False
46,1,0.08006204664707184,-1.5846867561340332,0.1358368843793869,-1.566514015197754,-0.04439413920044899,-0.06367474794387817,0.09771155565977097,-1.582715630531311,0.1369820088148117,-1.551203727722168,-0.050120025873184204,-0.07321318984031677,-0.560680091381073,0.5318508744239807,-0.37245893478393555,-0.5422244668006897,0.7526174783706665,0.42399224638938904,0.670373,-0.170169,0.4514856840556659,0.04015598365877458,0.23782681915222761,1.0745460703143168,-2.073757017513193,False
47,1,0.09771155565977097,-1.582715630531311,0.1369820088148117,-1.551203727722168,-0.050120025873184204,-0.07321318984031677,0.09902419149875641,-1.5899388790130615,0.14331457018852234,-1.5443779230117798,-0.043902479112148285,-0.07855737209320068,0.14068008959293365,-0.7167824506759644,0.6283379793167114,0.6914806365966797,0.6144092679023743,-0.5420829057693481,0.670373,-0.170169,0.4514856840556659,0.04015598365877458,0.23782681915222761,1.0745460703143168,-2.083757017513193,False
48,1,0.09902419149875641,-1.5899388790130615,0.14331457018852234,-1.5443779230117798,-0.043902479112148285,-0.07855737209320068,0.10042411088943481,-1.5971143245697021,0.1496094912290573,-1.5374703407287598,-0.03774891421198845,-0.08397699147462845,-0.3730330467224121,0.4572480618953705,-0.2969791293144226,-0.16761550307273865,0.26256290078163147,0.9620649218559265,0.670373,-0.170169,0.4514856840556659,0.032686454467499064,0.2373016263412539,1.074469141718496,-2.0983313222771467,False
49,1,0.10042411088943481,-1.5971143245697021,0.1496094912290573,-1.5374703407287598,-0.03774891421198845,-0.08397699147462845,0.0923766940832138,-1.585115671157837,0.14117459952831268,-1.5436115264892578,-0.03493262082338333,-0.06255199760198593,-0.4353254437446594,-0.44452816247940063,0.4116240441799164,-0.5070122480392456,-0.2708425223827362,0.2128542810678482,0.670373,-0.170169,0.4514856840556659,0.04052446288087626,0.23759044305600505,1.0744907236560273,-2.1033848256753966,False
50,1,0.0923766940832138,-1.585115671157837,0.14117459952831268,-1.5436115264892578,-0.03493262082338333,-0.06255199760198593,0.08688812702894211,-1.5988080501556396,0.15278659760951996,-1.5512988567352295,-0.04147539287805557,-0.06686464697122574,-0.32435140013694763,-0.01100965030491352,0.7737656831741333,0.4989636540412903,0.3880045711994171,-0.8427287340164185,0.670373,-0.170169,0.4514856840556659,0.037720725653028364,0.23715583867869502,1.0745324310299362,-2.1150432215624155,False
51,1,0.08688812702894211,-1.5988080501556396,0.15278659760951996,-1.5512988567352295,-0.04147539287805557,-0.06686464697122574,0.09154802560806274,-1.5957485437393188,0.1562763899564743,-1.5511817932128906,-0.0339646190404892,-0.06205322965979576,0.46782514452934265,0.30742037296295166,0.34632572531700134,0.01399370189756155,0.7492586970329285,0.48024821281433105,0.670373,-0.170169,0.4514856840556659,0.037720725653028364,0.23715583867869502,1.0745324310299362,-2.1250432215624153,False
52,1,0.09154802560806274,-1.5957485437393188,0.1562763899564743,-1.5511817932128906,-0.0339646190404892,-0.06205322965979576,0.09622213989496231,-1.592678189277649,0.15975059568881989,-1.5510494709014893,-0.0264667347073555,-0.05724997818470001,-0.08687624335289001,-0.7566864490509033,0.974261999130249,-0.170532688498497,-0.5814383625984192,-0.3870451748371124,0.670373,-0.170169,0.4514856840556659,0.040191371748257355,0.2378265861551478,1.073927161156785,-2.1333389147398476,False
53,1,0.09622213989496231,-1.592678189277649,0.15975059568881989,-1.5510494709014893,-0.0264667347073555,-0.05724997818470001,0.09260915219783783,-1.6090501546859741,0.17786842584609985,-1.5545262098312378,-0.04108710214495659,-0.0669122263789177,0.7368026375770569,-0.6968370079994202,-0.7639561295509338,0.5373082756996155,0.3913308382034302,0.815168023109436,0.670373,-0.170169,0.4514856840556659,0.036066994439173224,0.23716785016124384,1.0734292368798823,-2.1454175594931204,False
54,1,0.09260915219783783,-1.6090501546859741,0.17786842584609985,-1.5545262098312378,-0.04108710214495659,-0.0669122263789177,0.10069602727890015,-1.6127519607543945,0.16662192344665527,-1.5484648942947388,-0.03424480929970741,-0.056830644607543945,-0.7625003457069397,0.21934829652309418,0.8319379687309265,0.31749579310417175,-0.22835810482501984,0.47927066683769226,0.670373,-0.170169,0.4514856840556659,0.025262390586731957,0.2365797134777516,1.0744079583974977,-2.162840221964708,False
55,1,0.10069602727890015,-1.6127519607543945,0.16662192344665527,-1.5484648942947388,-0.03424480929970741,-0.056830644607543945,0.0822119265794754,-1.606889247894287,0.18776646256446838,-1.5445411205291748,-0.041548844426870346,-0.05128059908747673,-0.9065563082695007,-0.7585436701774597,0.4390519857406616,-0.3663482964038849,0.7630493640899658,-0.7181087732315063,0.670373,-0.170169,0.4514856840556659,0.025262390586731957,0.2365797134777516,1.0744079583974977,-2.172840221964708,False
56,1,0.0822119265794754,-1.606889247894287,0.18776646256446838,-1.5445411205291748,-0.041548844426870346,-0.05128059908747673,0.07537767291069031,-1.6170724630355835,0.1839572787284851,-1.5509287118911743,-0.021860506385564804,-0.07086050510406494,0.175826296210289,0.38466721773147583,-0.4097460210323334,0.07441520690917969,0.5138254761695862,-0.6311415433883667,0.670373,-0.170169,0.4514856840556659,0.030441220319827034,0.23564815787801588,1.07374809613112,-2.1786505571202257,False
57,1,0.07537767291069031,-1.6170724630355835,0.1839572787284851,-1.5509287118911743,-0.021860506385564804,-0.07086050510406494,0.08318975567817688,-1.602365255355835,0.17562448978424072,-1.5458770990371704,-0.01885821670293808,-0.07685080915689468,-0.5523214340209961,-0.836909294128418,0.5283733606338501,-0.6438403129577637,0.5281845927238464,0.8922004699707031,0.670373,-0.170169,0.4514856840556659,0.0419431737330388,0.23718776935524122,1.073389992769408,-2.1815971478404697,False
58,1,0.08318975567817688,-1.602365255355835,0.17562448978424072,-1.5458770990371704,-0.01885821670293808,-0.07685080915689468,0.07610204815864563,-1.6136919260025024,0.18260647356510162,-1.5533424615859985,-0.014173978008329868,-0.06673317402601242,0.9140539765357971,-0.5053337812423706,0.5082194209098816,-0.5317969918251038,-0.3430125117301941,0.3936420977115631,0.670373,-0.170169,0.4514856840556659,0.0419431737330388,0.23718776935524122,1.073389992769408,-2.1915971478404694,False
59,1,0.07610204815864563,-1.6136919260025024,0.18260647356510162,-1.5533424615859985,-0.014173978008329868,-0.06673317402601242,0.09721488505601883,-1.619278073310852,0.19000175595283508,-1.5610076189041138,-0.02290295623242855,-0.06290659308433533,0.7765869498252869,0.9380512237548828,-0.39505037665367126,0.8873550295829773,0.8521292805671692,-0.13965366780757904,0.670373,-0.170169,0.4514856840556659,0.029156547244799866,0.23682205673797907,1.0734967800630584,-2.20981624312578,False
60,1,0.09721488505601883,-1.619278073310852,0.19000175595283508,-1.5610076189041138,-0.02290295623242855,-0.06290659308433533,0.10430267453193665,-1.598289966583252,0.17916139960289001,-1.5401999950408936,-0.002371465088799596,-0.06723692268133163,0.357256144285202,0.8329067230224609,-0.09012522548437119,-0.6068472266197205,0.8207947015762329,0.04036140814423561,0.670373,-0.170169,0.4514856840556659,0.04127054538886354,0.2384926583180365,1.0730428482208607,-2.21235651367237,False
61,1,0.10430267453193665,-1.598289966583252,0.17916139960289001,-1.5401999950408936,-0.002371465088799596,-0.06723692268133163,0.10861347615718842,-1.5900347232818604,0.18171563744544983,-1.5606762170791626,0.005829800385981798,-0.06469505280256271,-0.8909876346588135,-0.6334851384162903,0.2923697829246521,-0.9177702069282532,0.5423329472541809,-0.31427547335624695,0.670373,-0.170169,0.4514856840556659,0.043711285096530314,0.2388969425801119,1.0729212465271687,-2.220874435105304,False
62,1,0.10861347615718842,-1.5900347232818604,0.18171563744544983,-1.5606762170791626,0.005829800385981798,-0.06469505280256271,0.08906657248735428,-1.606015682220459,0.1865646094083786,-1.5708626508712769,0.013397318311035633,-0.07199039310216904,-0.2324717491865158,-0.2780822813510895,-0.027744490653276443,-0.297465980052948,0.724947452545166,0.21934784948825836,0.670373,-0.170169,0.4514856840556659,0.043711285096530314,0.2388969425801119,1.0729212465271687,-2.2308744351053043,False
63,1,0.08906657248735428,-1.606015682220459,0.1865646094083786,-1.5708626508712769,0.013397318311035633,-0.07199039310216904,0.09223415702581406,-1.6051936149597168,0.18409237265586853,-1.5727585554122925,0.024868471547961235,-0.06467825174331665,-0.5151391625404358,0.3216899037361145,0.574474036693573,0.2968752682209015,-0.5784769654273987,-0.9655900597572327,0.670373,-0.170169,0.4514856840556659,0.03441375383827629,0.23704647693170436,1.0740416247210964,-2.24683030840253,False
64,1,0.09223415702581406,-1.6051936149597168,0.18409237265586853,-1.5727585554122925,0.024868471547961235,-0.06467825174331665,0.07488181442022324,-1.5960487127304077,0.20283663272857666,-1.5627304315567017,0.0006287240539677441,-0.0980348214507103,-0.4658900499343872,0.2444239854812622,0.14420217275619507,0.6420115232467651,-0.6770262122154236,-0.6165696382522583,0.670373,-0.170169,0.4514856840556659,0.05097821633355044,0.2377772051458108,1.0723506210328306,-2.245369859945471,False
65,1,0.07488181442022324,-1.5960487127304077,0.20283663272857666,-1.5627304315567017,0.0006287240539677441,-0.0980348214507103,0.07250827550888062,-1.594830870628357,0.1982453167438507,-1.5539110898971558,-0.003219728823751211,-0.09702802449464798,-0.6168736815452576,-0.656598687171936,0.09938700497150421,0.6431604623794556,0.31756487488746643,-0.29777032136917114,0.670373,-0.170169,0.4514856840556659,0.05994329798616168,0.2378670746147147,1.0714649949669122,-2.249120018221238,False
66,1,0.07250827550888062,-1.594830870628357,0.1982453167438507,-1.5539110898971558,-0.003219728823751211,-0.09702802449464798,0.05542577803134918,-1.6152657270431519,0.20399260520935059,-1.5399125814437866,0.008615817874670029,-0.10656684637069702,0.6030623912811279,0.6965705752372742,-0.9308452606201172,-0.054464876651763916,0.8135166168212891,0.7054796814918518,0.670373,-0.170169,0.4514856840556659,0.052278664057313386,0.23653385913050562,1.0720912899251833,-2.2638467280980024,False
67,1,0.05542577803134918,-1.6152657270431519,0.20399260520935059,-1.5399125814437866,0.008615817874670029,-0.10656684637069702,0.05542577803134918,-1.6152657270431519,0.20399260520935059,-1.5399125814437866,0.008615817874670029,-0.10656684637069702,0.7308844923973083,0.9621866941452026,-0.049808304756879807,0.8742729425430298,-0.014480029232800007,-0.17319536209106445,0.670373,-0.170169,0.4514856840556659,0.048436933523857056,0.2359418998180036,1.072360695694298,-2.2762343305503716,False
68,1,0.05542577803134918,-1.6152657270431519,0.20399260520935059,-1.5399125814437866,0.008615817874670029,-0.10656684637069702,0.05542577803134918,-1.6152657270431519,0.20399260520935059,-1.5399125814437866,0.008615817874670029,-0.10656684637069702,-0.9833959341049194,-0.5898410677909851,-0.2484961301088333,0.4263346195220947,0.8157575130462646,0.2742716073989868,0.670373,-0.170169,0.4514856840556659,0.048436933523857056,0.2359418998180036,1.072360695694298,-2.286234330550372,False
69,1,0.05542577803134918,-1.6152657270431519,0.20399260520935059,-1.5399125814437866,0.008615817874670029,-0.10656684637069702,0.055426161736249924,-1.615275502204895,0.20400996506214142,-1.539920449256897,0.008614403195679188,-0.10656934976577759,0.43827784061431885,-0.6102020144462585,-0.7899227142333984,0.42485812306404114,0.6015245318412781,0.888525664806366,0.670373,-0.170169,0.4514856840556659,0.04843577943439237,0.2359418606446504,1.0723600146856305,-2.2962346187860105,False
70,1,0.055426161736249924,-1.615275502204895,0.20400996506214142,-1.539920449256897,0.008614403195679188,-0.10656934976577759,0.06916921585798264,-1.6125437021255493,0.18680788576602936,-1.5386278629302979,0.004014188423752785,-0.09182344377040863,0.6184603571891785,-0.6096842288970947,-0.8863430619239807,0.3981148600578308,-0.9211824536323547,0.7579920291900635,0.670373,-0.170169,0.4514856840556659,0.05028656972534968,0.23664751930910854,1.072662203528757,-2.3055372584934566,False
71,1,0.06916921585798264,-1.6125437021255493,0.18680788576602936,-1.5386278629302979,0.004014188423752785,-0.09182344377040863,0.07346513122320175,-1.6208627223968506,0.18004921078681946,-1.5339784622192383,-0.0063512264750897884,-0.08604218065738678,0.3832642734050751,0.1705198585987091,-0.42827779054641724,-0.8739515542984009,0.6381790637969971,0.3115047216415405,0.670373,-0.170169,0.4514856840556659,0.05028656972534968,0.23664751930910854,1.072662203528757,-2.315537258493457,False
72,1,0.07346513122320175,-1.6208627223968506,0.18004921078681946,-1.5339784622192383,-0.0063512264750897884,-0.08604218065738678,0.07941289246082306,-1.6141389608383179,0.17420907318592072,-1.5533316135406494,0.010555947199463844,-0.0821230337023735,-0.8403467535972595,-0.16739723086357117,0.304149866104126,0.582582950592041,0.7317831516265869,0.5462355613708496,0.670373,-0.170169,0.4514856840556659,0.027839744127507796,0.23584622279977008,1.0747082754644413,-2.3410407658237244,False
73,1,0.07941289246082306,-1.6141389608383179,0.17420907318592072,-1.5533316135406494,0.010555947199463844,-0.0821230337023735,0.06981755793094635,-1.617155909538269,0.17842140793800354,-1.5436372756958008,0.01449416670948267,-0.0774444192647934,-0.6532737016677856,0.5870116949081421,-0.6570684313774109,-0.7162470817565918,-0.08150382339954376,-0.44113972783088684,0.670373,-0.170169,0.4514856840556659,0.029971033537212307,0.23555421359339884,1.0744960768580372,-2.3493933524422737,False
74,1,0.06981755793094635,-1.617155909538269,0.17842140793800354,-1.5436372756958008,0.01449416670948267,-0.0774444192647934,0.0652042105793953,-1.6106915473937988,0.17102351784706116,-1.5527472496032715,0.012890134006738663,-0.08279198408126831,-0.2392784059047699,0.05673892796039581,0.3456753194332123,-0.9785735011100769,0.9184184074401855,0.387317955493927,0.670373,-0.170169,0.4514856840556659,0.029972327358923176,0.23555421011156794,1.0744954923387795,-2.3593921354947396,False
75,1,0.0652042105793953,-1.6106915473937988,0.17102351784706116,-1.5527472496032715,0.012890134006738663,-0.08279198408126831,0.06373461335897446,-1.6114270687103271,0.17597581446170807,-1.560721755027771,0.0223931185901165,-0.0778479054570198,-0.9719021320343018,0.5848502516746521,-0.32113194465637207,0.1169055849313736,-0.7358872294425964,-0.9388614892959595,0.670373,-0.170169,0.4514856840556659,0.029972327358923176,0.23555421011156794,1.0744954923387795,-2.3693921354947394,False
76,1,0.06373461335897446,-1.6114270687103271,0.17597581446170807,-1.560721755027771,0.0223931185901165,-0.0778479054570198,0.05431005358695984,-1.6054401397705078,0.17178912460803986,-1.5579670667648315,0.01313204038888216,-0.0882251113653183,0.7059316635131836,-0.8062728643417358,-0.026674002408981323,0.7729103565216064,0.3602238595485687,0.20102354884147644,0.670373,-0.170169,0.4514856840556659,0.03978299772285747,0.23539804454624197,1.0745386217493909,-2.372980291193757,False
77,1,0.05431005358695984,-1.6054401397705078,0.17178912460803986,-1.5579670667648315,0.01313204038888216,-0.0882251113653183,0.0632561445236206,-1.6147220134735107,0.17239123582839966,-1.5508055686950684,0.01858198083937168,-0.0841408371925354,0.24836082756519318,0.8636831045150757,-0.9156425595283508,0.8104735016822815,0.33528295159339905,-0.08566408604383469,0.670373,-0.170169,0.4514856840556659,0.029691123905165512,0.23523015587817142,1.0749357464619462,-2.3897213294980864,False
78,1,0.0632561445236206,-1.6147220134735107,0.17239123582839966,-1.5508055686950684,0.01858198083937168,-0.0841408371925354,0.05758696421980858,-1.6006340980529785,0.15779495239257812,-1.537975788116455,0.01911451853811741,-0.0924636721611023,-0.6225056648254395,0.569955050945282,-0.7189232110977173,0.7497314810752869,-0.12753675878047943,-0.698050320148468,0.670373,-0.170169,0.4514856840556659,0.03500263668928764,0.23559686637095092,1.0749758354487238,-2.3964403744968865,False
79,1,0.05758696421980858,-1.6006340980529785,0.15779495239257812,-1.537975788116455,0.01911451853811741,-0.0924636721611023,0.05122514069080353,-1.5970410108566284,0.15247279405593872,-1.5318140983581543,0.01738300547003746,-0.09911534190177917,0.958283007144928,-0.3371187448501587,-0.26552698016166687,0.2953357398509979,0.42208176851272583,-0.9390567541122437,0.670373,-0.170169,0.4514856840556659,0.03500263668928764,0.23559686637095092,1.0749758354487238,-2.4064403744968867,False
80,1,0.05122514069080353,-1.5970410108566284,0.15247279405593872,-1.5318140983581543,0.01738300547003746,-0.09911534190177917,0.07293261587619781,-1.6052261590957642,0.14930841326713562,-1.5283794403076172,0.026517031714320183,-0.11523895710706711,-0.8719579577445984,-0.9481725692749023,-0.9144225716590881,0.3471873998641968,0.13862748444080353,0.09171679615974426,0.670373,-0.170169,0.4514856840556659,0.02625123727581821,0.23540369851163517,1.075746309297842,-2.4225553305604115,False
81,1,0.07293261587619781,-1.6052261590957642,0.14930841326713562,-1.5283794403076172,0.026517031714320183,-0.11523895710706711,0.059872500598430634,-1.6130834817886353,0.1408124417066574,-1.5255966186523438,0.02607329934835434,-0.11110290139913559,0.8541142344474792,-0.17294475436210632,0.5366663932800293,-0.788374662399292,-0.04201294481754303,0.5108502507209778,0.670373,-0.170169,0.4514856840556659,0.018330826230901605,0.23438297680008943,1.0764619553999784,-2.437789807521204,False
82,1,0.059872500598430634,-1.6130834817886353,0.1408124417066574,-1.5255966186523438,0.02607329934835434,-0.11110290139913559,0.09333194047212601,-1.6135724782943726,0.16203464567661285,-1.5509339570999146,0.025076722726225853,-0.0982569083571434,0.07276701927185059,-0.15280404686927795,-0.5309573411941528,-0.07909993827342987,-0.5740850567817688,-0.8646965622901917,0.670373,-0.170169,0.4514856840556659,0.01809649215073285,0.23514689337677205,1.0759120353468077,-2.447909663396985,False
83,1,0.09333194047212601,-1.6135724782943726,0.16203464567661285,-1.5509339570999146,0.025076722726225853,-0.0982569083571434,0.08736734092235565,-1.6150133609771729,0.15249696373939514,-1.546664834022522,0.01953415386378765,-0.10947487503290176,0.614152729511261,-0.6024382710456848,0.4488021731376648,0.1383625566959381,0.07189001142978668,0.6526859402656555,0.670373,-0.170169,0.4514856840556659,0.01809649215073285,0.23514689337677205,1.0759120353468077,-2.4579096633969852,False
84,1,0.08736734092235565,-1.6150133609771729,0.15249696373939514,-1.546664834022522,0.01953415386378765,-0.10947487503290176,0.09470066428184509,-1.6207612752914429,0.15891098976135254,-1.5461452007293701,0.021360907703638077,-0.10070458054542542,0.15306225419044495,0.8434601426124573,-0.9346663951873779,0.09504339098930359,-0.3687393367290497,0.2084048092365265,0.670373,-0.170169,0.4514856840556659,0.010422757971636191,0.23491544455052496,1.0759393075135288,-2.4729063591674008,False
85,1,0.09470066428184509,-1.6207612752914429,0.15891098976135254,-1.5461452007293701,0.021360907703638077,-0.10070458054542542,0.09483092278242111,-1.6016032695770264,0.13766755163669586,-1.5444564819335938,0.01325172558426857,-0.10004940629005432,0.859907865524292,-0.8094704747200012,0.676058828830719,0.13117606937885284,0.9951351284980774,0.8101813793182373,0.670373,-0.170169,0.4514856840556659,0.01843788875037326,0.23569611983641306,1.076253299262826,-2.4781251301485443,False
86,1,0.09483092278242111,-1.6016032695770264,0.13766755163669586,-1.5444564819335938,0.01325172558426857,-0.10004940629005432,0.1119728535413742,-1.625468134880066,0.15970879793167114,-1.5425240993499756,0.036398328840732574,-0.08410483598709106,-0.06656678766012192,0.6466901898384094,-0.8330883383750916,-0.128647118806839,-0.2133314311504364,0.01250131893903017,0.670373,-0.170169,0.4514856840556659,0.009893995166006215,0.23514655739578355,1.0762575154791125,-2.4935510226929067,False
87,1,0.1119728535413742,-1.625468134880066,0.15970879793167114,-1.5425240993499756,0.036398328840732574,-0.08410483598709106,0.11286064237356186,-1.6104897260665894,0.1550314724445343,-1.5413810014724731,0.022079413756728172,-0.09343215078115463,0.41620808839797974,0.5996320843696594,0.5498822331428528,0.24877293407917023,-0.8906194567680359,-0.6873672008514404,0.670373,-0.170169,0.4514856840556659,0.009893995166006215,0.23514655739578355,1.0762575154791125,-2.5035510226929065,False
88,1,0.11286064237356186,-1.6104897260665894,0.1550314724445343,-1.5413810014724731,0.022079413756728172,-0.09343215078115463,0.11784479022026062,-1.6067532300949097,0.16309261322021484,-1.5385615825653076,0.014521634206175804,-0.09969828277826309,0.7633795142173767,0.6216633915901184,-0.5126779675483704,0.594931423664093,-0.6882113218307495,0.8039133548736572,0.670373,-0.170169,0.4514856840556659,0.021124033842199637,0.23701696857627388,1.0749259581376829,-2.5060633417383227,False
89,1,0.11784479022026062,-1.6067532300949097,0.16309261322021484,-1.5385615825653076,0.014521634206175804,-0.09969828277826309,0.13111871480941772,-1.595819115638733,0.1496298760175705,-1.5277916193008423,0.0037794490344822407,-0.08112254738807678,0.5659680366516113,-0.8383282423019409,0.8671761155128479,0.15087953209877014,0.5949648022651672,-0.3124431073665619,0.670373,-0.170169,0.4514856840556659,0.023455751563775204,0.23800898137971485,1.0748916669228652,-2.5149207975681116,False
90,1,0.13111871480941772,-1.595819115638733,0.1496298760175705,-1.5277916193008423,0.0037794490344822407,-0.08112254738807678,0.13712628185749054,-1.6169711351394653,0.17238113284111023,-1.52909255027771,0.019975095987319946,-0.0948043018579483,0.8313160538673401,0.29788151383399963,0.11993080377578735,-0.1716543287038803,0.44432690739631653,0.629513144493103,0.670373,-0.170169,0.4514856840556659,0.017826604807167738,0.2374088504209059,1.0748487707263823,-2.528346108732138,False
91,1,0.13712628185749054,-1.6169711351394653,0.17238113284111023,-1.52909255027771,0.019975095987319946,-0.0948043018579483,0.15135209262371063,-1.6025639772415161,0.16569814085960388,-1.5320111513137817,0.022378219291567802,-0.07674682885408401,-0.769004762172699,0.5334964990615845,-0.4829786717891693,-0.6110866665840149,0.5659716725349426,-0.7950897812843323,0.670373,-0.170169,0.4514856840556659,0.018083552167176616,0.23832612396795494,1.0745729511170274,-2.5383811978890103,False
92,1,0.15135209262371063,-1.6025639772415161,0.16569814085960388,-1.5320111513137817,0.022378219291567802,-0.07674682885408401,0.1302824467420578,-1.597665786743164,0.1587301641702652,-1.5430768728256226,0.03273220360279083,-0.09987155348062515,-0.322516530752182,-0.473154217004776,-0.29982972145080566,-0.3344210684299469,0.5811289548873901,0.21450679004192352,0.670373,-0.170169,0.4514856840556659,0.022075090353279134,0.23772921496666294,1.0750930668358738,-2.5458380430667304,False
93,1,0.1302824467420578,-1.597665786743164,0.1587301641702652,-1.5430768728256226,0.03273220360279083,-0.09987155348062515,0.13225877285003662,-1.6090909242630005,0.1555265486240387,-1.5453436374664307,0.04021317884325981,-0.08633013814687729,-0.26037082076072693,-0.13723227381706238,0.1677578240633011,-0.913912296295166,0.5755801200866699,0.2527215778827667,0.670373,-0.170169,0.4514856840556659,0.015418308295927094,0.23689013680306364,1.0755469307683967,-2.560160820575594,False
94,1,0.13225877285003662,-1.6090909242630005,0.1555265486240387,-1.5453436374664307,0.04021317884325981,-0.08633013814687729,0.12925845384597778,-1.6081843376159668,0.15785889327526093,-1.554040789604187,0.044471416622400284,-0.08650839328765869,-0.2707256078720093,0.34554800391197205,0.8151004910469055,0.9826295971870422,0.4665067195892334,0.9429028034210205,0.670373,-0.170169,0.4514856840556659,0.015418308295927094,0.23689013680306364,1.0755469307683967,-2.570160820575594,False
95,1,0.12925845384597778,-1.6081843376159668,0.15785889327526093,-1.554040789604187,0.044471416622400284,-0.08650839328765869,0.1292591392993927,-1.6081938743591309,0.15787340700626373,-1.5540508031845093,0.04446805641055107,-0.08650682866573334,-0.1390117108821869,0.3918478488922119,0.16930893063545227,0.03385017439723015,0.7041031122207642,-0.6786375641822815,0.670373,-0.170169,0.4514856840556659,0.015418308295927094,0.23689013680306364,1.0755469307683967,-2.580160820575594,False
96,1,0.1292591392993927,-1.6081938743591309,0.15787340700626373,-1.5540508031845093,0.04446805641055107,-0.08650682866573334,0.12647944688796997,-1.6003680229187012,0.16128212213516235,-1.5533921718597412,0.05854365602135658,-0.10007505118846893,-0.9300168752670288,-0.7917012572288513,-0.14905261993408203,0.4798610806465149,-0.66362065076828,-0.8366682529449463,0.670373,-0.170169,0.4514856840556659,0.018249810560520614,0.23692396049284126,1.0755766242615588,-2.5883263119870428,False
97,1,0.12647944688796997,-1.6003680229187012,0.16128212213516235,-1.5533921718597412,0.05854365602135658,-0.10007505118846893,0.10899093002080917,-1.6193488836288452,0.15695872902870178,-1.5440680980682373,0.03963836282491684,-0.11138256639242172,-0.46423250436782837,-0.7627309560775757,-0.9271290302276611,-0.7566424012184143,0.45511335134506226,0.843522310256958,0.670373,-0.170169,0.4514856840556659,0.005824165415070732,0.23484867616582847,1.0762200079083506,-2.606111676558439,False
98,1,0.10899093002080917,-1.6193488836288452,0.15695872902870178,-1.5440680980682373,0.03963836282491684,-0.11138256639242172,0.10784181952476501,-1.6231873035430908,0.14856907725334167,-1.5535160303115845,0.04797142371535301,-0.10067892074584961,-0.20835645496845245,-0.07764141261577606,0.7340733408927917,-0.9406973719596863,-0.3704407215118408,-0.5398500561714172,0.670373,-0.170169,0.4514856840556659,0.005824165415070732,0.23484867616582847,1.0762200079083506,-2.6161116765584387,False
99,1,0.10784181952476501,-1.6231873035430908,0.14856907725334167,-1.5535160303115845,0.04797142371535301,-0.10067892074584961,0.10413244366645813,-1.6232186555862427,0.16662992537021637,-1.5685722827911377,0.03722880780696869,-0.11574956029653549,0.77201908826828,-0.8189161419868469,-0.4165636897087097,-0.7640032172203064,0.8058810234069824,0.9585971236228943,0.670373,-0.170169,0.4514856840556659,0.005959913996504243,0.23472194737019245,1.0760167671774512,-2.625842623455034,False
100,1,0.10413244366645813,-1.6232186555862427,0.16662992537021637,-1.5685722827911377,0.03722880780696869,-0.11574956029653549,0.12104931473731995,-1.639596939086914,0.1510968655347824,-1.5778576135635376,0.05764621123671532,-0.09053371101617813,-0.2850901186466217,-0.15265965461730957,0.3575107455253601,-0.32504791021347046,-0.5459831357002258,-0.022493602707982063,0.670373,-0.170169,0.4514856840556659,-0.02334104932027549,0.2316108676370471,1.0772169098071296,-2.655094100034611,False
101,1,0.12104931473731995,-1.639596939086914,0.1510968655347824,-1.5778576135635376,0.05764621123671532,-0.09053371101617813,0.11480993777513504,-1.6378576755523682,0.1577984094619751,-1.579272747039795,0.04810557886958122,-0.0957913026213646,-0.7966244220733643,0.9156181812286377,-0.5999892354011536,0.8913838863372803,-0.565828263759613,0.1935592144727707,0.670373,-0.170169,0.4514856840556659,-0.016255977529235178,0.23245289476350509,1.0768881507556352,-2.6604057089905373,False
102,1,0.11480993777513504,-1.6378576755523682,0.1577984094619751,-1.579272747039795,0.04810557886958122,-0.0957913026213646,0.09823297709226608,-1.629212498664856,0.13828037679195404,-1.5636628866195679,0.046504225581884384,-0.08441644161939621,-0.5826581120491028,-0.543522298336029,-0.7791582345962524,0.09078958630561829,0.4400928318500519,0.6592139601707458,0.670373,-0.170169,0.4514856840556659,-0.012355031121509093,0.2327024534275596,1.0774501898359456,-2.6682114995596304,False
103,1,0.09823297709226608,-1.629212498664856,0.13828037679195404,-1.5636628866195679,0.046504225581884384,-0.08441644161939621,0.08456134796142578,-1.6591086387634277,0.12097115814685822,-1.5698567628860474,0.06160600110888481,-0.06957438588142395,-0.6127058267593384,-0.8389859199523926,-0.5668901801109314,0.04765859246253967,0.09317992627620697,0.18740610778331757,0.670373,-0.170169,0.4514856840556659,-0.04435843516833986,0.22966567570198546,1.0777341125325106,-2.6991034216702396,False
104,1,0.08456134796142578,-1.6591086387634277,0.12097115814685822,-1.5698567628860474,0.06160600110888481,-0.06957438588142395,0.08031342923641205,-1.6621348857879639,0.11823061108589172,-1.567731261253357,0.058999307453632355,-0.07093223184347153,-0.680072009563446,-0.6549673080444336,0.34014999866485596,-0.7634033560752869,-0.11076022684574127,-0.7389618754386902,0.670373,-0.170169,0.4514856840556659,-0.047013715796362744,0.2295605082708993,1.077684355637553,-2.7108751202986676,False
105,1,0.08031342923641205,-1.6621348857879639,0.11823061108589172,-1.567731261253357,0.058999307453632355,-0.07093223184347153,0.06839998811483383,-1.6740378141403198,0.1261531263589859,-1.5838799476623535,0.057835083454847336,-0.08514947444200516,0.2959548234939575,0.35705965757369995,-0.9448728561401367,-0.33843252062797546,-0.8899669051170349,-0.1525137573480606,0.670373,-0.170169,0.4514856840556659,-0.055405572505978426,0.22948330072124243,1.0770858449507872,-2.726331541649316,False
106,1,0.06839998811483383,-1.6740378141403198,0.1261531263589859,-1.5838799476623535,0.057835083454847336,-0.08514947444200516,0.07907865941524506,-1.6621510982513428,0.1041048988699913,-1.5842087268829346,0.040505897253751755,-0.08250145614147186,-0.9105788469314575,0.886431872844696,-0.32155802845954895,-0.10050297528505325,0.9238532781600952,0.1859014928340912,0.670373,-0.170169,0.4514856840556659,-0.05614406428108078,0.22909908653407157,1.0775932014811684,-2.7370058644450985,False
107,1,0.07907865941524506,-1.6621510982513428,0.1041048988699913,-1.5842087268829346,0.040505897253751755,-0.08250145614147186,0.05659409239888191,-1.649180293083191,0.10649824887514114,-1.5860954523086548,0.06591442972421646,-0.07983726263046265,-0.34010595083236694,0.062011707574129105,-0.7828112840652466,-0.46738266944885254,-0.181102454662323,-0.8511937856674194,0.670373,-0.170169,0.4514856840556659,-0.04065367056757936,0.23075362292782686,1.078015951371688,-2.737133567392993,False
108,1,0.05659409239888191,-1.649180293083191,0.10649824887514114,-1.5860954523086548,0.06591442972421646,-0.07983726263046265,0.057677749544382095,-1.6511695384979248,0.09821721166372299,-1.5904289484024048,0.05902955308556557,-0.08885788172483444,-0.9611595869064331,0.8061341643333435,0.002325813751667738,0.6346835494041443,0.4630213677883148,0.6978144645690918,0.670373,-0.170169,0.4514856840556659,-0.04065367056757936,0.23075362292782686,1.078015951371688,-2.747133567392993,False
109,1,0.057677749544382095,-1.6511695384979248,0.09821721166372299,-1.5904289484024048,0.05902955308556557,-0.08885788172483444,0.038016799837350845,-1.634262204170227,0.1015927791595459,-1.5760217905044556,0.07104340940713882,-0.07128209620714188,0.01764608547091484,-0.25256872177124023,0.1804419457912445,-0.6780166625976562,-0.8648554086685181,-0.00021904706954956055,0.670373,-0.170169,0.4514856840556659,-0.024622610078111958,0.2318804551945357,1.0784379391671655,-2.7468262155503576,False
110,1,0.038016799837350845,-1.634262204170227,0.1015927791595459,-1.5760217905044556,0.07104340940713882,-0.07128209620714188,0.045772165060043335,-1.6420032978057861,0.11101777106523514,-1.5849955081939697,0.0602555125951767,-0.0753137469291687,0.44735419750213623,-0.3004160225391388,0.8505538105964661,-0.12238126248121262,-0.19494570791721344,-0.123033307492733,0.670373,-0.170169,0.4514856840556659,-0.030296345354139387,0.23165057803032668,1.0782525112686376,-2.760501451181808,False
111,1,0.045772165060043335,-1.6420032978057861,0.11101777106523514,-1.5849955081939697,0.0602555125951767,-0.0753137469291687,0.04941803589463234,-1.6438325643539429,0.11931139975786209,-1.5843054056167603,0.06051965057849884,-0.07582978904247284,0.27302834391593933,-0.5985137224197388,0.31988903880119324,0.4766841530799866,-0.2053772509098053,-0.20923151075839996,0.670373,-0.170169,0.4514856840556659,-0.027101767880805427,0.23166162805207893,1.0779913001449153,-2.7681586234825555,False
112,1,0.04941803589463234,-1.6438325643539429,0.11931139975786209,-1.5843054056167603,0.06051965057849884,-0.07582978904247284,0.05341215059161186,-1.6550847291946411,0.12241265177726746,-1.5750703811645508,0.05631132796406746,-0.07979575544595718,-0.04279172793030739,-0.1373363435268402,0.16466929018497467,-0.6752803325653076,-0.3919178247451782,0.09828361123800278,0.670373,-0.170169,0.4514856840556659,-0.027101767880805427,0.23166162805207893,1.0779913001449153,-2.7781586234825557,False
113,1,0.05341215059161186,-1.6550847291946411,0.12241265177726746,-1.5750703811645508,0.05631132796406746,-0.07979575544595718,0.04972221329808235,-1.6524674892425537,0.12551657855510712,-1.600905418395996,0.0470861978828907,-0.07444512099027634,0.36939510703086853,0.09197935461997986,-0.525620698928833,0.4111054241657257,-0.653306782245636,-0.6391133069992065,0.670373,-0.170169,0.4514856840556659,-0.032343508740941364,0.23146815047592,1.0776614365995587,-2.7914721709135684,False
114,1,0.04972221329808235,-1.6524674892425537,0.12551657855510712,-1.600905418395996,0.0470861978828907,-0.07444512099027634,0.058582521975040436,-1.6516754627227783,0.11376696079969406,-1.582353949546814,0.03771331161260605,-0.08936532586812973,-0.8360106945037842,-0.3196465075016022,-0.49367555975914,-0.6654447913169861,0.4894195795059204,0.33631131052970886,0.670373,-0.170169,0.4514856840556659,-0.03666028475614943,0.23107916285504956,1.0778560347643094,-2.804407853677078,False
115,1,0.058582521975040436,-1.6516754627227783,0.11376696079969406,-1.582353949546814,0.03771331161260605,-0.08936532586812973,0.038310274481773376,-1.6583918333053589,0.10860735177993774,-1.6031055450439453,0.05125708505511284,-0.07665616273880005,0.5454804301261902,-0.5661414861679077,0.42795148491859436,0.06100999563932419,-0.7166562080383301,-0.9080783128738403,0.670373,-0.170169,0.4514856840556659,-0.03666028475614943,0.23107916285504956,1.0778560347643094,-2.8144078536770776,False
116,1,0.038310274481773376,-1.6583918333053589,0.10860735177993774,-1.6031055450439453,0.05125708505511284,-0.07665616273880005,0.040676239877939224,-1.6634763479232788,0.12218409776687622,-1.606991171836853,0.05279222130775452,-0.07668899744749069,-0.5230329632759094,-0.16115298867225647,0.9299858212471008,-0.765563428401947,0.9426987171173096,0.9240853190422058,0.670373,-0.170169,0.4514856840556659,-0.0431228424529546,0.23119888694851665,1.0773679315171432,-2.828620849276253,False
117,1,0.040676239877939224,-1.6634763479232788,0.12218409776687622,-1.606991171836853,0.05279222130775452,-0.07668899744749069,0.026414046064019203,-1.6649689674377441,0.13865508139133453,-1.6242042779922485,0.07559376209974289,-0.05355887487530708,0.38626915216445923,0.6989524960517883,-0.7359119653701782,0.6282407641410828,-0.7956035733222961,0.39846712350845337,0.670373,-0.170169,0.4514856840556659,-0.037068339858952304,0.23171737685911903,1.0770577743630487,-2.834451885478324,False
118,1,0.026414046064019203,-1.6649689674377441,0.13865508139133453,-1.6242042779922485,0.07559376209974289,-0.05355887487530708,0.033115092664957047,-1.6576977968215942,0.12803354859352112,-1.614530086517334,0.06308728456497192,-0.054166391491889954,0.24306456744670868,0.6328279376029968,0.5000411868095398,0.6047971844673157,-0.6066601276397705,-0.24485835433006287,0.670373,-0.170169,0.4514856840556659,-0.037071131510605565,0.23171747958381414,1.077057045901708,-2.8444534059749578,False
119,1,0.033115092664957047,-1.6576977968215942,0.12803354859352112,-1.614530086517334,0.06308728456497192,-0.054166391491889954,0.0404328815639019,-1.6511290073394775,0.1278158724308014,-1.6066327095031738,0.06438633054494858,-0.06159083545207977,0.6450175046920776,0.26828598976135254,-0.5936112999916077,0.46321535110473633,0.4149211645126343,-0.5578426122665405,0.670373,-0.170169,0.4514856840556659,-0.030124640200826468,0.23166526590706554,1.0776552209858417,-2.850023452896571,False
120,1,0.0404328815639019,-1.6511290073394775,0.1278158724308014,-1.6066327095031738,0.06438633054494858,-0.06159083545207977,0.0466582290828228,-1.6494271755218506,0.12046809494495392,-1.6028449535369873,0.06925252079963684,-0.06668923795223236,0.31003281474113464,0.779389500617981,0.3305378556251526,0.42139387130737305,-0.9765950441360474,-0.058102793991565704,0.670373,-0.170169,0.4514856840556659,-0.03372239713447227,0.23134003848265408,1.0778067595324503,-2.862458154983627,False
121,1,0.0466582290828228,-1.6494271755218506,0.12046809494495392,-1.6028449535369873,0.06925252079963684,-0.06668923795223236,0.0398113988339901,-1.6517620086669922,0.12780946493148804,-1.6088910102844238,0.06990274041891098,-0.07442545145750046,-0.8326300382614136,-0.8284783363342285,0.3503101170063019,-0.8785711526870728,0.9239565134048462,-0.8103045225143433,0.670373,-0.170169,0.4514856840556659,-0.02359090944662643,0.23185834097876495,1.0778662474404965,-2.865761896605627,False
122,1,0.0398113988339901,-1.6517620086669922,0.12780946493148804,-1.6088910102844238,0.06990274041891098,-0.07442545145750046,0.031104760244488716,-1.6615452766418457,0.13037428259849548,-1.6183990240097046,0.08129611611366272,-0.082594133913517,-0.24455726146697998,-0.8709754943847656,-0.4105914831161499,-0.25398942828178406,0.8020793199539185,0.1251661479473114,0.670373,-0.170169,0.4514856840556659,-0.03133398923746248,0.2315931437100666,1.077634545050734,-2.880811838003401,False
123,1,0.031104760244488716,-1.6615452766418457,0.13037428259849548,-1.6183990240097046,0.08129611611366272,-0.082594133913517,0.03225244581699371,-1.6622754335403442,0.12964323163032532,-1.6282196044921875,0.08087547868490219,-0.08527662605047226,0.17212513089179993,0.4681239724159241,0.294495165348053,-0.9274934530258179,-0.5021213293075562,-0.501559317111969,0.670373,-0.170169,0.4514856840556659,-0.041307183056068765,0.23136274064738765,1.0771639182941324,-2.897304410010716,False
124,1,0.03225244581699371,-1.6622754335403442,0.12964323163032532,-1.6282196044921875,0.08087547868490219,-0.08527662605047226,0.03597388043999672,-1.6502233743667603,0.13739721477031708,-1.6465438604354858,0.06853778660297394,-0.0964416041970253,-0.9025232195854187,-0.8268187642097473,0.21241486072540283,0.15588361024856567,-0.06365405768156052,-0.8981489539146423,0.670373,-0.170169,0.4514856840556659,-0.02794294581834819,0.23181104679631473,1.0772649987505043,-2.8983471685740096,False
125,1,0.03597388043999672,-1.6502233743667603,0.13739721477031708,-1.6465438604354858,0.06853778660297394,-0.0964416041970253,0.026194080710411072,-1.6609127521514893,0.1379917562007904,-1.6413581371307373,0.07037635147571564,-0.10316365957260132,0.9964534640312195,0.6910005211830139,0.8679757714271545,-0.5640292167663574,0.8827322721481323,-0.03671478107571602,0.670373,-0.170169,0.4514856840556659,-0.03482520726801819,0.2318208660526355,1.0770415475653785,-2.912937665060169,False
126,1,0.026194080710411072,-1.6609127521514893,0.1379917562007904,-1.6413581371307373,0.07037635147571564,-0.10316365957260132,0.02853965200483799,-1.6491423845291138,0.15345913171768188,-1.63996422290802,0.08527155965566635,-0.10032232850790024,-0.7184247970581055,0.45434069633483887,0.8597449064254761,0.6774179935455322,0.8124586343765259,0.2033400535583496,0.670373,-0.170169,0.4514856840556659,-0.03482520726801819,0.2318208660526355,1.0770415475653785,-2.9229376650601693,False
127,1,0.02853965200483799,-1.6491423845291138,0.15345913171768188,-1.63996422290802,0.08527155965566635,-0.10032232850790024,0.009398916736245155,-1.6436843872070312,0.1672472506761551,-1.6237701177597046,0.09813619405031204,-0.09663126617670059,0.43902936577796936,-0.5677197575569153,-0.15138624608516693,-0.030348388478159904,0.6518088579177856,0.834139347076416,0.670373,-0.170169,0.4514856840556659,-0.0018049901060585177,0.23241408883630227,1.076845974508778,-2.9106178610383324,False
128,1,0.009398916736245155,-1.6436843872070312,0.1672472506761551,-1.6237701177597046,0.09813619405031204,-0.09663126617670059,0.017609938979148865,-1.650465965270996,0.16299843788146973,-1.627350926399231,0.10208375751972198,-0.08900222927331924,-0.17108465731143951,0.8619754314422607,0.8017644882202148,0.3806496560573578,-0.5890176296234131,-0.5402938723564148,0.670373,-0.170169,0.4514856840556659,-0.012745569107545018,0.23219301156168387,1.076927836456944,-2.9279488708731662,False
129,1,0.017609938979148865,-1.650465965270996,0.16299843788146973,-1.627350926399231,0.10208375751972198,-0.08900222927331924,0.014252101071178913,-1.6405019760131836,0.17188838124275208,-1.6228629350662231,0.09540413320064545,-0.0959094911813736,-0.08228975534439087,0.3419173061847687,-0.4542364478111267,-0.2713761627674103,0.10225621610879898,-0.6914910674095154,0.670373,-0.170169,0.4514856840556659,0.002610659055653371,0.23250788630978678,1.0766722629154997,-2.9275915909223285,False
130,1,0.014252101071178913,-1.6405019760131836,0.17188838124275208,-1.6228629350662231,0.09540413320064545,-0.0959094911813736,0.013942773453891277,-1.6376628875732422,0.15927238762378693,-1.630129337310791,0.10012173652648926,-0.10694687813520432,-0.6925259232521057,-0.2567070722579956,-0.11795034259557724,-0.6754424571990967,0.8603957891464233,-0.21318185329437256,0.670373,-0.170169,0.4514856840556659,0.002610659055653371,0.23250788630978678,1.0766722629154997,-2.9375915909223282,False
131,1,0.013942773453891277,-1.6376628875732422,0.15927238762378693,-1.630129337310791,0.10012173652648926,-0.10694687813520432,0.0070727551355957985,-1.6408100128173828,0.16063851118087769,-1.635470986366272,0.10778293758630753,-0.10684356838464737,0.012959555722773075,-0.5120441913604736,0.21534742414951324,0.697732150554657,0.5356141924858093,-0.45560887455940247,0.670373,-0.170169,0.4514856840556659,-0.004004065737723526,0.23229951607524674,1.0769937699408876,-2.952139830034511,False
132,1,0.0070727551355957985,-1.6408100128173828,0.16063851118087769,-1.635470986366272,0.10778293758630753,-0.10684356838464737,0.010077462531626225,-1.6497966051101685,0.16440679132938385,-1.6193910837173462,0.11543092131614685,-0.11598995327949524,0.9640350341796875,0.9532622694969177,-0.7787718176841736,0.8817234635353088,-0.23367837071418762,0.040050238370895386,0.670373,-0.170169,0.4514856840556659,-0.01021869464545584,0.23214599751876328,1.0769995738167881,-2.9662669548218803,False
133,1,0.010077462531626225,-1.6497966051101685,0.16440679132938385,-1.6193910837173462,0.11543092131614685,-0.11598995327949524,0.01910777948796749,-1.638486385345459,0.1559004932641983,-1.6138468980789185,0.11156372725963593,-0.11372299492359161,-0.5518923997879028,-0.689010500907898,0.8059521317481995,0.2767598628997803,-0.859021782875061,0.4245435893535614,0.670373,-0.170169,0.4514856840556659,-0.00520943153098047,0.23222366621733417,1.07730077508013,-2.973110625462014,False
134,1,0.01910777948796749,-1.638486385345459,0.1559004932641983,-1.6138468980789185,0.11156372725963593,-0.11372299492359161,0.004448569379746914,-1.6568069458007812,0.17545075714588165,-1.6105698347091675,0.09593360126018524,-0.10611414909362793,0.7871096134185791,-0.6182168126106262,-0.19640715420246124,-0.4111247658729553,0.5175135135650635,-0.9181953072547913,0.670373,-0.170169,0.4514856840556659,-0.00520943153098047,0.23222366621733417,1.07730077508013,-2.9831106254620137,False
135,1,0.004448569379746914,-1.6568069458007812,0.17545075714588165,-1.6105698347091675,0.09593360126018524,-0.10611414909362793,0.01524387951940298,-1.6593382358551025,0.16959990561008453,-1.6153737306594849,0.10423696041107178,-0.11679340898990631,-0.7167944312095642,-0.1844104826450348,-0.9504122734069824,-0.48981449007987976,0.2511060833930969,0.006456335540860891,0.670373,-0.170169,0.4514856840556659,-0.01608547415937948,0.2321411717028415,1.076759046211699,-3.0000863271016067,False
136,1,0.01524387951940298,-1.6593382358551025,0.16959990561008453,-1.6153737306594849,0.10423696041107178,-0.11679340898990631,-0.0034128546249121428,-1.662018060684204,0.15293893218040466,-1.6232614517211914,0.10593922436237335,-0.11238320916891098,0.2625746726989746,-0.4832512140274048,-0.43951088190078735,0.8263173699378967,-0.7824966311454773,-0.0952339619398117,0.670373,-0.170169,0.4514856840556659,-0.023341201490156144,0.23242262491181973,1.076979390416266,-3.0152691044793385,False
137,1,-0.0034128546249121428,-1.662018060684204,0.15293893218040466,-1.6232614517211914,0.10593922436237335,-0.11238320916891098,-0.0034257308579981327,-1.6620393991470337,0.1529761254787445,-1.6233235597610474,0.10594438016414642,-0.1123412549495697,0.3376612067222595,0.04494085907936096,0.4161982536315918,0.3240561783313751,-0.16794396936893463,-0.7151094079017639,0.670373,-0.170169,0.4514856840556659,-0.023346223851395655,0.23242289856626386,1.0769777388401824,-3.025271622549168,False
138,1,-0.0034257308579981327,-1.6620393991470337,0.1529761254787445,-1.6233235597610474,0.10594438016414642,-0.1123412549495697,0.003323025070130825,-1.6611472368240356,0.16131195425987244,-1.6168588399887085,0.10258659720420837,-0.1266336292028427,-0.04481366649270058,-0.7879990935325623,-0.2812410891056061,0.06911672651767731,0.3346809446811676,-0.8193973898887634,0.670373,-0.170169,0.4514856840556659,-0.019023623595652444,0.23231433177444574,1.076903272142168,-3.032239381446645,False
139,1,0.003323025070130825,-1.6611472368240356,0.16131195425987244,-1.6168588399887085,0.10258659720420837,-0.1266336292028427,0.0015063752653077245,-1.6673694849014282,0.15753817558288574,-1.613568902015686,0.10436070710420609,-0.13302955031394958,-0.03688189759850502,0.023733211681246758,-0.02121245302259922,0.38062313199043274,-0.14443321526050568,-0.21506625413894653,0.670373,-0.170169,0.4514856840556659,-0.019023623595652444,0.23231433177444574,1.076903272142168,-3.0422393814466453,False
140,1,0.0015063752653077245,-1.6673694849014282,0.15753817558288574,-1.613568902015686,0.10436070710420609,-0.13302955031394958,0.0014905252028256655,-1.6655306816101074,0.15823978185653687,-1.6096686124801636,0.1021149754524231,-0.13409638404846191,-0.55828857421875,-0.5461103916168213,-0.10588778555393219,-0.5756608843803406,-0.14290685951709747,-0.8244293332099915,0.670373,-0.170169,0.4514856840556659,-0.02335240241218587,0.23234661412180083,1.0769235572463143,-3.055212325863202,False
141,1,0.0014905252028256655,-1.6655306816101074,0.15823978185653687,-1.6096686124801636,0.1021149754524231,-0.13409638404846191,-0.00967995636165142,-1.6772043704986572,0.15586881339550018,-1.622787356376648,0.10016196966171265,-0.15012726187705994,-0.8828295469284058,-0.4053190350532532,-0.8549681901931763,0.9467522501945496,-0.16845302283763885,0.8956956267356873,0.670373,-0.170169,0.4514856840556659,-0.03370789066143042,0.2327379928717268,1.0764910490062205,-3.0721934220231324,False
142,1,-0.00967995636165142,-1.6772043704986572,0.15586881339550018,-1.622787356376648,0.10016196966171265,-0.15012726187705994,-0.01628340221941471,-1.6789357662200928,0.14781495928764343,-1.61072838306427,0.09887304157018661,-0.13794291019439697,0.30601415038108826,-0.676474928855896,-0.22162075340747833,0.06190867722034454,0.5424255132675171,0.6103566884994507,0.670373,-0.170169,0.4514856840556659,-0.03370789066143042,0.2327379928717268,1.0764910490062205,-3.082193422023132,False
143,1,-0.01628340221941471,-1.6789357662200928,0.14781495928764343,-1.61072838306427,0.09887304157018661,-0.13794291019439697,-0.007534208707511425,-1.6917887926101685,0.14663110673427582,-1.6143574714660645,0.11024439334869385,-0.1305796205997467,-0.6599024534225464,-0.7394734025001526,-0.5027868151664734,-0.4033745229244232,-0.5006635785102844,-0.18202199041843414,0.670373,-0.170169,0.4514856840556659,-0.03370789066143042,0.2327379928717268,1.0764910490062205,-3.092193422023132,False
144,1,-0.007534208707511425,-1.6917887926101685,0.14663110673427582,-1.6143574714660645,0.11024439334869385,-0.1305796205997467,-0.01589396968483925,-1.6966264247894287,0.14186251163482666,-1.6177016496658325,0.10297087579965591,-0.1338474601507187,-0.3629968762397766,0.23287862539291382,-0.6146766543388367,-0.6336575746536255,-0.4900076985359192,-0.48502862453460693,0.670373,-0.170169,0.4514856840556659,-0.056658797416940535,0.23330239994727034,1.0756259445535905,-3.117805846857377,False
145,1,-0.01589396968483925,-1.6966264247894287,0.14186251163482666,-1.6177016496658325,0.10297087579965591,-0.1338474601507187,-0.017862215638160706,-1.693342924118042,0.1366911381483078,-1.6234062910079956,0.09953243285417557,-0.13801835477352142,-0.3200792372226715,0.7883781790733337,-0.46781444549560547,-0.1293909251689911,0.8328184485435486,0.9618223309516907,0.670373,-0.170169,0.4514856840556659,-0.05596788631114708,0.23344395093876888,1.0757191534180155,-3.127433764343016,False
146,1,-0.017862215638160706,-1.693342924118042,0.1366911381483078,-1.6234062910079956,0.09953243285417557,-0.13801835477352142,-0.029374899342656136,-1.6908578872680664,0.13842563331127167,-1.6329225301742554,0.10075107961893082,-0.13513663411140442,-0.92573082447052,-0.32844293117523193,0.46285149455070496,-0.9356677532196045,-0.6000115871429443,-0.5506406426429749,0.670373,-0.170169,0.4514856840556659,-0.05141263887832202,0.23342631677275102,1.0760762423696681,-3.1344636417671197,False
147,1,-0.029374899342656136,-1.6908578872680664,0.13842563331127167,-1.6329225301742554,0.10075107961893082,-0.13513663411140442,-0.027610406279563904,-1.6880173683166504,0.1435258537530899,-1.632487416267395,0.09086854010820389,-0.14948923885822296,0.8729607462882996,0.6635127067565918,0.07956445217132568,0.7927877902984619,-0.36463749408721924,-0.8297135829925537,0.670373,-0.170169,0.4514856840556659,-0.05141263887832202,0.23342631677275102,1.0760762423696681,-3.1444636417671195,False
148,1,-0.027610406279563904,-1.6880173683166504,0.1435258537530899,-1.632487416267395,0.09086854010820389,-0.14948923885822296,-0.017140960320830345,-1.6804360151290894,0.1432494968175888,-1.6226919889450073,0.08878195285797119,-0.15626899898052216,0.41432029008865356,0.8353411555290222,0.7104811668395996,-0.7946233153343201,-0.5672913789749146,-0.43884050846099854,0.670373,-0.170169,0.4514856840556659,-0.03998518279840025,0.23322733522243227,1.0764484851937994,-3.1466853652937745,False
149,1,-0.017140960320830345,-1.6804360151290894,0.1432494968175888,-1.6226919889450073,0.08878195285797119,-0.15626899898052216,-0.015106519684195518,-1.6736198663711548,0.1504468321800232,-1.6326594352722168,0.0835365504026413,-0.15925942361354828,-0.4049728810787201,0.2349865585565567,0.5748969912528992,0.19387122988700867,0.459977388381958,-0.0862886980175972,0.670373,-0.170169,0.4514856840556659,-0.03116240017555937,0.23304979281567825,1.076583014621679,-3.1506241125385985,False
150,1,-0.015106519684195518,-1.6736198663711548,0.1504468321800232,-1.6326594352722168,0.0835365504026413,-0.15925942361354828,-0.019571898505091667,-1.6726460456848145,0.15477919578552246,-1.6287643909454346,0.08919065445661545,-0.15949949622154236,0.8576229810714722,0.433508038520813,0.8649870753288269,0.17164503037929535,-0.2949702739715576,-0.5785846710205078,0.670373,-0.170169,0.4514856840556659,-0.027277273154352893,0.23308238640961618,1.0766031951293522,-3.157987679029958,False
151,1,-0.019571898505091667,-1.6726460456848145,0.15477919578552246,-1.6287643909454346,0.08919065445661545,-0.15949949622154236,-0.0006397932302206755,-1.6643805503845215,0.1703738421201706,-1.6269320249557495,0.08103491365909576,-0.17094817757606506,0.5133234858512878,-0.7230479717254639,-0.7595682740211487,0.5544785261154175,-0.11578936874866486,-0.8993850350379944,0.670373,-0.170169,0.4514856840556659,-0.027277273154352893,0.23308238640961618,1.0766031951293522,-3.1679876790299577,False
152,1,-0.0006397932302206755,-1.6643805503845215,0.1703738421201706,-1.6269320249557495,0.08103491365909576,-0.17094817757606506,0.0020404797978699207,-1.6821632385253906,0.14897029101848602,-1.6166143417358398,0.08198954164981842,-0.18433041870594025,0.3103051781654358,-0.7666652202606201,0.32316040992736816,0.9500302672386169,-0.4402593672275543,-0.760851263999939,0.670373,-0.170169,0.4514856840556659,-0.041938790479744484,0.23248032665654592,1.076419546656673,-3.1877256466838384,False
153,1,0.0020404797978699207,-1.6821632385253906,0.14897029101848602,-1.6166143417358398,0.08198954164981842,-0.18433041870594025,0.0045978534035384655,-1.6862871646881104,0.15650606155395508,-1.609209656715393,0.0774027407169342,-0.18924249708652496,0.8241286873817444,0.00012906640768051147,0.7659741044044495,0.996031641960144,-0.716567873954773,-0.5463584065437317,0.670373,-0.170169,0.4514856840556659,-0.04140412950476985,0.23241387530846347,1.076258654269865,-3.1972321372460195,False
154,1,0.0045978534035384655,-1.6862871646881104,0.15650606155395508,-1.609209656715393,0.0774027407169342,-0.18924249708652496,0.017840450629591942,-1.6846222877502441,0.1579873412847519,-1.6054444313049316,0.0635845735669136,-0.20258554816246033,0.08846859633922577,0.03582032769918442,-0.838834285736084,-0.9769931435585022,-0.38281509280204773,-0.6191877722740173,0.670373,-0.170169,0.4514856840556659,-0.037954820712930076,0.23219776875108494,1.076268957824605,-3.204770990686354,False
155,1,0.017840450629591942,-1.6846222877502441,0.1579873412847519,-1.6054444313049316,0.0635845735669136,-0.20258554816246033,0.019879257306456566,-1.6848572492599487,0.153522789478302,-1.6195703744888306,0.07155798375606537,-0.2002106010913849,0.3812440037727356,-0.02470625936985016,0.4197545349597931,-0.3567713797092438,0.9030479192733765,0.5874640345573425,0.670373,-0.170169,0.4514856840556659,-0.04646010532455269,0.23200940265511538,1.0763323052247211,-3.2206225149065224,False
156,1,0.019879257306456566,-1.6848572492599487,0.153522789478302,-1.6195703744888306,0.07155798375606537,-0.2002106010913849,0.024125058203935623,-1.6851216554641724,0.15991075336933136,-1.6205365657806396,0.08085937052965164,-0.1934361606836319,-0.2368398904800415,-0.022684507071971893,-0.12682518362998962,0.7023617029190063,0.31138789653778076,-0.27659744024276733,0.670373,-0.170169,0.4514856840556659,-0.04466802532908661,0.2315644432029444,1.0761838727838555,-3.2291157245005344,False
157,1,0.024125058203935623,-1.6851216554641724,0.15991075336933136,-1.6205365657806396,0.08085937052965164,-0.1934361606836319,0.020898040384054184,-1.6853090524673462,0.15738779306411743,-1.6133527755737305,0.0821191817522049,-0.19753582775592804,-0.34792011976242065,0.08711060881614685,-0.5906257629394531,-0.6632215976715088,-0.034754395484924316,-0.8291906118392944,0.670373,-0.170169,0.4514856840556659,-0.04474033996549562,0.23168003088453912,1.0762586649827337,-3.2392562393874664,False
158,1,0.020898040384054184,-1.6853090524673462,0.15738779306411743,-1.6133527755737305,0.0821191817522049,-0.19753582775592804,0.0152188865467906,-1.683506965637207,0.14661042392253876,-1.6295349597930908,0.08092854917049408,-0.21244914829730988,0.23047801852226257,-0.5816495418548584,0.8906088471412659,-0.20549507439136505,-0.3804505169391632,0.1643318384885788,0.670373,-0.170169,0.4514856840556659,-0.04474033996549562,0.23168003088453912,1.0762586649827337,-3.249256239387466,False
159,1,0.0152188865467906,-1.683506965637207,0.14661042392253876,-1.6295349597930908,0.08092854917049408,-0.21244914829730988,0.022087598219513893,-1.6958779096603394,0.1687636822462082,-1.627216100692749,0.07380563765764236,-0.20316879451274872,0.5388847589492798,0.12177871912717819,-0.46294257044792175,0.5491251945495605,0.5912888050079346,-0.10704866796731949,0.670373,-0.170169,0.4514856840556659,-0.049632730853903205,0.23158882182637336,1.0756049043883071,-3.2622251319758155,False
160,1,0.022087598219513893,-1.6958779096603394,0.1687636822462082,-1.627216100692749,0.07380563765764236,-0.20316879451274872,0.03254326060414314,-1.6889766454696655,0.16006173193454742,-1.628528118133545,0.08922363072633743,-0.19692030549049377,0.7254023551940918,0.39589911699295044,-0.14761820435523987,-0.5297314524650574,0.9540723562240601,0.8564983010292053,0.670373,-0.170169,0.4514856840556659,-0.051872858838823775,0.23129765138436614,1.0758696084504191,-3.2738327540895797,False
161,1,0.03254326060414314,-1.6889766454696655,0.16006173193454742,-1.628528118133545,0.08922363072633743,-0.19692030549049377,0.038993317633867264,-1.6857534646987915,0.16039669513702393,-1.6348322629928589,0.09729766845703125,-0.18776851892471313,0.6313824653625488,-0.8121523261070251,-0.1328030377626419,-0.8123011589050293,0.6969577670097351,-0.4271676540374756,0.670373,-0.170169,0.4514856840556659,-0.05149038877250385,0.2305969378767927,1.0759928875182196,-3.283368952393858,False
162,1,0.038993317633867264,-1.6857534646987915,0.16039669513702393,-1.6348322629928589,0.09729766845703125,-0.18776851892471313,0.04399828985333443,-1.6945412158966064,0.15904220938682556,-1.6417653560638428,0.10266541689634323,-0.19382131099700928,0.07797583192586899,-0.40532925724983215,-0.2945193946361542,-0.030976997688412666,-0.9280677437782288,-0.7423769235610962,0.670373,-0.170169,0.4514856840556659,-0.05149038877250385,0.2305969378767927,1.0759928875182196,-3.293368952393858,False
163,1,0.04399828985333443,-1.6945412158966064,0.15904220938682556,-1.6417653560638428,0.10266541689634323,-0.19382131099700928,0.04354294016957283,-1.6991486549377441,0.15372133255004883,-1.6396571397781372,0.08196748048067093,-0.20621658861637115,0.3811582028865814,0.5894995331764221,-0.6817535161972046,0.8565599322319031,-0.3614443838596344,-0.0449155792593956,0.670373,-0.170169,0.4514856840556659,-0.06700268142584138,0.22986690385183764,1.0753289789997305,-3.313568917842466,False
164,1,0.04354294016957283,-1.6991486549377441,0.15372133255004883,-1.6396571397781372,0.08196748048067093,-0.20621658861637115,0.04450196027755737,-1.7026078701019287,0.15524673461914062,-1.6259732246398926,0.07503601908683777,-0.2003302276134491,-0.2152891606092453,-0.889984130859375,0.6105770468711853,0.7203160524368286,-0.7359498739242554,0.42395198345184326,0.670373,-0.170169,0.4514856840556659,-0.06758616608095817,0.22984056671187938,1.07531843227663,-3.3239641839573277,False
165,1,0.04450196027755737,-1.7026078701019287,0.15524673461914062,-1.6259732246398926,0.07503601908683777,-0.2003302276134491,0.04156964644789696,-1.712873101234436,0.16250352561473846,-1.6203962564468384,0.0675707682967186,-0.19649913907051086,-0.2488519549369812,0.1583283245563507,0.026309913024306297,0.20260706543922424,0.588329017162323,0.21978582441806793,0.670373,-0.170169,0.4514856840556659,-0.07141504369260207,0.22990347819720597,1.0747973231981642,-3.3363834863173714,False
166,1,0.04156964644789696,-1.712873101234436,0.16250352561473846,-1.6203962564468384,0.0675707682967186,-0.19649913907051086,0.039894357323646545,-1.7126197814941406,0.15510933101177216,-1.6122702360153198,0.07404473423957825,-0.19882234930992126,-0.01366904191672802,-0.26356184482574463,-0.6479547023773193,0.7449691891670227,0.0559249073266983,-0.3502608835697174,0.670373,-0.170169,0.4514856840556659,-0.07141504369260207,0.22990347819720597,1.0747973231981642,-3.3463834863173716,False
167,1,0.039894357323646545,-1.7126197814941406,0.15510933101177216,-1.6122702360153198,0.07404473423957825,-0.19882234930992126,0.04037722945213318,-1.719353199005127,0.142635315656662,-1.597744107246399,0.07221625745296478,-0.2063952088356018,0.26446351408958435,-0.2523750066757202,0.2909665107727051,-0.4271999001502991,-0.18109290301799774,-0.9780883193016052,0.670373,-0.170169,0.4514856840556659,-0.08501248535498301,0.22939512398127254,1.0744229747317693,-3.365636578614798,False
168,1,0.04037722945213318,-1.719353199005127,0.142635315656662,-1.597744107246399,0.07221625745296478,-0.2063952088356018,0.042922019958496094,-1.7205302715301514,0.14804373681545258,-1.6049288511276245,0.070774145424366,-0.21465635299682617,0.7788000106811523,0.07113642245531082,0.9639995694160461,-0.16064240038394928,0.4402411878108978,0.5575119256973267,0.670373,-0.170169,0.4514856840556659,-0.08458574685394003,0.22923230545911158,1.074327814222325,-3.3752141982459287,False
169,1,0.042922019958496094,-1.7205302715301514,0.14804373681545258,-1.6049288511276245,0.070774145424366,-0.21465635299682617,0.042904552072286606,-1.7205543518066406,0.1480824202299118,-1.604980707168579,0.07078838348388672,-0.2146233320236206,0.3801177740097046,-0.3655570149421692,0.4378295838832855,-0.9577537178993225,0.38939350843429565,-0.40421468019485474,0.670373,-0.170169,0.4514856840556659,-0.08459121249408055,0.22923327609351607,1.074325853392049,-3.3852173131783365,False
170,1,0.042904552072286606,-1.7205543518066406,0.1480824202299118,-1.604980707168579,0.07078838348388672,-0.2146233320236206,0.05050058662891388,-1.7278733253479004,0.15685302019119263,-1.6241600513458252,0.07858163118362427,-0.22269053757190704,0.5170230269432068,-0.19252024590969086,-0.6566139459609985,-0.27318495512008667,-0.7723290324211121,0.568692684173584,0.670373,-0.170169,0.4514856840556659,-0.08459121249408055,0.22923327609351607,1.074325853392049,-3.3952173131783367,False
171,1,0.05050058662891388,-1.7278733253479004,0.15685302019119263,-1.6241600513458252,0.07858163118362427,-0.22269053757190704,0.05413953587412834,-1.728346586227417,0.1485556662082672,-1.6230907440185547,0.06931059807538986,-0.21536681056022644,0.036380335688591,0.8330747485160828,0.24289529025554657,0.6276760697364807,0.7150241732597351,0.80720454454422,0.670373,-0.170169,0.4514856840556659,-0.09566946968304095,0.22781768337597974,1.0735106531019585,-3.412150755343758,False
172,1,0.05413953587412834,-1.728346586227417,0.1485556662082672,-1.6230907440185547,0.06931059807538986,-0.21536681056022644,0.05339904874563217,-1.7115097045898438,0.15675975382328033,-1.6110047101974487,0.08732865750789642,-0.20212672650814056,-0.2767828106880188,-0.5063806176185608,-0.6986445188522339,-0.3195629119873047,-0.7498184442520142,0.00036414709757082164,0.670373,-0.170169,0.4514856840556659,-0.07672226606997976,0.22875107733841518,1.0749108970593613,-3.4097754142560155,False
173,1,0.05339904874563217,-1.7115097045898438,0.15675975382328033,-1.6110047101974487,0.08732865750789642,-0.20212672650814056,0.050767239183187485,-1.7199532985687256,0.14815543591976166,-1.616652250289917,0.07623735815286636,-0.20474772155284882,-0.7357856035232544,-0.014315875247120857,0.9698908925056458,0.3140125572681427,-0.5676184296607971,-0.5828564167022705,0.670373,-0.170169,0.4514856840556659,-0.08750354661048386,0.2284646396532474,1.0742161460524124,-3.4269451184178914,False
174,1,0.050767239183187485,-1.7199532985687256,0.14815543591976166,-1.616652250289917,0.07623735815286636,-0.20474772155284882,0.04392646253108978,-1.7184243202209473,0.1596001535654068,-1.612414836883545,0.07278681546449661,-0.21003220975399017,-0.5808755159378052,0.3971266746520996,-0.7052621245384216,0.6678090691566467,0.20493030548095703,0.5096386671066284,0.670373,-0.170169,0.4514856840556659,-0.08750354661048386,0.2284646396532474,1.0742161460524124,-3.4369451184178916,False
175,1,0.04392646253108978,-1.7184243202209473,0.1596001535654068,-1.612414836883545,0.07278681546449661,-0.21003220975399017,0.04623084515333176,-1.7074577808380127,0.14800137281417847,-1.600464940071106,0.06688050180673599,-0.20184019207954407,0.5867101550102234,0.8045473098754883,-0.41465213894844055,0.7313892245292664,-0.810616135597229,0.3251412510871887,0.670373,-0.170169,0.4514856840556659,-0.08750354661048386,0.2284646396532474,1.0742161460524124,-3.446945118417892,False
176,1,0.04623084515333176,-1.7074577808380127,0.14800137281417847,-1.600464940071106,0.06688050180673599,-0.20184019207954407,0.05781683325767517,-1.707790493965149,0.13805317878723145,-1.6051796674728394,0.05189242959022522,-0.19761623442173004,0.6190240979194641,-0.6173276901245117,-0.8142572641372681,-0.9610700011253357,-0.807245135307312,0.25934696197509766,0.670373,-0.170169,0.4514856840556659,-0.07945021667066743,0.22855682847093017,1.0751904565296757,-3.4518070484833188,False
177,1,0.05781683325767517,-1.707790493965149,0.13805317878723145,-1.6051796674728394,0.05189242959022522,-0.19761623442173004,0.0674932673573494,-1.7230608463287354,0.12267933785915375,-1.6268645524978638,0.03921183571219444,-0.1932331770658493,-0.766240119934082,0.35971561074256897,0.13122661411762238,0.4820661246776581,-0.4361519515514374,-0.19003233313560486,0.670373,-0.170169,0.4514856840556659,-0.10398433424914108,0.22632582408629115,1.0736116476085884,-3.477657389274441,False
178,1,0.0674932673573494,-1.7230608463287354,0.12267933785915375,-1.6268645524978638,0.03921183571219444,-0.1932331770658493,0.0674731656908989,-1.7230794429779053,0.12271431088447571,-1.626918911933899,0.039231546223163605,-0.19319568574428558,-0.5010403394699097,0.4457823634147644,-0.05716748908162117,0.19561772048473358,0.6787405610084534,0.501056432723999,0.670373,-0.170169,0.4514856840556659,-0.10398433424914108,0.22632582408629115,1.0736116476085884,-3.4876573892744407,False
179,1,0.0674731656908989,-1.7230794429779053,0.12271431088447571,-1.626918911933899,0.039231546223163605,-0.19319568574428558,0.05744849890470505,-1.7141708135604858,0.12158084660768509,-1.6230214834213257,0.052808962762355804,-0.18316444754600525,0.5712073445320129,0.22802750766277313,0.03873509168624878,0.7423962950706482,-0.32737329602241516,-0.6400921940803528,0.670373,-0.170169,0.4514856840556659,-0.10398433424914108,0.22632582408629115,1.0736116476085884,-3.4976573892744405,False
180,1,0.05744849890470505,-1.7141708135604858,0.12158084660768509,-1.6230214834213257,0.052808962762355804,-0.18316444754600525,0.07288020104169846,-1.7131792306900024,0.12281573563814163,-1.6097393035888672,0.0408327654004097,-0.19997502863407135,-0.3362085521221161,0.3250575661659241,-0.5182514786720276,-0.8015636801719666,0.5059547424316406,0.28991594910621643,0.670373,-0.170169,0.4514856840556659,-0.09461721973386597,0.22652870019110166,1.0746158408241058,-3.5015588543025253,False
181,1,0.07288020104169846,-1.7131792306900024,0.12281573563814163,-1.6097393035888672,0.0408327654004097,-0.19997502863407135,0.07286401838064194,-1.7132009267807007,0.12284979224205017,-1.6097851991653442,0.04084793105721474,-0.1999451369047165,0.8538365960121155,0.20238015055656433,-0.4823894202709198,-0.5478002429008484,-0.6323150396347046,0.6387991309165955,0.670373,-0.170169,0.4514856840556659,-0.09462267091538601,0.22652950391931012,1.074614204614922,-3.5115621167623425,False
182,1,0.07286401838064194,-1.7132009267807007,0.12284979224205017,-1.6097851991653442,0.04084793105721474,-0.1999451369047165,0.08994415402412415,-1.7091490030288696,0.1131945550441742,-1.6207324266433716,0.02819889970123768,-0.18717436492443085,0.31041190028190613,0.2911728620529175,0.02845180407166481,0.6928122043609619,0.8729604482650757,-0.11404503136873245,0.670373,-0.170169,0.4514856840556659,-0.0993564880027106,0.22484479069431879,1.0747231477876016,-3.5244109097619276,False
183,1,0.08994415402412415,-1.7091490030288696,0.1131945550441742,-1.6207324266433716,0.02819889970123768,-0.18717436492443085,0.08961545675992966,-1.7070671319961548,0.11544257402420044,-1.6116609573364258,0.03947416692972183,-0.1908383071422577,-0.10488873720169067,0.6148918867111206,0.026785774156451225,0.8323884010314941,0.9064012765884399,0.021077774465084076,0.670373,-0.170169,0.4514856840556659,-0.0993564880027106,0.22484479069431879,1.0747231477876016,-3.5344109097619274,False
184,1,0.08961545675992966,-1.7070671319961548,0.11544257402420044,-1.6116609573364258,0.03947416692972183,-0.1908383071422577,0.08763890713453293,-1.6956156492233276,0.11510074138641357,-1.5986703634262085,0.05310030281543732,-0.18893299996852875,-0.9703319668769836,-0.6228475570678711,0.9189515709877014,-0.1238301694393158,0.957112729549408,-0.830488383769989,0.670373,-0.170169,0.4514856840556659,-0.08586927057391719,0.2261110891873086,1.07580663717898,-3.535829158723541,False
185,1,0.08763890713453293,-1.6956156492233276,0.11510074138641357,-1.5986703634262085,0.05310030281543732,-0.18893299996852875,0.07831959426403046,-1.7041455507278442,0.12437954545021057,-1.6025370359420776,0.05995582044124603,-0.19759896397590637,-0.485497385263443,-0.8409234881401062,0.8084990978240967,0.7559012174606323,-0.21642427146434784,-0.26497316360473633,0.670373,-0.170169,0.4514856840556659,-0.08803748215538024,0.2265274245797261,1.075285643895139,-3.5472293785202638,False
186,1,0.07831959426403046,-1.7041455507278442,0.12437954545021057,-1.6025370359420776,0.05995582044124603,-0.19759896397590637,0.07532643526792526,-1.7108508348464966,0.13061262667179108,-1.5942082405090332,0.05642232671380043,-0.19851365685462952,-0.7968743443489075,-0.607052743434906,0.3523401618003845,0.9293007850646973,-0.4542500376701355,-0.4930955767631531,0.670373,-0.170169,0.4514856840556659,-0.0892315121495864,0.22666913220603738,1.074982781629648,-3.557959583944894,False
187,1,0.07532643526792526,-1.7108508348464966,0.13061262667179108,-1.5942082405090332,0.05642232671380043,-0.19851365685462952,0.06793998926877975,-1.7156033515930176,0.1329246461391449,-1.5866219997406006,0.052600469440221786,-0.2032371461391449,0.32727840542793274,-0.9331436157226562,0.5126093626022339,-0.854903519153595,0.2257234901189804,0.09618054330348969,0.670373,-0.170169,0.4514856840556659,-0.0892315121495864,0.22666913220603738,1.074982781629648,-3.5679595839448943,False
188,1,0.06793998926877975,-1.7156033515930176,0.1329246461391449,-1.5866219997406006,0.052600469440221786,-0.2032371461391449,0.07743588835000992,-1.732370376586914,0.14226068556308746,-1.6067676544189453,0.05864757299423218,-0.1994151920080185,0.863990306854248,-0.10538730025291443,0.4907618761062622,0.8311914801597595,0.4275374710559845,-0.4501959979534149,0.670373,-0.170169,0.4514856840556659,-0.10502487293359805,0.2252792769084962,1.0733164486258189,-3.5878521125235627,False
189,1,0.07743588835000992,-1.732370376586914,0.14226068556308746,-1.6067676544189453,0.05864757299423218,-0.1994151920080185,0.08416680246591568,-1.7300808429718018,0.1453198790550232,-1.594450831413269,0.06172211095690727,-0.20466646552085876,-0.2981286942958832,0.9890432953834534,-0.647874653339386,0.40875405073165894,0.6002151966094971,0.17761294543743134,0.670373,-0.170169,0.4514856840556659,-0.10204608882208964,0.22492781536436213,1.073680094508131,-3.5957766190305147,False
190,1,0.08416680246591568,-1.7300808429718018,0.1453198790550232,-1.594450831413269,0.06172211095690727,-0.20466646552085876,0.07982306182384491,-1.7206717729568481,0.13826578855514526,-1.5928717851638794,0.06712257862091064,-0.20181217789649963,0.10341072827577591,-0.04857936128973961,0.5874359607696533,0.7251355051994324,-0.804050624370575,-0.7979539036750793,0.670373,-0.170169,0.4514856840556659,-0.09635113716503094,0.2257115393322338,1.0743276353078808,-3.6023339476470593,False
191,1,0.07982306182384491,-1.7206717729568481,0.13826578855514526,-1.5928717851638794,0.06712257862091064,-0.20181217789649963,0.08172428607940674,-1.7230420112609863,0.1455550491809845,-1.5859395265579224,0.058003537356853485,-0.2103612869977951,0.8427411317825317,0.5273199677467346,0.26652222871780396,0.4765569269657135,-0.9401068091392517,0.916623055934906,0.670373,-0.170169,0.4514856840556659,-0.09635113716503094,0.2257115393322338,1.0743276353078808,-3.612333947647059,False
192,1,0.08172428607940674,-1.7230420112609863,0.1455550491809845,-1.5859395265579224,0.058003537356853485,-0.2103612869977951,0.08975446969270706,-1.7173162698745728,0.14679904282093048,-1.5826016664505005,0.05044110491871834,-0.19946163892745972,0.7610774040222168,0.16776412725448608,0.23355863988399506,0.4661239981651306,-0.46648749709129333,0.3313867449760437,0.670373,-0.170169,0.4514856840556659,-0.09635113716503094,0.2257115393322338,1.0743276353078808,-3.6223339476470593,False
193,1,0.08975446969270706,-1.7173162698745728,0.14679904282093048,-1.5826016664505005,0.05044110491871834,-0.19946163892745972,0.10175265371799469,-1.7162673473358154,0.15099860727787018,-1.5746397972106934,0.04414629936218262,-0.19718068838119507,-0.9451441168785095,-0.780423641204834,0.32413792610168457,-0.7389510273933411,0.7867832779884338,-0.5773869752883911,0.670373,-0.170169,0.4514856840556659,-0.08698521198122684,0.22513170704995772,1.074912309404911,-3.6257336324896348,False
194,1,0.10175265371799469,-1.7162673473358154,0.15099860727787018,-1.5746397972106934,0.04414629936218262,-0.19718068838119507,0.08988986909389496,-1.7242941856384277,0.1534234881401062,-1.5836502313613892,0.05328325927257538,-0.2033935934305191,0.3259754776954651,0.7043366432189941,-0.5349481701850891,0.8217263221740723,0.6083709597587585,0.010744437575340271,0.670373,-0.170169,0.4514856840556659,-0.09220822992092015,0.22539120702529794,1.0743260766701486,-3.6392326224088727,False
195,1,0.08988986909389496,-1.7242941856384277,0.1534234881401062,-1.5836502313613892,0.05328325927257538,-0.2033935934305191,0.0955120399594307,-1.715657114982605,0.14761006832122803,-1.573652982711792,0.05754777416586876,-0.20203155279159546,-0.089080311357975,0.7305077314376831,-0.4602397084236145,0.5041218400001526,0.06106211245059967,0.2420811653137207,0.670373,-0.170169,0.4514856840556659,-0.08790347838987893,0.22537879415110276,1.0749472736815966,-3.646504325366175,False
196,1,0.0955120399594307,-1.715657114982605,0.14761006832122803,-1.573652982711792,0.05754777416586876,-0.20203155279159546,0.09147046506404877,-1.7045150995254517,0.1407541185617447,-1.5675935745239258,0.05707203969359398,-0.1977219581604004,-0.04724613204598427,-0.443615585565567,0.5662550330162048,-0.9834362864494324,-0.7866498827934265,0.8473267555236816,0.670373,-0.170169,0.4514856840556659,-0.08790347838987893,0.22537879415110276,1.0749472736815966,-3.656504325366175,False
197,1,0.09147046506404877,-1.7045150995254517,0.1407541185617447,-1.5675935745239258,0.05707203969359398,-0.1977219581604004,0.09212946146726608,-1.7178611755371094,0.15484970808029175,-1.589719295501709,0.041541434824466705,-0.18247972428798676,0.6059345006942749,-0.06587634235620499,0.6118208169937134,-0.2258845418691635,0.8420370817184448,-0.033265843987464905,0.670373,-0.170169,0.4514856840556659,-0.08561614178768433,0.22589546176129072,1.0747481732017834,-3.664942821104554,False
198,1,0.09212946146726608,-1.7178611755371094,0.15484970808029175,-1.589719295501709,0.041541434824466705,-0.18247972428798676,0.09681936353445053,-1.7254098653793335,0.15998974442481995,-1.5819379091262817,0.047228921204805374,-0.18145214021205902,-0.004013960249722004,-0.9146601557731628,0.24782976508140564,0.6074979305267334,-0.35442817211151123,0.37170660495758057,0.670373,-0.170169,0.4514856840556659,-0.08443562362315628,0.225577791827543,1.0748821059183042,-3.674058614817292,False
199,1,0.09681936353445053,-1.7254098653793335,0.15998974442481995,-1.5819379091262817,0.047228921204805374,-0.18145214021205902,0.09435996413230896,-1.744520902633667,0.16364604234695435,-1.5706688165664673,0.03553789481520653,-0.1726597100496292,-0.5699085593223572,-0.4160717725753784,-0.6808062791824341,0.003944540396332741,0.9757077097892761,0.1650998741388321,0.670373,-0.170169,0.4514856840556659,-0.0907995848594339,0.2250655659880102,1.0742957932298227,-3.6880814600548693,False
200,1,0.09435996413230896,-1.744520902633667,0.16364604234695435,-1.5706688165664673,0.03553789481520653,-0.1726597100496292,0.08914119750261307,-1.7448724508285522,0.15612974762916565,-1.57290780544281,0.047643378376960754,-0.17275328934192657,0.5544276237487793,-0.8468431830406189,-0.5979651212692261,-0.8491261601448059,0.3821091651916504,0.5438540577888489,0.670373,-0.170169,0.4514856840556659,-0.0907995848594339,0.2250655659880102,1.0742957932298227,-3.698081460054869,False
201,1,0.08914119750261307,-1.7448724508285522,0.15612974762916565,-1.57290780544281,0.047643378376960754,-0.17275328934192657,0.1023133248090744,-1.761673927307129,0.14718495309352875,-1.5890051126480103,0.05044708400964737,-0.16183196008205414,0.3539518713951111,-0.12000945955514908,-0.3594140410423279,-0.2596132159233093,0.652423083782196,-0.7499024271965027,0.670373,-0.170169,0.4514856840556659,-0.13214708788439142,0.2204291811267696,1.0708052410640578,-3.734487679497125,False
202,1,0.1023133248090744,-1.761673927307129,0.14718495309352875,-1.5890051126480103,0.05044708400964737,-0.16183196008205414,0.10320008546113968,-1.7595371007919312,0.1454184651374817,-1.5884259939193726,0.05642714723944664,-0.17148880660533905,-0.9955371022224426,0.732203483581543,0.11910531669855118,0.7671873569488525,-0.6806650757789612,0.21551868319511414,0.670373,-0.170169,0.4514856840556659,-0.13180456074913932,0.22033564228887348,1.07095724722939,-3.7442877204769585,False
