LaRojaPlamya162/omx_controller/omx_controller/models/BC/BC_log.csv
timestep,episode,s1,s2,s3,s4,s5,s6,next_s1,next_s2,next_s3,next_s4,next_s5,next_s6,a1,a2,a3,a4,a5,a6,ball_pos_x,ball_pos_y,ball_pos_z,wrist_3_x,wrist_3_y,wrist_3_z,reward,done
0,0,0.0661119818687439,-1.5867537260055542,0.04819244518876076,-1.5675262212753296,-0.06949859857559204,-0.03389029949903488,0.0661119818687439,-1.5867537260055542,0.04819244518876076,-1.5675262212753296,-0.06949859857559204,-0.03389029949903488,0.04496952146291733,0.04077433422207832,-0.01796942949295044,0.0667424201965332,0.048691049218177795,-0.00635828822851181,0.361009,-0.291041,0.45148568405566597,0.0009039994100120451,0.23322879384622286,1.0788337870973115,-1.438159466821592,False
1,0,0.0661119818687439,-1.5867537260055542,0.04819244518876076,-1.5675262212753296,-0.06949859857559204,-0.03389029949903488,0.0661119818687439,-1.5867537260055542,0.04819244518876076,-1.5675262212753296,-0.06949859857559204,-0.03389029949903488,0.04496952146291733,0.04077433422207832,-0.01796942949295044,0.0667424201965332,0.048691049218177795,-0.00635828822851181,0.361009,-0.291041,0.45148568405566597,0.000903999410011771,0.23322879384622275,1.0788337870973117,-1.4481594668215922,False
2,0,0.0661119818687439,-1.5867537260055542,0.04819244518876076,-1.5675262212753296,-0.06949859857559204,-0.03389029949903488,0.0661119818687439,-1.5867537260055542,0.04819244518876076,-1.5675262212753296,-0.06949859857559204,-0.03389029949903488,0.04496952146291733,0.04077433422207832,-0.01796942949295044,0.0667424201965332,0.048691049218177795,-0.00635828822851181,0.361009,-0.291041,0.45148568405566597,0.000903999410011771,0.23322879384622275,1.0788337870973117,-1.4581594668215923,False
3,0,0.0661119818687439,-1.5867537260055542,0.04819244518876076,-1.5675262212753296,-0.06949859857559204,-0.03389029949903488,0.0661119818687439,-1.5867537260055542,0.04819244518876076,-1.5675262212753296,-0.06949859857559204,-0.03389029949903488,0.04496952146291733,0.04077433422207832,-0.01796942949295044,0.0667424201965332,0.048691049218177795,-0.00635828822851181,0.361009,-0.291041,0.45148568405566597,0.000903999410011771,0.23322879384622275,1.0788337870973117,-1.4681594668215923,False
4,0,0.0661119818687439,-1.5867537260055542,0.04819244518876076,-1.5675262212753296,-0.06949859857559204,-0.03389029949903488,0.0661119818687439,-1.5867537260055542,0.04819244518876076,-1.5675262212753296,-0.06949859857559204,-0.03389029949903488,0.04496952146291733,0.04077433422207832,-0.01796942949295044,0.0667424201965332,0.048691049218177795,-0.00635828822851181,0.361009,-0.291041,0.45148568405566597,0.000903999410011771,0.23322879384622275,1.0788337870973117,-1.4781594668215923,False
5,0,0.0661119818687439,-1.5867537260055542,0.04819244518876076,-1.5675262212753296,-0.06949859857559204,-0.03389029949903488,0.0661119818687439,-1.5867537260055542,0.04819244518876076,-1.5675262212753296,-0.06949859857559204,-0.03389029949903488,0.04496952146291733,0.04077433422207832,-0.01796942949295044,0.0667424201965332,0.048691049218177795,-0.00635828822851181,0.361009,-0.291041,0.45148568405566597,0.000903999410011771,0.23322879384622275,1.0788337870973117,-1.4881594668215923,False
6,0,0.0661119818687439,-1.5867537260055542,0.04819244518876076,-1.5675262212753296,-0.06949859857559204,-0.03389029949903488,0.0661119818687439,-1.5867537260055542,0.04819244518876076,-1.5675262212753296,-0.06949859857559204,-0.03389029949903488,0.04496952146291733,0.04077433422207832,-0.01796942949295044,0.0667424201965332,0.048691049218177795,-0.00635828822851181,0.361009,-0.291041,0.45148568405566597,0.0009039994100135578,0.23322879384622297,1.0788337870973117,-1.4981594668215918,False
7,0,0.0661119818687439,-1.5867537260055542,0.04819244518876076,-1.5675262212753296,-0.06949859857559204,-0.03389029949903488,0.0661119818687439,-1.5867537260055542,0.04819244518876076,-1.5675262212753296,-0.06949859857559204,-0.03389029949903488,0.04496952146291733,0.04077433422207832,-0.01796942949295044,0.0667424201965332,0.048691049218177795,-0.00635828822851181,0.361009,-0.291041,0.45148568405566597,0.0009039994100135578,0.23322879384622297,1.0788337870973117,-1.5081594668215919,False
8,0,0.0661119818687439,-1.5867537260055542,0.04819244518876076,-1.5675262212753296,-0.06949859857559204,-0.03389029949903488,0.06611116230487823,-1.5867555141448975,0.048196569085121155,-1.5675243139266968,-0.06949412077665329,-0.03389472886919975,0.04496952146291733,0.04077433422207832,-0.01796942949295044,0.0667424201965332,0.048691049218177795,-0.00635828822851181,0.361009,-0.291041,0.45148568405566597,0.0009043056684739925,0.23322883178148174,1.0788337167403808,-1.5181593162278015,False
9,0,0.06611116230487823,-1.5867555141448975,0.048196569085121155,-1.5675243139266968,-0.06949412077665329,-0.03389472886919975,0.06611116230487823,-1.5867555141448975,0.048196569085121155,-1.5675243139266968,-0.06949412077665329,-0.03389472886919975,0.04496864229440689,0.04077475517988205,-0.017969347536563873,0.06674178689718246,0.04869145154953003,-0.006358504295349121,0.361009,-0.291041,0.45148568405566597,0.0009043056684739925,0.23322883178148174,1.0788337167403808,-1.5281593162278015,False
10,0,0.06611116230487823,-1.5867555141448975,0.048196569085121155,-1.5675243139266968,-0.06949412077665329,-0.03389472886919975,0.06611035019159317,-1.5867574214935303,0.048200689256191254,-1.5675222873687744,-0.06948964297771454,-0.03389916196465492,0.04496864229440689,0.04077475517988205,-0.017969347536563873,0.06674178689718246,0.04869145154953003,-0.006358504295349121,0.361009,-0.291041,0.45148568405566597,0.0009046119712886897,0.23322886971443937,1.0788336463784676,-1.5381591656113702,False
11,0,0.06611035019159317,-1.5867574214935303,0.048200689256191254,-1.5675222873687744,-0.06948964297771454,-0.03389916196465492,0.06610953062772751,-1.5867592096328735,0.04820481315255165,-1.5675203800201416,-0.06948516517877579,-0.03390359506011009,0.044967882335186005,0.04077518731355667,-0.01796935498714447,0.06674115359783173,0.04869180917739868,-0.006358634680509567,0.361009,-0.291041,0.45148568405566597,0.0009049183188608537,0.23322890764512352,1.078833576011566,-1.5481590149721471,False
12,0,0.06610953062772751,-1.5867592096328735,0.04820481315255165,-1.5675203800201416,-0.06948516517877579,-0.03390359506011009,0.06610871106386185,-1.5867609977722168,0.04820893704891205,-1.5675184726715088,-0.06948068737983704,-0.03390802443027496,0.04496704041957855,0.040775589644908905,-0.017969302833080292,0.06674056500196457,0.048692211508750916,-0.006358746439218521,0.361009,-0.291041,0.45148568405566597,0.0009052247112340548,0.23322894557353666,1.078833505639675,-1.5581588643101156,False
13,0,0.06610871106386185,-1.5867609977722168,0.04820893704891205,-1.5675184726715088,-0.06948068737983704,-0.03390802443027496,0.06610789149999619,-1.58676278591156,0.048213060945272446,-1.5675164461135864,-0.06947620958089828,-0.03391245752573013,0.04496624320745468,0.04077600687742233,-0.017969243228435516,0.06673993170261383,0.04869258403778076,-0.006358858197927475,0.361009,-0.291041,0.45148568405566597,0.000905531148411784,0.23322898349967888,1.0788334352627913,-1.5681587136252721,False
14,0,0.06610789149999619,-1.58676278591156,0.048213060945272446,-1.5675164461135864,-0.06947620958089828,-0.03391245752573013,0.06610707193613052,-1.5867645740509033,0.04821718484163284,-1.5675145387649536,-0.06947173178195953,-0.033916886895895004,0.044965460896492004,0.040776386857032776,-0.017969228327274323,0.06673926115036011,0.048692941665649414,-0.006359025835990906,0.361009,-0.291041,0.45148568405566597,0.000905531148411784,0.23322898349967888,1.0788334352627913,-1.5781587136252724,False
15,0,0.06610707193613052,-1.5867645740509033,0.04821718484163284,-1.5675145387649536,-0.06947173178195953,-0.033916886895895004,0.06610625237226486,-1.5867663621902466,0.04822131246328354,-1.5675125122070312,-0.06946725398302078,-0.033921319991350174,0.04496464133262634,0.040776822715997696,-0.017969153821468353,0.06673862040042877,0.048693299293518066,-0.006359204649925232,0.361009,-0.291041,0.45148568405566597,0.000905531148411784,0.23322898349967888,1.0788334352627913,-1.5881587136252722,False
16,0,0.06610625237226486,-1.5867663621902466,0.04822131246328354,-1.5675125122070312,-0.06946725398302078,-0.033921319991350174,0.0661054328083992,-1.5867682695388794,0.048225436359643936,-1.5675106048583984,-0.06946277618408203,-0.033925749361515045,0.04496386647224426,0.040777236223220825,-0.01796911656856537,0.0667380541563034,0.04869367182254791,-0.006359312683343887,0.361009,-0.291041,0.45148568405566597,0.000905531148411784,0.23322898349967888,1.0788334352627913,-1.5981587136252722,False
17,0,0.0661054328083992,-1.5867682695388794,0.048225436359643936,-1.5675106048583984,-0.06946277618408203,-0.033925749361515045,0.06610379368066788,-1.586771845817566,0.04823368787765503,-1.5675066709518433,-0.06945382058620453,-0.033934611827135086,0.044963009655475616,0.04077765345573425,-0.017969056963920593,0.06673729419708252,0.04869409650564194,-0.00635945051908493,0.361009,-0.291041,0.45148568405566597,0.000905531148411784,0.23322898349967888,1.0788334352627913,-1.6081587136252722,False
18,0,0.06610379368066788,-1.586771845817566,0.04823368787765503,-1.5675066709518433,-0.06945382058620453,-0.033934611827135086,0.06655364483594894,-1.586363673210144,0.04805312305688858,-1.566839575767517,-0.06896787136793137,-0.03399743512272835,0.04496138542890549,0.04077848792076111,-0.01796896755695343,0.06673605740070343,0.04869483411312103,-0.006359726190567017,0.361009,-0.291041,0.45148568405566597,0.0011045702791820195,0.23325306938973905,1.0788252988814704,-1.6180869243224516,False
19,0,0.06655364483594894,-1.586363673210144,0.04805312305688858,-1.566839575767517,-0.06896787136793137,-0.03399743512272835,0.06655287742614746,-1.5863654613494873,0.0480571985244751,-1.5668374300003052,-0.06896348297595978,-0.03400197997689247,0.04493977129459381,0.040812063962221146,-0.017946787178516388,0.06667084991931915,0.048666730523109436,-0.006383270025253296,0.361009,-0.291041,0.45148568405566597,0.001104883397724194,0.23325310768093724,1.078825227798956,-1.6280867707223403,False
20,0,0.06655287742614746,-1.5863654613494873,0.0480571985244751,-1.5668374300003052,-0.06896348297595978,-0.03400197997689247,0.06655211001634598,-1.5863672494888306,0.04806127771735191,-1.5668354034423828,-0.06895909458398819,-0.034006524831056595,0.04493889957666397,0.04081249237060547,-0.01794671267271042,0.06667020916938782,0.048667117953300476,-0.006383400410413742,0.361009,-0.291041,0.45148568405566597,0.001105196536046858,0.233253145967801,1.078825156712192,-1.638086617108822,False
21,0,0.06655211001634598,-1.5863672494888306,0.04806127771735191,-1.5668354034423828,-0.06895909458398819,-0.034006524831056595,0.06700094044208527,-1.5859605073928833,0.047885023057460785,-1.566166877746582,-0.06846901029348373,-0.03407410904765129,0.04493815451860428,0.0408129058778286,-0.017946667969226837,0.06666955351829529,0.04866752028465271,-0.006383560597896576,0.361009,-0.291041,0.45148568405566597,0.0011055097158240929,0.23325318425258973,1.0788250856201431,-1.6480864634737629,False
22,0,0.06700094044208527,-1.5859605073928833,0.047885023057460785,-1.566166877746582,-0.06846901029348373,-0.03407410904765129,0.06700023263692856,-1.5859622955322266,0.04788905009627342,-1.5661646127700806,-0.06846471130847931,-0.03407876566052437,0.0449155792593956,0.04084685817360878,-0.01792452484369278,0.06660367548465729,0.0486396849155426,-0.0064071714878082275,0.361009,-0.291041,0.45148568405566597,0.0013034562031869028,0.2332773059869666,1.0788172125374873,-1.658015359630557,False
23,0,0.06700023263692856,-1.5859622955322266,0.04788905009627342,-1.5661646127700806,-0.06846471130847931,-0.03407876566052437,0.06748306006193161,-1.5856223106384277,0.0477537140250206,-1.5654864311218262,-0.06801427155733109,-0.03417408466339111,0.044914789497852325,0.04084732010960579,-0.017924413084983826,0.06660303473472595,0.04864013195037842,-0.0064073652029037476,0.361009,-0.291041,0.45148568405566597,0.0013034562031869028,0.2332773059869666,1.0788172125374873,-1.668015359630557,False
24,0,0.06748306006193161,-1.5856223106384277,0.0477537140250206,-1.5654864311218262,-0.06801427155733109,-0.03417408466339111,0.06862527132034302,-1.5846837759017944,0.04762065410614014,-1.5640753507614136,-0.06690038740634918,-0.03431820124387741,0.04488383233547211,0.04088824987411499,-0.01789943128824234,0.06653307378292084,0.04861791431903839,-0.006432574242353439,0.361009,-0.291041,0.45148568405566597,0.0020132878890780194,0.23336454042282795,1.0787850382837099,-1.677758365404823,False
25,0,0.06862527132034302,-1.5846837759017944,0.04762065410614014,-1.5640753507614136,-0.06690038740634918,-0.03431820124387741,0.06900303810834885,-1.5847094058990479,0.04802140220999718,-1.5639617443084717,-0.0667874664068222,-0.034393370151519775,0.04478766769170761,0.04095315933227539,-0.01787065714597702,0.0663718432188034,0.048542529344558716,-0.006483841687440872,0.361009,-0.291041,0.45148568405566597,0.002098177407832959,0.233377997169875,1.0787751225266404,-1.6877251780003149,False
26,0,0.06900303810834885,-1.5847094058990479,0.04802140220999718,-1.5639617443084717,-0.0667874664068222,-0.034393370151519775,0.06981506198644638,-1.5839484930038452,0.047884080559015274,-1.562916874885559,-0.06591656059026718,-0.034479591995477676,0.04469820111989975,0.04096733778715134,-0.017878130078315735,0.0663241297006607,0.0485348254442215,-0.006492283195257187,0.361009,-0.291041,0.45148568405566597,0.002098177407832959,0.233377997169875,1.0787751225266404,-1.6977251780003149,False
27,0,0.06981506198644638,-1.5839484930038452,0.047884080559015274,-1.562916874885559,-0.06591656059026718,-0.034479591995477676,0.07018231600522995,-1.583937168121338,0.04809258505702019,-1.5626258850097656,-0.06568719446659088,-0.034551799297332764,0.0446343794465065,0.0410093329846859,-0.01785845309495926,0.06620818376541138,0.04847419261932373,-0.0065287575125694275,0.361009,-0.291041,0.45148568405566597,0.002098177407832959,0.233377997169875,1.0787751225266404,-1.7077251780003149,False
28,0,0.07018231600522995,-1.583937168121338,0.04809258505702019,-1.5626258850097656,-0.06568719446659088,-0.034551799297332764,0.07075618207454681,-1.5839115381240845,0.048658959567546844,-1.562413215637207,-0.0654415413737297,-0.034644581377506256,0.044570185244083405,0.04103803634643555,-0.017847254872322083,0.06615439057350159,0.04847119003534317,-0.006543770432472229,0.361009,-0.291041,0.45148568405566597,0.002827848315702752,0.23346995881001348,1.0787355809797652,-1.7174583836586905,False
29,0,0.07075618207454681,-1.5839115381240845,0.048658959567546844,-1.562413215637207,-0.0654415413737297,-0.034644581377506256,0.07155526429414749,-1.58344304561615,0.048845380544662476,-1.561594843864441,-0.06468407809734344,-0.03473793715238571,0.04444022476673126,0.04105783998966217,-0.017859555780887604,0.06607873737812042,0.04845429211854935,-0.006557926535606384,0.361009,-0.291041,0.45148568405566597,0.00296448546758282,0.23349120850826208,1.0787209097860504,-1.7274057441356259,False
30,0,0.07155526429414749,-1.58344304561615,0.048845380544662476,-1.561594843864441,-0.06468407809734344,-0.03473793715238571,0.07233928889036179,-1.5831001996994019,0.04899374395608902,-1.5607178211212158,-0.06391582638025284,-0.03484656661748886,0.04433460533618927,0.04110083729028702,-0.01784433424472809,0.06596136093139648,0.04841255396604538,-0.006590899080038071,0.361009,-0.291041,0.45148568405566597,0.003088808047684793,0.23351008904435813,1.078714164435173,-1.7373622386010983,False
31,0,0.07233928889036179,-1.5831001996994019,0.04899374395608902,-1.5607178211212158,-0.06391582638025284,-0.03484656661748886,0.07317701727151871,-1.5828008651733398,0.04925915226340294,-1.5598936080932617,-0.0632048100233078,-0.03497270494699478,0.04423440247774124,0.041160181164741516,-0.017812013626098633,0.06583982706069946,0.048386551439762115,-0.006628081202507019,0.361009,-0.291041,0.45148568405566597,0.003520933118384758,0.23358367127950996,1.078678812613101,-1.7472074518335408,False
32,0,0.07317701727151871,-1.5828008651733398,0.04925915226340294,-1.5598936080932617,-0.0632048100233078,-0.03497270494699478,0.07396300137042999,-1.582488775253296,0.049649134278297424,-1.5593284368515015,-0.06275904178619385,-0.03510770946741104,0.044114723801612854,0.04121832549571991,-0.01778663694858551,0.065714992582798,0.04836004972457886,-0.006664402782917023,0.361009,-0.291041,0.45148568405566597,0.0038251768609191506,0.23362531651449014,1.0786580952780143,-1.75709554387274,False
33,0,0.07396300137042999,-1.582488775253296,0.049649134278297424,-1.5593284368515015,-0.06275904178619385,-0.03510770946741104,0.07459476590156555,-1.581904649734497,0.049596548080444336,-1.5585297346115112,-0.06201276555657387,-0.035160232335329056,0.04398722946643829,0.041250672191381454,-0.017792068421840668,0.0656130462884903,0.048322513699531555,-0.006689034402370453,0.361009,-0.291041,0.45148568405566597,0.004032822346880481,0.23364969035141345,1.0786492601752322,-1.767020567423596,False
34,0,0.07459476590156555,-1.581904649734497,0.049596548080444336,-1.5585297346115112,-0.06201276555657387,-0.035160232335329056,0.07508738338947296,-1.5821478366851807,0.05053361505270004,-1.5586366653442383,-0.061839792877435684,-0.0352136455476284,0.043929100036621094,0.04128197953104973,-0.017776772379875183,0.06551855802536011,0.048275575041770935,-0.006717614829540253,0.361009,-0.291041,0.45148568405566597,0.004032822346880481,0.23364969035141345,1.0786492601752322,-1.777020567423596,False
35,0,0.07508738338947296,-1.5821478366851807,0.05053361505270004,-1.5586366653442383,-0.061839792877435684,-0.0352136455476284,0.07556787878274918,-1.5820590257644653,0.05084201321005821,-1.5583016872406006,-0.06152746453881264,-0.03529070317745209,0.04375685006380081,0.041290126740932465,-0.01780106872320175,0.0654473677277565,0.04827366769313812,-0.006724145263433456,0.361009,-0.291041,0.45148568405566597,0.004503468270055228,0.23371719245836636,1.078614924700253,-1.786847935188086,False
36,0,0.07556787878274918,-1.5820590257644653,0.05084201321005821,-1.5583016872406006,-0.06152746453881264,-0.03529070317745209,0.07594332844018936,-1.5817649364471436,0.05077439919114113,-1.557801365852356,-0.06113976612687111,-0.03534704074263573,0.043668486177921295,0.0413166806101799,-0.017797335982322693,0.06537909805774689,0.04826018214225769,-0.006741024553775787,0.361009,-0.291041,0.45148568405566597,0.004564873902028555,0.23373393414851884,1.0786036268097097,-1.7968253025482896,False
37,0,0.07594332844018936,-1.5817649364471436,0.05077439919114113,-1.557801365852356,-0.06113976612687111,-0.03534704074263573,0.07648163288831711,-1.5818698406219482,0.051615871489048004,-1.5577982664108276,-0.06089669466018677,-0.03540472686290741,0.04363919049501419,0.04134295880794525,-0.017782412469387054,0.06532391905784607,0.04823872447013855,-0.006759457290172577,0.361009,-0.291041,0.45148568405566597,0.0047314028400986564,0.2337602412953298,1.0785844127604716,-1.8067607418569032,False
38,0,0.07648163288831711,-1.5818698406219482,0.051615871489048004,-1.5577982664108276,-0.06089669466018677,-0.03540472686290741,0.07755802571773529,-1.5812739133834839,0.051635533571243286,-1.556477665901184,-0.05983148515224457,-0.0355733297765255,0.04347510635852814,0.04135088622570038,-0.01780681312084198,0.06524805724620819,0.048226431012153625,-0.006768267601728439,0.361009,-0.291041,0.45148568405566597,0.0047314028400986564,0.2337602412953298,1.0785844127604716,-1.816760741856903,False
39,0,0.07755802571773529,-1.5812739133834839,0.051635533571243286,-1.556477665901184,-0.05983148515224457,-0.0355733297765255,0.07830073684453964,-1.581009864807129,0.051913823932409286,-1.5557588338851929,-0.059165917336940765,-0.03568163886666298,0.0433620810508728,0.041434675455093384,-0.017759032547473907,0.06508412957191467,0.04818401485681534,-0.006821252405643463,0.361009,-0.291041,0.45148568405566597,0.0052669933774202315,0.2338542235514795,1.078542473213104,-1.8265727681751507,False
40,0,0.07830073684453964,-1.581009864807129,0.051913823932409286,-1.5557588338851929,-0.059165917336940765,-0.03568163886666298,0.07872874289751053,-1.5810086727142334,0.05224098637700081,-1.5554381608963013,-0.05879715830087662,-0.035739604383707047,0.04324924200773239,0.0414847731590271,-0.017738014459609985,0.06497059017419815,0.048160210251808167,-0.006853204220533371,0.361009,-0.291041,0.45148568405566597,0.005323242634020148,0.23387096231078042,1.0785316833819951,-1.8365525967947343,False
41,0,0.07872874289751053,-1.5810086727142334,0.05224098637700081,-1.5554381608963013,-0.05879715830087662,-0.035739604383707047,0.07952630519866943,-1.5807217359542847,0.05251983180642128,-1.554650902748108,-0.05808083340525627,-0.0358593575656414,0.04316163808107376,0.04151613637804985,-0.017725355923175812,0.06490108370780945,0.048156946897506714,-0.006871029734611511,0.361009,-0.291041,0.45148568405566597,0.005496559505288124,0.23389610160508761,1.0785224131161157,-1.8464917621220143,False
42,0,0.07952630519866943,-1.5807217359542847,0.05251983180642128,-1.554650902748108,-0.05808083340525627,-0.0358593575656414,0.07991344481706619,-1.5806300640106201,0.05299866199493408,-1.5545709133148193,-0.057842742651700974,-0.03589072450995445,0.04304305464029312,0.04157133027911186,-0.017701297998428345,0.06477905064821243,0.0481317937374115,-0.006905972957611084,0.361009,-0.291041,0.45148568405566597,0.005496559505288124,0.23389610160508761,1.0785224131161157,-1.8564917621220143,False
43,0,0.07991344481706619,-1.5806300640106201,0.05299866199493408,-1.5545709133148193,-0.057842742651700974,-0.03589072450995445,0.08105993270874023,-1.57961905002594,0.05282788723707199,-1.5530766248703003,-0.05660606175661087,-0.03604812175035477,0.0429416298866272,0.04157111048698425,-0.01772186905145645,0.06472629308700562,0.0481102392077446,-0.006912384182214737,0.361009,-0.291041,0.45148568405566597,0.00634969949909228,0.23402304230187193,1.0784663187099262,-1.8661872728976474,False
44,0,0.08105993270874023,-1.57961905002594,0.05282788723707199,-1.5530766248703003,-0.05660606175661087,-0.03604812175035477,0.08125358819961548,-1.580166220664978,0.053920403122901917,-1.5536632537841797,-0.05678630620241165,-0.036053936928510666,0.04284650832414627,0.041638217866420746,-0.017688848078250885,0.06455810368061066,0.04803227633237839,-0.006965909153223038,0.361009,-0.291041,0.45148568405566597,0.006299381524921571,0.23402283976201085,1.0784541177830396,-1.8761985933037955,False
45,0,0.08125358819961548,-1.580166220664978,0.053920403122901917,-1.5536632537841797,-0.05678630620241165,-0.036053936928510666,0.08179284632205963,-1.5800268650054932,0.054234910756349564,-1.5532621145248413,-0.05641378089785576,-0.03614291548728943,0.04268477112054825,0.04162297770380974,-0.01772931218147278,0.06453163921833038,0.04805038869380951,-0.006955891847610474,0.361009,-0.291041,0.45148568405566597,0.006554763497782961,0.23405787764661432,1.0784420304412656,-1.8861091406671857,False
46,0,0.08179284632205963,-1.5800268650054932,0.054234910756349564,-1.5532621145248413,-0.05641378089785576,-0.03614291548728943,0.0826883539557457,-1.5796531438827515,0.05462919548153877,-1.5525583028793335,-0.0558636337518692,-0.036308057606220245,0.04258940368890762,0.041652146726846695,-0.017725326120853424,0.06445468962192535,0.04803265631198883,-0.0069751255214214325,0.361009,-0.291041,0.45148568405566597,0.006554763497782961,0.23405787764661432,1.0784420304412656,-1.8961091406671857,False
47,0,0.0826883539557457,-1.5796531438827515,0.05462919548153877,-1.5525583028793335,-0.0558636337518692,-0.036308057606220245,0.08325421065092087,-1.579086184501648,0.05458327382802963,-1.5518418550491333,-0.05517517775297165,-0.0363578274846077,0.04244966804981232,0.04169367253780365,-0.01772645115852356,0.06433551013469696,0.04799102246761322,-0.0070052966475486755,0.361009,-0.291041,0.45148568405566597,0.007161186172848515,0.23415496913036166,1.078394932157288,-1.9058922375091147,False
48,0,0.08325421065092087,-1.579086184501648,0.05458327382802963,-1.5518418550491333,-0.05517517775297165,-0.0363578274846077,0.08376708626747131,-1.5793293714523315,0.05553891882300377,-1.5519477128982544,-0.05502139776945114,-0.036424312740564346,0.0423969030380249,0.04171830415725708,-0.017716512084007263,0.06425049901008606,0.04794490337371826,-0.007030356675386429,0.361009,-0.291041,0.45148568405566597,0.0071910455910326136,0.23417019860923444,1.0783835444772092,-1.9158813456522066,False
49,0,0.08376708626747131,-1.5793293714523315,0.05553891882300377,-1.5519477128982544,-0.05502139776945114,-0.036424312740564346,0.08424263447523117,-1.5792421102523804,0.055857110768556595,-1.5516273975372314,-0.05472607910633087,-0.036507897078990936,0.042220503091812134,0.04172690212726593,-0.017742641270160675,0.06417801976203918,0.04794223606586456,-0.007036950439214706,0.361009,-0.291041,0.45148568405566597,0.007485704415260405,0.23420933770332172,1.0783639914553549,-1.9257737034867037,False
50,0,0.08424263447523117,-1.5792421102523804,0.055857110768556595,-1.5516273975372314,-0.05472607910633087,-0.036507897078990936,0.08468692004680634,-1.5791072845458984,0.05631863698363304,-1.5514538288116455,-0.054409291595220566,-0.03655049204826355,0.042131319642066956,0.041752301156520844,-0.01774081587791443,0.06411087512969971,0.04792853444814682,-0.00705312192440033,0.361009,-0.291041,0.45148568405566597,0.007485704415260405,0.23420933770332172,1.0783639914553549,-1.9357737034867037,False
51,0,0.08468692004680634,-1.5791072845458984,0.05631863698363304,-1.5514538288116455,-0.054409291595220566,-0.03655049204826355,0.08541012555360794,-1.5784422159194946,0.05621137097477913,-1.550510287284851,-0.05361975356936455,-0.03665302321314812,0.04202579706907272,0.04175789654254913,-0.017757132649421692,0.0640479177236557,0.04790470004081726,-0.007063224911689758,0.361009,-0.291041,0.45148568405566597,0.008017217378242177,0.23429483291562503,1.0783216865354184,-1.9455835888068147,False
52,0,0.08541012555360794,-1.5784422159194946,0.05621137097477913,-1.550510287284851,-0.05361975356936455,-0.03665302321314812,0.08558458834886551,-1.5789138078689575,0.05715644732117653,-1.5510139465332031,-0.0537845604121685,-0.03666270151734352,0.04196539521217346,0.0417981818318367,-0.01773875206708908,0.0639418214559555,0.0478530079126358,-0.007096581161022186,0.361009,-0.291041,0.45148568405566597,0.00797485067960176,0.2342952159632968,1.0783102874615802,-1.9555925829693268,False
53,0,0.08558458834886551,-1.5789138078689575,0.05715644732117653,-1.5510139465332031,-0.0537845604121685,-0.03666270151734352,0.08611886948347092,-1.578740119934082,0.05744890868663788,-1.5506095886230469,-0.0534181222319603,-0.036754410713911057,0.04182492196559906,0.0417853519320488,-0.0177740678191185,0.06391871720552444,0.047868430614471436,-0.0070880502462387085,0.361009,-0.291041,0.45148568405566597,0.008154707410150177,0.23432774061590567,1.0782937573429294,-1.9655288694321205,False
54,0,0.08611886948347092,-1.578740119934082,0.05744890868663788,-1.5506095886230469,-0.0534181222319603,-0.036754410713911057,0.08649080246686935,-1.5787131786346436,0.05768871307373047,-1.5502865314483643,-0.053073056042194366,-0.036811377853155136,0.04173307865858078,0.041812166571617126,-0.017772436141967773,0.06384347379207611,0.0478476881980896,-0.007106661796569824,0.361009,-0.291041,0.45148568405566597,0.008286886905657764,0.23434992898033533,1.0782864526335576,-1.9754844637360396,False
55,0,0.08649080246686935,-1.5787131786346436,0.05768871307373047,-1.5502865314483643,-0.053073056042194366,-0.036811377853155136,0.08689085394144058,-1.578625202178955,0.057927072048187256,-1.549947738647461,-0.052720580250024796,-0.036873191595077515,0.041662171483039856,0.04184183478355408,-0.0177585631608963,0.06378169357776642,0.04784448444843292,-0.00712338462471962,0.361009,-0.291041,0.45148568405566597,0.008286886905657764,0.23434992898033533,1.0782864526335576,-1.9854844637360396,False
56,0,0.08689085394144058,-1.578625202178955,0.057927072048187256,-1.549947738647461,-0.052720580250024796,-0.036873191595077515,0.08733545243740082,-1.5784552097320557,0.05829004943370819,-1.5497082471847534,-0.05241091549396515,-0.0369296595454216,0.04158905893564224,0.0418681874871254,-0.017749488353729248,0.06371847540140152,0.04783490300178528,-0.007139857858419418,0.361009,-0.291041,0.45148568405566597,0.008529722239288951,0.2344006112492526,1.0782547440495307,-1.995395910985676,False
57,0,0.08733545243740082,-1.5784552097320557,0.05829004943370819,-1.5497082471847534,-0.05241091549396515,-0.0369296595454216,0.08844206482172012,-1.5774717330932617,0.058111175894737244,-1.5482683181762695,-0.05127698555588722,-0.037110209465026855,0.041496798396110535,0.041878052055835724,-0.017761200666427612,0.06365695595741272,0.047810666263103485,-0.007151532918214798,0.361009,-0.291041,0.45148568405566597,0.009109434481366864,0.2344901888250131,1.0782220121103496,-2.0051964597604286,False
58,0,0.08844206482172012,-1.5774717330932617,0.058111175894737244,-1.5482683181762695,-0.05127698555588722,-0.037110209465026855,0.08876866847276688,-1.5774595737457275,0.05866507813334465,-1.5483267307281494,-0.05114340782165527,-0.03713616728782654,0.04140709340572357,0.04194283485412598,-0.017732322216033936,0.06349729746580124,0.047734811902046204,-0.007202573120594025,0.361009,-0.291041,0.45148568405566597,0.009295685891265162,0.2345172285131154,1.078205221140296,-2.0151270083220454,False
59,0,0.08876866847276688,-1.5774595737457275,0.05866507813334465,-1.5483267307281494,-0.05114340782165527,-0.03713616728782654,0.08928797394037247,-1.5776749849319458,0.05932845175266266,-1.5481483936309814,-0.050864312797784805,-0.03722904622554779,0.04130227863788605,0.041935358196496964,-0.017760127782821655,0.06345479935407639,0.047717154026031494,-0.007204294204711914,0.361009,-0.291041,0.45148568405566597,0.009295685891265162,0.2345172285131154,1.078205221140296,-2.025127008322045,False
60,0,0.08928797394037247,-1.5776749849319458,0.05932845175266266,-1.5481483936309814,-0.050864312797784805,-0.03722904622554779,0.09038662910461426,-1.576952576637268,0.0596720390021801,-1.5471187829971313,-0.049890052527189255,-0.03738807514309883,0.04116186499595642,0.0419706329703331,-0.017755180597305298,0.06337326765060425,0.047724753618240356,-0.00722137838602066,0.361009,-0.291041,0.45148568405566597,0.009782844139053795,0.23460792339128383,1.0781554163129872,-2.034953163783682,False
61,0,0.09038662910461426,-1.576952576637268,0.0596720390021801,-1.5471187829971313,-0.049890052527189255,-0.03738807514309883,0.09071467071771622,-1.5770701169967651,0.05999040603637695,-1.5468932390213013,-0.04962650686502457,-0.037446171045303345,0.04100494086742401,0.04201485961675644,-0.017754890024662018,0.06321674585342407,0.047655776143074036,-0.007261596620082855,0.361009,-0.291041,0.45148568405566597,0.00993896785240303,0.23463981194696118,1.0781462162757844,-2.0449039293809683,False
62,0,0.09071467071771622,-1.5770701169967651,0.05999040603637695,-1.5468932390213013,-0.04962650686502457,-0.037446171045303345,0.09110616147518158,-1.576740026473999,0.05994602292776108,-1.5464026927947998,-0.049250684678554535,-0.03751624375581741,0.040928155183792114,0.04204662889242172,-0.01773935556411743,0.06315974146127701,0.04766401648521423,-0.007276482880115509,0.361009,-0.291041,0.45148568405566597,0.010031495998231284,0.2346651212576826,1.0781305255061442,-2.0548713402987433,False
63,0,0.09110616147518158,-1.576740026473999,0.05994602292776108,-1.5464026927947998,-0.049250684678554535,-0.03751624375581741,0.09165510535240173,-1.5768818855285645,0.06087719649076462,-1.546464204788208,-0.0490545891225338,-0.03758542239665985,0.04089410603046417,0.042069289833307266,-0.017730437219142914,0.06310420483350754,0.04763810336589813,-0.007294028997421265,0.361009,-0.291041,0.45148568405566597,0.010031495998231284,0.2346651212576826,1.0781305255061442,-2.064871340298743,False
64,0,0.09165510535240173,-1.5768818855285645,0.06087719649076462,-1.546464204788208,-0.0490545891225338,-0.03758542239665985,0.09241267293691635,-1.576515555381775,0.06102190166711807,-1.5456199645996094,-0.048341892659664154,-0.03772269934415817,0.04071742296218872,0.04207417368888855,-0.017761237919330597,0.06302839517593384,0.047626085579395294,-0.007300958037376404,0.361009,-0.291041,0.45148568405566597,0.01025956692837614,0.23471829135164368,1.0780953447724007,-2.074788069718068,False
65,0,0.09241267293691635,-1.576515555381775,0.06102190166711807,-1.5456199645996094,-0.048341892659664154,-0.03772269934415817,0.092790886759758,-1.5764968395233154,0.061366159468889236,-1.5453617572784424,-0.047980520874261856,-0.03776783496141434,0.04061972349882126,0.04212920367717743,-0.017735816538333893,0.06291209906339645,0.04759775102138519,-0.007336094975471497,0.361009,-0.291041,0.45148568405566597,0.01052818191236991,0.23477087514927752,1.078070914435054,-2.0846961084524867,False
66,0,0.092790886759758,-1.5764968395233154,0.061366159468889236,-1.5453617572784424,-0.047980520874261856,-0.03776783496141434,0.09350061416625977,-1.5758898258209229,0.06118082255125046,-1.5443565845489502,-0.04722340404987335,-0.03790206462144852,0.04053399711847305,0.042152464389801025,-0.017729103565216064,0.06284859776496887,0.04759211838245392,-0.007350895553827286,0.361009,-0.291041,0.45148568405566597,0.0108483723146351,0.23482754289136132,1.07805085980218,-2.094589419538554,False
67,0,0.09350061416625977,-1.5758898258209229,0.06118082255125046,-1.5443565845489502,-0.04722340404987335,-0.03790206462144852,0.09388671070337296,-1.5759350061416626,0.061562661081552505,-1.5441726446151733,-0.047026343643665314,-0.037978868931531906,0.04048483818769455,0.042204514145851135,-0.017699889838695526,0.06274248659610748,0.047549739480018616,-0.007387131452560425,0.361009,-0.291041,0.45148568405566597,0.0108483723146351,0.23482754289136132,1.07805085980218,-2.104589419538554,False
68,0,0.09388671070337296,-1.5759350061416626,0.061562661081552505,-1.5441726446151733,-0.047026343643665314,-0.037978868931531906,0.09432920068502426,-1.5758417844772339,0.061795178800821304,-1.5438039302825928,-0.04671068862080574,-0.03806779161095619,0.0403958261013031,0.04222700372338295,-0.01769936829805374,0.06268621981143951,0.04754649102687836,-0.007399372756481171,0.361009,-0.291041,0.45148568405566597,0.0108483723146351,0.23482754289136132,1.07805085980218,-2.114589419538554,False
69,0,0.09432920068502426,-1.5758417844772339,0.061795178800821304,-1.5438039302825928,-0.04671068862080574,-0.03806779161095619,0.09486714005470276,-1.5758930444717407,0.06261912733316422,-1.5438146591186523,-0.04650982841849327,-0.03814059495925903,0.04032015800476074,0.04225683957338333,-0.017690807580947876,0.06262055039405823,0.04753600060939789,-0.007417000830173492,0.361009,-0.291041,0.45148568405566597,0.01120948789606185,0.23491038947497112,1.0779991858141647,-2.1244599541510008,False
70,0,0.09486714005470276,-1.5758930444717407,0.06261912733316422,-1.5438146591186523,-0.04650982841849327,-0.03814059495925903,0.09549509733915329,-1.5752595663070679,0.06224687397480011,-1.542716383934021,-0.045676879584789276,-0.03825763612985611,0.04015893489122391,0.04225970804691315,-0.01772216707468033,0.06254854798316956,0.04751797020435333,-0.007424134761095047,0.361009,-0.291041,0.45148568405566597,0.011483168545774466,0.23496156728275286,1.077983870671608,-2.1343718575423254,False
71,0,0.09549509733915329,-1.5752595663070679,0.06224687397480011,-1.542716383934021,-0.045676879584789276,-0.03825763612985611,0.09589269012212753,-1.5753024816513062,0.0626564621925354,-1.5425490140914917,-0.045494746416807175,-0.038338642567396164,0.04014057666063309,0.04231834411621094,-0.017678111791610718,0.0624467171728611,0.04748082160949707,-0.007462870329618454,0.361009,-0.291041,0.45148568405566597,0.011386202548424712,0.23495508952358368,1.0779804218347346,-2.144403702271303,False
72,0,0.09589269012212753,-1.5753024816513062,0.0626564621925354,-1.5425490140914917,-0.045494746416807175,-0.038338642567396164,0.09644608199596405,-1.5753486156463623,0.06345392763614655,-1.5425173044204712,-0.04528205096721649,-0.03842123597860336,0.040047042071819305,0.042339153587818146,-0.017680741846561432,0.062390271574258804,0.04747616499662399,-0.007474549114704132,0.361009,-0.291041,0.45148568405566597,0.011386202548424712,0.23495508952358368,1.0779804218347346,-2.1544037022713027,False
73,0,0.09644608199596405,-1.5753486156463623,0.06345392763614655,-1.5425173044204712,-0.04528205096721649,-0.03842123597860336,0.09673550724983215,-1.5750292539596558,0.06328271329402924,-1.5419964790344238,-0.04484754800796509,-0.03846561163663864,0.03988766670227051,0.042346034198999405,-0.017708733677864075,0.06231573224067688,0.04745897650718689,-0.007483229041099548,0.361009,-0.291041,0.45148568405566597,0.011895905188260872,0.23504771908499086,1.0779363706941196,-2.1642272661716895,False
74,0,0.09673550724983215,-1.5750292539596558,0.06328271329402924,-1.5419964790344238,-0.04484754800796509,-0.03846561163663864,0.09727109968662262,-1.5751190185546875,0.06407865881919861,-1.5419727563858032,-0.04465031996369362,-0.03855094686150551,0.03987835347652435,0.04237180948257446,-0.01768840104341507,0.06226644665002823,0.04743984341621399,-0.007501441985368729,0.361009,-0.291041,0.45148568405566597,0.012059586785079108,0.23508319591275104,1.077911840173556,-2.174166739812162,False
75,0,0.09727109968662262,-1.5751190185546875,0.06407865881919861,-1.5419727563858032,-0.04465031996369362,-0.03855094686150551,0.09793930500745773,-1.5743647813796997,0.06386782974004745,-1.5410125255584717,-0.0438520647585392,-0.038656506687402725,0.03972065448760986,0.042381543666124344,-0.017713189125061035,0.06219303980469704,0.04742732644081116,-0.007510386407375336,0.361009,-0.291041,0.45148568405566597,0.012502104130806074,0.2351536490987502,1.0778874354091332,-2.1840177051235417,False
76,0,0.09793930500745773,-1.5743647813796997,0.06386782974004745,-1.5410125255584717,-0.0438520647585392,-0.038656506687402725,0.09843099117279053,-1.5746103525161743,0.0648038312792778,-1.5411447286605835,-0.04376107081770897,-0.03873486444354057,0.039678364992141724,0.04241648688912392,-0.01769731193780899,0.06209404766559601,0.04737022519111633,-0.007542341947555542,0.361009,-0.291041,0.45148568405566597,0.012502104130806074,0.2351536490987502,1.0778874354091332,-2.1940177051235414,False
77,0,0.09843099117279053,-1.5746103525161743,0.0648038312792778,-1.5411447286605835,-0.04376107081770897,-0.03873486444354057,0.09890137612819672,-1.5745038986206055,0.0651143491268158,-1.5408275127410889,-0.0434810146689415,-0.03883018344640732,0.03950720280408859,0.04242321848869324,-0.017726175487041473,0.06202703341841698,0.047367557883262634,-0.007547460496425629,0.361009,-0.291041,0.45148568405566597,0.0127389204786622,0.235213136260644,1.077846878852857,-2.203931553387049,False
78,0,0.09890137612819672,-1.5745038986206055,0.0651143491268158,-1.5408275127410889,-0.0434810146689415,-0.03883018344640732,0.09964550286531448,-1.5742219686508179,0.06538093835115433,-1.540071964263916,-0.042794812470674515,-0.038968391716480255,0.039419323205947876,0.04244706779718399,-0.017726927995681763,0.061961300671100616,0.04735223948955536,-0.007563076913356781,0.361009,-0.291041,0.45148568405566597,0.012957072340673972,0.23526482168171942,1.0778227971684253,-2.2138597566661655,False
79,0,0.09964550286531448,-1.5742219686508179,0.06538093835115433,-1.540071964263916,-0.042794812470674515,-0.038968391716480255,0.10002382844686508,-1.574110507965088,0.06584963947534561,-1.5400004386901855,-0.04258231446146965,-0.0390128567814827,0.039306215941905975,0.04249987751245499,-0.017705373466014862,0.06184467300772667,0.04732871055603027,-0.007596254348754883,0.361009,-0.291041,0.45148568405566597,0.013184294608754784,0.23530235108342604,1.0778019721541414,-2.223778375349444,False
80,0,0.10002382844686508,-1.574110507965088,0.06584963947534561,-1.5400004386901855,-0.04258231446146965,-0.0390128567814827,0.10106739401817322,-1.57350492477417,0.06611064076423645,-1.5388859510421753,-0.041556838899850845,-0.03919418528676033,0.039206862449645996,0.04249757528305054,-0.017729096114635468,0.0617942176759243,0.04730533808469772,-0.007601849734783173,0.361009,-0.291041,0.45148568405566597,0.013184294608754784,0.23530235108342604,1.0778019721541414,-2.233778375349444,False
81,0,0.10106739401817322,-1.57350492477417,0.06611064076423645,-1.5388859510421753,-0.041556838899850845,-0.03919418528676033,0.10159679502248764,-1.5734487771987915,0.06659526377916336,-1.5387415885925293,-0.04153477028012276,-0.039335232228040695,0.039063140749931335,0.042559973895549774,-0.01770804077386856,0.06163392588496208,0.047254398465156555,-0.007647037506103516,0.361009,-0.291041,0.45148568405566597,0.013769530921682085,0.23542001882253666,1.0777522464592837,-2.2435842103363433,False
82,0,0.10159679502248764,-1.5734487771987915,0.06659526377916336,-1.5387415885925293,-0.04153477028012276,-0.039335232228040695,0.10273468494415283,-1.5729879140853882,0.0676569938659668,-1.5381693840026855,-0.04060075432062149,-0.03944433853030205,0.03895089775323868,0.04257265105843544,-0.01773183047771454,0.06157653406262398,0.04723343253135681,-0.00765625387430191,0.361009,-0.291041,0.45148568405566597,0.014249901492927403,0.2355019359109105,1.0777095952944746,-2.253415122865981,False
83,0,0.10273468494415283,-1.5729879140853882,0.0676569938659668,-1.5381693840026855,-0.04060075432062149,-0.03944433853030205,0.10314648598432541,-1.5731217861175537,0.06829563528299332,-1.5381609201431274,-0.040456369519233704,-0.039506878703832626,0.03869430720806122,0.04258982464671135,-0.017767570912837982,0.06141030788421631,0.04716716706752777,-0.007685184478759766,0.361009,-0.291041,0.45148568405566597,0.014433732888182999,0.23554005905541908,1.077683646839816,-2.2633477086923848,False
84,0,0.10314648598432541,-1.5731217861175537,0.06829563528299332,-1.5381609201431274,-0.040456369519233704,-0.039506878703832626,0.10395234078168869,-1.5725163221359253,0.06844903528690338,-1.5373536348342896,-0.03976444527506828,-0.039647046476602554,0.038569703698158264,0.04260145500302315,-0.017782382667064667,0.06135254725813866,0.047163382172584534,-0.007692787796258926,0.361009,-0.291041,0.45148568405566597,0.014433732888182999,0.23554005905541908,1.077683646839816,-2.2733477086923846,False
85,0,0.10395234078168869,-1.5725163221359253,0.06844903528690338,-1.5373536348342896,-0.03976444527506828,-0.039647046476602554,0.10466672480106354,-1.5729005336761475,0.06982631981372833,-1.5376064777374268,-0.039751410484313965,-0.03976817429065704,0.038467831909656525,0.04263388365507126,-0.01778312772512436,0.06124071031808853,0.04710792005062103,-0.007722705602645874,0.361009,-0.291041,0.45148568405566597,0.015086948835881627,0.23568735150259287,1.077594075684263,-2.2831173175323127,False
86,0,0.10466672480106354,-1.5729005336761475,0.06982631981372833,-1.5376064777374268,-0.039751410484313965,-0.03976817429065704,0.1057606041431427,-1.5723387002944946,0.0702945664525032,-1.5366586446762085,-0.03885933756828308,-0.0399557463824749,0.03821911662817001,0.042640361934900284,-0.017830602824687958,0.06115075200796127,0.04710368812084198,-0.007727582007646561,0.361009,-0.291041,0.45148568405566597,0.01538783758851191,0.23575334793521394,1.0775627892276922,-2.29301727766688,False
87,0,0.1057606041431427,-1.5723387002944946,0.0702945664525032,-1.5366586446762085,-0.03885933756828308,-0.0399557463824749,0.10659340769052505,-1.5720573663711548,0.07088430225849152,-1.5361602306365967,-0.038397450000047684,-0.0401204451918602,0.03804588317871094,0.042690202593803406,-0.01782935857772827,0.06099330633878708,0.04704701900482178,-0.007767330855131149,0.361009,-0.291041,0.45148568405566597,0.01538783758851191,0.23575334793521394,1.0775627892276922,-2.3030172776668802,False
88,0,0.10659340769052505,-1.5720573663711548,0.07088430225849152,-1.5361602306365967,-0.038397450000047684,-0.0401204451918602,0.10728886723518372,-1.5714080333709717,0.07093381881713867,-1.5353401899337769,-0.037612684071063995,-0.0402243472635746,0.03788558393716812,0.04271848499774933,-0.01784607023000717,0.06088179722428322,0.047007910907268524,-0.007790815085172653,0.361009,-0.291041,0.45148568405566597,0.01637739960255022,0.2359399378962699,1.07747787828993,-2.3126835493916276,False
89,0,0.10728886723518372,-1.5714080333709717,0.07093381881713867,-1.5353401899337769,-0.037612684071063995,-0.0402243472635746,0.10800959914922714,-1.57167649269104,0.0722496435046196,-1.535529613494873,-0.03749203309416771,-0.04032783955335617,0.03780544549226761,0.042747244238853455,-0.01784130185842514,0.06077657267451286,0.046953558921813965,-0.007819868624210358,0.361009,-0.291041,0.45148568405566597,0.016488206830980193,0.23596536143221095,1.0774443141947825,-2.322631971837436,False
90,0,0.10800959914922714,-1.57167649269104,0.0722496435046196,-1.535529613494873,-0.03749203309416771,-0.04032783955335617,0.10864388197660446,-1.5715566873550415,0.072988361120224,-1.5354173183441162,-0.037283964455127716,-0.040437690913677216,0.03756321221590042,0.042750127613544464,-0.017889350652694702,0.06068335101008415,0.046940647065639496,-0.007825732231140137,0.361009,-0.291041,0.45148568405566597,0.01694201115164385,0.23605186174115886,1.0774135140856833,-2.332485613963979,False
91,0,0.10864388197660446,-1.5715566873550415,0.072988361120224,-1.5354173183441162,-0.037283964455127716,-0.040437690913677216,0.10974732041358948,-1.5710735321044922,0.07356597483158112,-1.5345426797866821,-0.03647628799080849,-0.04064837470650673,0.03740501403808594,0.0427524670958519,-0.017926573753356934,0.06060571223497391,0.04690759629011154,-0.007834970951080322,0.361009,-0.291041,0.45148568405566597,0.01694201115164385,0.23605186174115886,1.0774135140856833,-2.342485613963979,False
92,0,0.10974732041358948,-1.5710735321044922,0.07356597483158112,-1.5345426797866821,-0.03647628799080849,-0.04064837470650673,0.11056505143642426,-1.5709532499313354,0.07437191158533096,-1.5342555046081543,-0.03615296632051468,-0.04080430790781975,0.03721677511930466,0.042801737785339355,-0.017930686473846436,0.06044863164424896,0.04685496538877487,-0.00787297636270523,0.361009,-0.291041,0.45148568405566597,0.017654232627949754,0.23622529665236958,1.0773116077150682,-2.352240959248654,False
93,0,0.11056505143642426,-1.5709532499313354,0.07437191158533096,-1.5342555046081543,-0.03615296632051468,-0.04080430790781975,0.11110477149486542,-1.5704694986343384,0.07417453080415726,-1.5333914756774902,-0.035475730895996094,-0.04092131927609444,0.03703129291534424,0.042822204530239105,-0.01795881986618042,0.06034357473254204,0.04682222753763199,-0.007890928536653519,0.361009,-0.291041,0.45148568405566597,0.01788833836358314,0.2362775628080205,1.077293916160432,-2.362168990205833,False
94,0,0.11110477149486542,-1.5704694986343384,0.07417453080415726,-1.5333914756774902,-0.035475730895996094,-0.04092131927609444,0.11212949454784393,-1.5705493688583374,0.07530758529901505,-1.533119559288025,-0.03520980104804039,-0.04114588722586632,0.03699864447116852,0.04286976158618927,-0.01792757958173752,0.06025516241788864,0.04679284989833832,-0.00792231410741806,0.361009,-0.291041,0.45148568405566597,0.01788833836358314,0.2362775628080205,1.077293916160432,-2.3721689902058327,False
95,0,0.11212949454784393,-1.5705493688583374,0.07530758529901505,-1.533119559288025,-0.03520980104804039,-0.04114588722586632,0.11330317705869675,-1.5699632167816162,0.07582706212997437,-1.5320839881896973,-0.03423488885164261,-0.04136532172560692,0.03675106167793274,0.04290619492530823,-0.01795712113380432,0.06012409180402756,0.046770334243774414,-0.007944922894239426,0.361009,-0.291041,0.45148568405566597,0.018697037446985105,0.23646136623786457,1.077208517426244,-2.381905641518152,False
96,0,0.11330317705869675,-1.5699632167816162,0.07582706212997437,-1.5320839881896973,-0.03423488885164261,-0.04136532172560692,0.11367680877447128,-1.5700103044509888,0.0768628865480423,-1.5324904918670654,-0.03419079631567001,-0.04136043041944504,0.03656154125928879,0.042962927371263504,-0.017954036593437195,0.059951651841402054,0.04671233147382736,-0.007988590747117996,0.361009,-0.291041,0.45148568405566597,0.018967500362205958,0.23651987247697645,1.0771546879563878,-2.391798136457398,False
97,0,0.11367680877447128,-1.5700103044509888,0.0768628865480423,-1.5324904918670654,-0.03419079631567001,-0.04136043041944504,0.11509986966848373,-1.5695414543151855,0.07755862921476364,-1.5313855409622192,-0.03338758274912834,-0.04169922322034836,0.03638976812362671,0.04292423278093338,-0.018021509051322937,0.05990900471806526,0.046682268381118774,-0.007978972047567368,0.361009,-0.291041,0.45148568405566597,0.018967500362205958,0.23651987247697645,1.0771546879563878,-2.4017981364573977,False
98,0,0.11509986966848373,-1.5695414543151855,0.07755862921476364,-1.5313855409622192,-0.03338758274912834,-0.04169922322034836,0.11543966829776764,-1.5696409940719604,0.078305184841156,-1.531585693359375,-0.0333455353975296,-0.041730113327503204,0.03615661710500717,0.043000925332307816,-0.018020614981651306,0.05971569940447807,0.04662850499153137,-0.008028443902730942,0.361009,-0.291041,0.45148568405566597,0.019592846509208228,0.23667666665958917,1.077067855120354,-2.4115892141912623,False
99,0,0.11543966829776764,-1.5696409940719604,0.078305184841156,-1.531585693359375,-0.0333455353975296,-0.041730113327503204,0.11617850512266159,-1.5690569877624512,0.07817451655864716,-1.5305641889572144,-0.03259004279971123,-0.041907768696546555,0.036025941371917725,0.04298839718103409,-0.018058329820632935,0.0596739798784256,0.046614617109298706,-0.008026715368032455,0.361009,-0.291041,0.45148568405566597,0.019910552667009127,0.23675106077338864,1.0770399767277592,-2.4214915564774007,False
100,0,0.11617850512266159,-1.5690569877624512,0.07817451655864716,-1.5305641889572144,-0.03259004279971123,-0.041907768696546555,0.11664827913045883,-1.5691813230514526,0.07882145047187805,-1.5305484533309937,-0.032546065747737885,-0.04201267287135124,0.03596515208482742,0.04304469749331474,-0.018030159175395966,0.05956152826547623,0.04657447338104248,-0.008064284920692444,0.361009,-0.291041,0.45148568405566597,0.019998056629778663,0.23678381825197936,1.0770159997484867,-2.4314604826436765,False
101,0,0.11664827913045883,-1.5691813230514526,0.07882145047187805,-1.5305484533309937,-0.032546065747737885,-0.04201267287135124,0.11724531650543213,-1.569392204284668,0.07972227782011032,-1.5305496454238892,-0.03243517130613327,-0.042133696377277374,0.035835735499858856,0.04305783659219742,-0.018050290644168854,0.059503618627786636,0.046567708253860474,-0.008071936666965485,0.361009,-0.291041,0.45148568405566597,0.019998056629778663,0.23678381825197936,1.0770159997484867,-2.4414604826436763,False
102,0,0.11724531650543213,-1.569392204284668,0.07972227782011032,-1.5305496454238892,-0.03243517130613327,-0.042133696377277374,0.11769041419029236,-1.569316029548645,0.08009228110313416,-1.5303113460540771,-0.03220712020993233,-0.04222996160387993,0.0356595516204834,0.04307585954666138,-0.01807381957769394,0.0594247430562973,0.046563223004341125,-0.008082117885351181,0.361009,-0.291041,0.45148568405566597,0.020236527944138792,0.23686300442248256,1.0769631465544085,-2.4513786518288736,False
103,0,0.11769041419029236,-1.569316029548645,0.08009228110313416,-1.5303113460540771,-0.03220712020993233,-0.04222996160387993,0.11850336939096451,-1.569014549255371,0.08055873960256577,-1.5296951532363892,-0.03165744990110397,-0.04240594059228897,0.035566337406635284,0.043094370514154434,-0.018080823123455048,0.05936365947127342,0.04654835909605026,-0.008094936609268188,0.361009,-0.291041,0.45148568405566597,0.02055060791083719,0.23694145959733046,1.0769237159773213,-2.4612768814620063,False
104,0,0.11850336939096451,-1.569014549255371,0.08055873960256577,-1.5296951532363892,-0.03165744990110397,-0.04240594059228897,0.1189071461558342,-1.5689373016357422,0.08103091269731522,-1.5296140909194946,-0.03151879459619522,-0.042485203593969345,0.03542214632034302,0.043132878839969635,-0.01808442920446396,0.05924804136157036,0.046513788402080536,-0.008122622966766357,0.361009,-0.291041,0.45148568405566597,0.020748816384009564,0.23698528788469858,1.0768978498322617,-2.471208633893937,False
105,0,0.1189071461558342,-1.5689373016357422,0.08103091269731522,-1.5296140909194946,-0.03151879459619522,-0.042485203593969345,0.11939311027526855,-1.56880521774292,0.08152900636196136,-1.52945077419281,-0.03129735216498375,-0.042578015476465225,0.035320594906806946,0.043135322630405426,-0.018107913434505463,0.05919738486409187,0.04649323225021362,-0.00812891498208046,0.361009,-0.291041,0.45148568405566597,0.020748816384009564,0.23698528788469858,1.0768978498322617,-2.481208633893937,False
106,0,0.11939311027526855,-1.56880521774292,0.08152900636196136,-1.52945077419281,-0.03129735216498375,-0.042578015476465225,0.12023275345563889,-1.5684877634048462,0.0820193663239479,-1.5288527011871338,-0.030795758590102196,-0.0427677296102047,0.03520704060792923,0.04314156621694565,-0.01813092827796936,0.05913423001766205,0.046467676758766174,-0.008138339966535568,0.361009,-0.291041,0.45148568405566597,0.02132626408987341,0.23712256486992525,1.0768251913871365,-2.4910176648879294,False
107,0,0.12023275345563889,-1.5684877634048462,0.0820193663239479,-1.5288527011871338,-0.030795758590102196,-0.0427677296102047,0.12074482440948486,-1.5680029392242432,0.0819399431347847,-1.5281445980072021,-0.03021734207868576,-0.042881302535533905,0.03505810350179672,0.04317757487297058,-0.01814012974500656,0.059019364416599274,0.046429552137851715,-0.008165176957845688,0.361009,-0.291041,0.45148568405566597,0.021483181669737304,0.23715588446245942,1.0768121873852827,-2.5009682143520973,False
108,0,0.12074482440948486,-1.5680029392242432,0.0819399431347847,-1.5281445980072021,-0.03021734207868576,-0.042881302535533905,0.12133108824491501,-1.5682052373886108,0.08296670764684677,-1.5283019542694092,-0.030218517407774925,-0.04299924522638321,0.03501354157924652,0.04320956766605377,-0.01812683790922165,0.05894013121724129,0.046394020318984985,-0.008190091699361801,0.361009,-0.291041,0.45148568405566597,0.02177939448135075,0.2372346190304587,1.0767633824518994,-2.5108672628736577,False
109,0,0.12133108824491501,-1.5682052373886108,0.08296670764684677,-1.5283019542694092,-0.030218517407774925,-0.04299924522638321,0.1221410259604454,-1.5677521228790283,0.08344855904579163,-1.527735710144043,-0.029662000015378,-0.04316270723938942,0.03482343256473541,0.043211497366428375,-0.018169716000556946,0.05887015908956528,0.04638199508190155,-0.00819379836320877,0.361009,-0.291041,0.45148568405566597,0.02177939448135075,0.2372346190304587,1.0767633824518994,-2.520867262873658,False
110,0,0.1221410259604454,-1.5677521228790283,0.08344855904579163,-1.527735710144043,-0.029662000015378,-0.04316270723938942,0.12329074740409851,-1.5671793222427368,0.0841592401266098,-1.5269606113433838,-0.028932269662618637,-0.043404657393693924,0.03467770665884018,0.04323248192667961,-0.018190905451774597,0.05875946581363678,0.04633048176765442,-0.00821707397699356,0.361009,-0.291041,0.45148568405566597,0.022574397893183436,0.2374222644964221,1.0766672311672782,-2.5306072649152496,False
111,0,0.12329074740409851,-1.5671793222427368,0.0841592401266098,-1.5269606113433838,-0.028932269662618637,-0.043404657393693924,0.12372444570064545,-1.5673497915267944,0.0847381129860878,-1.5268948078155518,-0.028830930590629578,-0.043500062078237534,0.03446812182664871,0.043265461921691895,-0.018219351768493652,0.058604054152965546,0.04626286029815674,-0.008249901235103607,0.361009,-0.291041,0.45148568405566597,0.0228486748292287,0.2374937694034434,1.0766268881904162,-2.5405167018313364,False
112,0,0.12372444570064545,-1.5673497915267944,0.0847381129860878,-1.5268948078155518,-0.028830930590629578,-0.043500062078237534,0.12468335777521133,-1.5669747591018677,0.08554092794656754,-1.5264630317687988,-0.028402842581272125,-0.04370635747909546,0.03434985131025314,0.043287068605422974,-0.018226876854896545,0.05854494124650955,0.0462644100189209,-0.008260264992713928,0.361009,-0.291041,0.45148568405566597,0.02317876493259098,0.23755597340010218,1.0765991027789628,-2.550408241929781,False
113,0,0.12468335777521133,-1.5669747591018677,0.08554092794656754,-1.5264630317687988,-0.028402842581272125,-0.04370635747909546,0.12511540949344635,-1.5665572881698608,0.08530315011739731,-1.5256733894348145,-0.02778489701449871,-0.0438150055706501,0.03414997458457947,0.043301962316036224,-0.01826915144920349,0.05842403322458267,0.046208009123802185,-0.00828077644109726,0.361009,-0.291041,0.45148568405566597,0.02317876493259098,0.23755597340010218,1.0765991027789628,-2.560408241929781,False
114,0,0.12511540949344635,-1.5665572881698608,0.08530315011739731,-1.5256733894348145,-0.02778489701449871,-0.0438150055706501,0.12578603625297546,-1.566825270652771,0.0866009071469307,-1.5259824991226196,-0.02787366323173046,-0.04394418001174927,0.034132421016693115,0.04334753379225731,-0.01823575794696808,0.05834804102778435,0.046186283230781555,-0.008309315890073776,0.361009,-0.291041,0.45148568405566597,0.02378021116098203,0.2377140879540308,1.0765131096671705,-2.570212687775465,False
115,0,0.12578603625297546,-1.566825270652771,0.0866009071469307,-1.5259824991226196,-0.02787366323173046,-0.04394418001174927,0.12612146139144897,-1.5664255619049072,0.08656982332468033,-1.5255696773529053,-0.02752099744975567,-0.044012874364852905,0.033900126814842224,0.04333990067243576,-0.018297336995601654,0.05827298387885094,0.046169959008693695,-0.008309096097946167,0.361009,-0.291041,0.45148568405566597,0.024006845168398645,0.23777059956915075,1.0764803568348513,-2.5801370249837845,False
116,0,0.12612146139144897,-1.5664255619049072,0.08656982332468033,-1.5255696773529053,-0.02752099744975567,-0.044012874364852905,0.1266137957572937,-1.5663602352142334,0.08717820793390274,-1.5254894495010376,-0.027352822944521904,-0.04410947486758232,0.033868931233882904,0.04334919899702072,-0.018301140516996384,0.05822591856122017,0.046136245131492615,-0.008322026580572128,0.361009,-0.291041,0.45148568405566597,0.02423535318078511,0.2378268435096865,1.0764461602575413,-2.5900595265145183,False
117,0,0.1266137957572937,-1.5663602352142334,0.08717820793390274,-1.5254894495010376,-0.027352822944521904,-0.04410947486758232,0.12717774510383606,-1.5665569305419922,0.08797024935483932,-1.525447130203247,-0.02726442925632,-0.04424304515123367,0.03374067693948746,0.043352674692869186,-0.018329724669456482,0.058163177222013474,0.04611314833164215,-0.008329562842845917,0.361009,-0.291041,0.45148568405566597,0.02423535318078511,0.2378268435096865,1.0764461602575413,-2.600059526514518,False
118,0,0.12717774510383606,-1.5665569305419922,0.08797024935483932,-1.525447130203247,-0.02726442925632,-0.04424304515123367,0.1280355453491211,-1.5661158561706543,0.08854417502880096,-1.524937391281128,-0.02679888904094696,-0.0444333590567112,0.03358200192451477,0.04337449371814728,-0.018347978591918945,0.05808905512094498,0.0461108535528183,-0.008340626955032349,0.361009,-0.291041,0.45148568405566597,0.024780593679856466,0.23797629401276477,1.0763595517595514,-2.6098804134604094,False
119,0,0.1280355453491211,-1.5661158561706543,0.08854417502880096,-1.524937391281128,-0.02679888904094696,-0.0444333590567112,0.1290290802717209,-1.565635323524475,0.08917252719402313,-1.5242631435394287,-0.02614908665418625,-0.044647809118032455,0.03342101722955704,0.04339170455932617,-0.018379371613264084,0.05797845497727394,0.046055905520915985,-0.008361957967281342,0.361009,-0.291041,0.45148568405566597,0.025108977405633167,0.23805720000363156,1.0763144729055287,-2.6197722572227864,False
120,0,0.1290290802717209,-1.565635323524475,0.08917252719402313,-1.5242631435394287,-0.02614908665418625,-0.044647809118032455,0.12974262237548828,-1.5655326843261719,0.08963754028081894,-1.5237340927124023,-0.02571730501949787,-0.04483005031943321,0.03324458748102188,0.04340551421046257,-0.018393710255622864,0.057852957397699356,0.04599698632955551,-0.00838509202003479,0.361009,-0.291041,0.45148568405566597,0.025351471597998866,0.23812189070938464,1.076290909782882,-2.62970228970491,False
121,0,0.12974262237548828,-1.5655326843261719,0.08963754028081894,-1.5237340927124023,-0.02571730501949787,-0.04483005031943321,0.13005788624286652,-1.5651696920394897,0.089752696454525,-1.5234872102737427,-0.025472085922956467,-0.044891081750392914,0.03311648219823837,0.043437857180833817,-0.01837955415248871,0.05775756016373634,0.04598022997379303,-0.008406497538089752,0.361009,-0.291041,0.45148568405566597,0.025351471597998866,0.23812189070938464,1.076290909782882,-2.63970228970491,False
122,0,0.13005788624286652,-1.5651696920394897,0.089752696454525,-1.5234872102737427,-0.025472085922956467,-0.044891081750392914,0.13112503290176392,-1.5651510953903198,0.09098328649997711,-1.5232540369033813,-0.02519882842898369,-0.045137979090213776,0.033071085810661316,0.04342932999134064,-0.018397346138954163,0.05772119387984276,0.045942701399326324,-0.008411861956119537,0.361009,-0.291041,0.45148568405566597,0.02610838499368138,0.23832798552623344,1.0761687531700714,-2.6494524939528166,False
123,0,0.13112503290176392,-1.5651510953903198,0.09098328649997711,-1.5232540369033813,-0.02519882842898369,-0.045137979090213776,0.1315363496541977,-1.5651086568832397,0.09155192226171494,-1.5232475996017456,-0.025092557072639465,-0.04521501809358597,0.03281519562005997,0.04343307018280029,-0.018432311713695526,0.05760110914707184,0.04590450972318649,-0.008424188941717148,0.361009,-0.291041,0.45148568405566597,0.026314510911493907,0.23837921271721876,1.0761365831867464,-2.659382422726001,False
124,0,0.1315363496541977,-1.5651086568832397,0.09155192226171494,-1.5232475996017456,-0.025092557072639465,-0.04521501809358597,0.1326749175786972,-1.5644630193710327,0.09228838980197906,-1.5225030183792114,-0.0243583545088768,-0.045464009046554565,0.03270423412322998,0.043422747403383255,-0.018457971513271332,0.057556383311748505,0.045882463455200195,-0.008425414562225342,0.361009,-0.291041,0.45148568405566597,0.026314510911493907,0.23837921271721876,1.0761365831867464,-2.6693824227260006,False
125,0,0.1326749175786972,-1.5644630193710327,0.09228838980197906,-1.5225030183792114,-0.0243583545088768,-0.045464009046554565,0.13334177434444427,-1.5642749071121216,0.09310095757246017,-1.5223499536514282,-0.023996001109480858,-0.045572925359010696,0.032500140368938446,0.04342738911509514,-0.0184859037399292,0.05741579830646515,0.045804463326931,-0.008448753505945206,0.361009,-0.291041,0.45148568405566597,0.027369088756410666,0.2386282311762616,1.0760028634462278,-2.6790386271658537,False
126,0,0.13334177434444427,-1.5642749071121216,0.09310095757246017,-1.5223499536514282,-0.023996001109480858,-0.045572925359010696,0.13414448499679565,-1.564223289489746,0.09354192763566971,-1.5217456817626953,-0.023672927170991898,-0.04582057148218155,0.03233165293931961,0.043414123356342316,-0.018518954515457153,0.057334329932928085,0.045763835310935974,-0.008454930037260056,0.361009,-0.291041,0.45148568405566597,0.02746499163674647,0.23868969170458956,1.0759694506907187,-2.689015665919742,False
127,0,0.13414448499679565,-1.564223289489746,0.09354192763566971,-1.5217456817626953,-0.023672927170991898,-0.04582057148218155,0.13485297560691833,-1.56402587890625,0.09418224543333054,-1.5214025974273682,-0.023289499804377556,-0.04597635939717293,0.032200656831264496,0.04345923289656639,-0.018499188125133514,0.057234715670347214,0.04575163125991821,-0.00847964733839035,0.361009,-0.291041,0.45148568405566597,0.02746499163674647,0.23868969170458956,1.0759694506907187,-2.699015665919742,False
128,0,0.13485297560691833,-1.56402587890625,0.09418224543333054,-1.5214025974273682,-0.023289499804377556,-0.04597635939717293,0.1356540322303772,-1.5636403560638428,0.09490761905908585,-1.5210644006729126,-0.022862480953335762,-0.04613883048295975,0.032048165798187256,0.043465666472911835,-0.01851336658000946,0.057137489318847656,0.04571973532438278,-0.008489198982715607,0.361009,-0.291041,0.45148568405566597,0.028280135595460276,0.23889322025415488,1.0758573876795439,-2.7087513333618336,False
129,0,0.1356540322303772,-1.5636403560638428,0.09490761905908585,-1.5210644006729126,-0.022862480953335762,-0.04613883048295975,0.13649937510490417,-1.5635267496109009,0.09534261375665665,-1.5203630924224854,-0.022404100745916367,-0.04638819023966789,0.031876079738140106,0.043455854058265686,-0.018548354506492615,0.0570334754884243,0.045665524899959564,-0.008495990186929703,0.361009,-0.291041,0.45148568405566597,0.028414762784131815,0.23896431540069651,1.0758202868925146,-2.718717087789214,False
130,0,0.13649937510490417,-1.5635267496109009,0.09534261375665665,-1.5203630924224854,-0.022404100745916367,-0.04638819023966789,0.13693130016326904,-1.5635637044906616,0.09593651443719864,-1.5203486680984497,-0.02233266271650791,-0.0464840866625309,0.03173524886369705,0.043504953384399414,-0.018521927297115326,0.056904811412096024,0.045654863119125366,-0.008517194539308548,0.361009,-0.291041,0.45148568405566597,0.02861839023068985,0.2390089946823907,1.07580031576509,-2.7286531751005585,False
131,0,0.13693130016326904,-1.5635637044906616,0.09593651443719864,-1.5203486680984497,-0.02233266271650791,-0.0464840866625309,0.13783487677574158,-1.563191294670105,0.09662481397390366,-1.5198678970336914,-0.02190161868929863,-0.04670329391956329,0.03161873668432236,0.04350186884403229,-0.018541663885116577,0.05685447156429291,0.04564087837934494,-0.008518561720848083,0.361009,-0.291041,0.45148568405566597,0.02861839023068985,0.2390089946823907,1.07580031576509,-2.7386531751005587,False
132,0,0.13783487677574158,-1.563191294670105,0.09662481397390366,-1.5198678970336914,-0.02190161868929863,-0.04670329391956329,0.13824184238910675,-1.5631239414215088,0.0973321944475174,-1.519980788230896,-0.021795805543661118,-0.04675712436437607,0.03144177049398422,0.04350719973444939,-0.018565718084573746,0.056735891848802567,0.04559088498353958,-0.00852993130683899,0.361009,-0.291041,0.45148568405566597,0.029302598894799074,0.23919627721152426,1.0756825099651723,-2.7484252304439103,False
133,0,0.13824184238910675,-1.5631239414215088,0.0973321944475174,-1.519980788230896,-0.021795805543661118,-0.04675712436437607,0.13891315460205078,-1.5625041723251343,0.09726546704769135,-1.5190974473953247,-0.02113683708012104,-0.0469462014734745,0.03131277859210968,0.043482113629579544,-0.01860661804676056,0.056692298501729965,0.04556116461753845,-0.008526090532541275,0.361009,-0.291041,0.45148568405566597,0.029483016053304344,0.23924505726869355,1.075662744595445,-2.7583728310197015,False
134,0,0.13891315460205078,-1.5625041723251343,0.09726546704769135,-1.5190974473953247,-0.02113683708012104,-0.0469462014734745,0.1393425166606903,-1.562599539756775,0.09785160422325134,-1.519067406654358,-0.021074170246720314,-0.0470491386950016,0.031249411404132843,0.043513115495443344,-0.01858915016055107,0.05658150836825371,0.045517824590206146,-0.008546613156795502,0.361009,-0.291041,0.45148568405566597,0.029782896934422296,0.2393342307634425,1.0756142426404158,-2.7682796203531,False
135,0,0.1393425166606903,-1.562599539756775,0.09785160422325134,-1.519067406654358,-0.021074170246720314,-0.0470491386950016,0.13959771394729614,-1.563059687614441,0.09867707639932632,-1.5194557905197144,-0.021340537816286087,-0.04710939899086952,0.031134016811847687,0.04351625591516495,-0.01860228180885315,0.05652942135930061,0.045510560274124146,-0.008549202233552933,0.361009,-0.291041,0.45148568405566597,0.029782896934422296,0.2393342307634425,1.0756142426404158,-2.7782796203531,False
136,0,0.13959771394729614,-1.563059687614441,0.09867707639932632,-1.5194557905197144,-0.021340537816286087,-0.04710939899086952,0.14007005095481873,-1.562883734703064,0.09896580874919891,-1.5191112756729126,-0.021053913980722427,-0.047234006226062775,0.031008891761302948,0.043508145958185196,-0.01862698420882225,0.05651341751217842,0.04552462697029114,-0.008542995899915695,0.361009,-0.291041,0.45148568405566597,0.029782896934422296,0.2393342307634425,1.0756142426404158,-2.7882796203531,False
137,0,0.14007005095481873,-1.562883734703064,0.09896580874919891,-1.5191112756729126,-0.021053913980722427,-0.047234006226062775,0.14050066471099854,-1.5627491474151611,0.09931052476167679,-1.5188908576965332,-0.020880013704299927,-0.047351013869047165,0.03092394769191742,0.04352155700325966,-0.01862696185708046,0.056444283574819565,0.04550527036190033,-0.008552070707082748,0.361009,-0.291041,0.45148568405566597,0.030073706131786813,0.23944930902636966,1.0755366700161357,-2.798184930764874,False
138,0,0.14050066471099854,-1.5627491474151611,0.09931052476167679,-1.5188908576965332,-0.020880013704299927,-0.047351013869047165,0.1411210596561432,-1.5621246099472046,0.09932390600442886,-1.5181211233139038,-0.020216114819049835,-0.047504592686891556,0.03083750605583191,0.04352681338787079,-0.018636874854564667,0.056388009339571,0.0454852432012558,-0.00855766236782074,0.361009,-0.291041,0.45148568405566597,0.030506134265097625,0.23955183103420158,1.0754928942757265,-2.808053679555709,False
139,0,0.1411210596561432,-1.5621246099472046,0.09932390600442886,-1.5181211233139038,-0.020216114819049835,-0.047504592686891556,0.1415317803621292,-1.5621345043182373,0.09984277933835983,-1.5180662870407104,-0.020121963694691658,-0.04759952425956726,0.030768387019634247,0.043545499444007874,-0.01862972229719162,0.056284695863723755,0.04543786495923996,-0.00857459381222725,0.361009,-0.291041,0.45148568405566597,0.0306456141625549,0.23959842342130386,1.0754627400662875,-2.8180081853740395,False
140,0,0.1415317803621292,-1.5621345043182373,0.09984277933835983,-1.5180662870407104,-0.020121963694691658,-0.04759952425956726,0.1421201527118683,-1.5621891021728516,0.10067588835954666,-1.5180730819702148,-0.020058492198586464,-0.047739461064338684,0.030662983655929565,0.04354489594697952,-0.018645677715539932,0.05623488873243332,0.04542418569326401,-0.008576888591051102,0.361009,-0.291041,0.45148568405566597,0.0306456141625549,0.23959842342130386,1.0754627400662875,-2.8280081853740393,False
141,0,0.1421201527118683,-1.5621891021728516,0.10067588835954666,-1.5180730819702148,-0.020058492198586464,-0.047739461064338684,0.14288796484470367,-1.5617830753326416,0.1012241393327713,-1.5176007747650146,-0.01956593617796898,-0.04791214317083359,0.030501507222652435,0.043538667261600494,-0.01867625117301941,0.05616855248808861,0.04540424048900604,-0.008578013628721237,0.361009,-0.291041,0.45148568405566597,0.03129620942715684,0.23978122720858927,1.075356483560517,-2.837799833305481,False
142,0,0.14288796484470367,-1.5617830753326416,0.1012241393327713,-1.5176007747650146,-0.01956593617796898,-0.04791214317083359,0.14358825981616974,-1.56112802028656,0.10102096199989319,-1.5165095329284668,-0.01875719614326954,-0.048126351088285446,0.030353538691997528,0.04354159161448479,-0.018695376813411713,0.05606084316968918,0.04535645246505737,-0.008588586002588272,0.361009,-0.291041,0.45148568405566597,0.03164905976899971,0.23987994028439086,1.0753194524820986,-2.84770132894467,False
143,0,0.14358825981616974,-1.56112802028656,0.10102096199989319,-1.5165095329284668,-0.01875719614326954,-0.048126351088285446,0.14423644542694092,-1.5614193677902222,0.10227017849683762,-1.5168519020080566,-0.01896408013999462,-0.04827432334423065,0.030301496386528015,0.043589916080236435,-0.0186578668653965,0.05593261867761612,0.045319490134716034,-0.008615151047706604,0.361009,-0.291041,0.45148568405566597,0.03169143902808415,0.23989962869622822,1.0752961038514883,-2.857680862957765,False
144,0,0.14423644542694092,-1.5614193677902222,0.10227017849683762,-1.5168519020080566,-0.01896408013999462,-0.04827432334423065,0.1447274535894394,-1.5612362623214722,0.10285355150699615,-1.5167748928070068,-0.01878829300403595,-0.048373471945524216,0.030086331069469452,0.043567921966314316,-0.018713608384132385,0.055878058075904846,0.045302510261535645,-0.008608788251876831,0.361009,-0.291041,0.45148568405566597,0.03169143902808415,0.23989962869622822,1.0752961038514883,-2.8676808629577653,False
145,0,0.1447274535894394,-1.5612362623214722,0.10285355150699615,-1.5167748928070068,-0.01878829300403595,-0.048373471945524216,0.14529761672019958,-1.5607483386993408,0.10271260142326355,-1.5158933401107788,-0.018124999478459358,-0.048547420650720596,0.02996429055929184,0.04355290159583092,-0.018747009336948395,0.055820681154727936,0.04526771605014801,-0.008609496057033539,0.361009,-0.291041,0.45148568405566597,0.03239647138903637,0.2401042380194672,1.0751884848781619,-2.877465177124318,False
146,0,0.14529761672019958,-1.5607483386993408,0.10271260142326355,-1.5158933401107788,-0.018124999478459358,-0.048547420650720596,0.1455935388803482,-1.5612468719482422,0.10361480712890625,-1.5163133144378662,-0.018433166667819023,-0.048619773238897324,0.029918596148490906,0.04359481856226921,-0.018713392317295074,0.055714648216962814,0.04524177312850952,-0.00863148644566536,0.361009,-0.291041,0.45148568405566597,0.03229988318405132,0.2401095034660543,1.075167894055678,-2.887489760311096,False
147,0,0.1455935388803482,-1.5612468719482422,0.10361480712890625,-1.5163133144378662,-0.018433166667819023,-0.048619773238897324,0.14606477320194244,-1.5610798597335815,0.1039179340004921,-1.5159820318222046,-0.018160341307520866,-0.048748910427093506,0.029780857264995575,0.04358620569109917,-0.018741212785243988,0.055696938186883926,0.045256175100803375,-0.00862482562661171,0.361009,-0.291041,0.45148568405566597,0.03253547556071442,0.24016841665090796,1.0751442474316983,-2.897420800817323,False
148,0,0.14606477320194244,-1.5610798597335815,0.1039179340004921,-1.5159820318222046,-0.018160341307520866,-0.048748910427093506,0.1464870572090149,-1.5609970092773438,0.10421834886074066,-1.5157227516174316,-0.017993254587054253,-0.04887774959206581,0.029694169759750366,0.04359913617372513,-0.018742427229881287,0.05562851205468178,0.04523710906505585,-0.008633635938167572,0.361009,-0.291041,0.45148568405566597,0.03248933387826112,0.24016971677502383,1.0751360851368041,-2.9074329888799473,False
149,0,0.1464870572090149,-1.5609970092773438,0.10421834886074066,-1.5157227516174316,-0.017993254587054253,-0.04887774959206581,0.14728768169879913,-1.5605950355529785,0.10477206856012344,-1.5152287483215332,-0.017539240419864655,-0.04907972738146782,0.02961401641368866,0.04361279681324959,-0.018743451684713364,0.055570606142282486,0.045224517583847046,-0.008640997111797333,0.361009,-0.291041,0.45148568405566597,0.03305773660658749,0.24033829265892728,1.0750457205746746,-2.9172592219215603,False
150,0,0.14728768169879913,-1.5605950355529785,0.10477206856012344,-1.5152287483215332,-0.017539240419864655,-0.04907972738146782,0.14795160293579102,-1.5603339672088623,0.10527317225933075,-1.5148564577102661,-0.017216145992279053,-0.0492544025182724,0.029462561011314392,0.043618567287921906,-0.018763042986392975,0.05546087026596069,0.04517689347267151,-0.008652277290821075,0.361009,-0.291041,0.45148568405566597,0.033435469133590856,0.24042868436857007,1.0750069615827416,-2.9271459659178203,False
151,0,0.14795160293579102,-1.5603339672088623,0.10527317225933075,-1.5148564577102661,-0.017216145992279053,-0.0492544025182724,0.14836764335632324,-1.5603104829788208,0.10568159073591232,-1.5146955251693726,-0.017094194889068604,-0.04937257990241051,0.02933240681886673,0.04362548142671585,-0.01877838745713234,0.05537177622318268,0.04514253884553909,-0.008661344647407532,0.361009,-0.291041,0.45148568405566597,0.0335018672702322,0.24047980892610507,1.0749657176773386,-2.937122968861476,False
152,0,0.14836764335632324,-1.5603104829788208,0.10568159073591232,-1.5146955251693726,-0.017094194889068604,-0.04937257990241051,0.1489948332309723,-1.5596243143081665,0.1057644933462143,-1.5139877796173096,-0.016446517780423164,-0.049527738243341446,0.02923973649740219,0.04363355040550232,-0.018785744905471802,0.05531776323914528,0.04513096064329147,-0.008666474372148514,0.361009,-0.291041,0.45148568405566597,0.0335018672702322,0.24047980892610507,1.0749657176773386,-2.9471229688614757,False
153,0,0.1489948332309723,-1.5596243143081665,0.1057644933462143,-1.5139877796173096,-0.016446517780423164,-0.049527738243341446,0.14955540001392365,-1.5599493980407715,0.10670903325080872,-1.5141112804412842,-0.016533520072698593,-0.04967772588133812,0.02916111797094345,0.0436411127448082,-0.018792293965816498,0.05521759018301964,0.045074090361595154,-0.008680738508701324,0.361009,-0.291041,0.45148568405566597,0.0335018672702322,0.24047980892610507,1.0749657176773386,-2.9571229688614755,False
154,0,0.14955540001392365,-1.5599493980407715,0.10670903325080872,-1.5141112804412842,-0.016533520072698593,-0.04967772588133812,0.15018139779567719,-1.559163212776184,0.10667210072278976,-1.5133293867111206,-0.015864968299865723,-0.04983954504132271,0.028989993035793304,0.0436449870467186,-0.018813923001289368,0.055157288908958435,0.045075707137584686,-0.008681491017341614,0.361009,-0.291041,0.45148568405566597,0.03459074149809678,0.2407729973944008,1.0748172980024053,-2.966791206484741,False
155,0,0.15018139779567719,-1.559163212776184,0.10667210072278976,-1.5133293867111206,-0.015864968299865723,-0.04983954504132271,0.15054203569889069,-1.5597126483917236,0.1077134758234024,-1.5138128995895386,-0.01624089851975441,-0.04992999881505966,0.02892681211233139,0.04365310072898865,-0.018819987773895264,0.055057890713214874,0.04501287639141083,-0.008696839213371277,0.361009,-0.291041,0.45148568405566597,0.034499854507242626,0.24078423469571403,1.0747904213322343,-2.976812628996708,False
156,0,0.15054203569889069,-1.5597126483917236,0.1077134758234024,-1.5138128995895386,-0.01624089851975441,-0.04992999881505966,0.15120293200016022,-1.5589460134506226,0.1075432077050209,-1.5128110647201538,-0.015424887649714947,-0.05011855810880661,0.02876661717891693,0.043641574680805206,-0.018855348229408264,0.05503799393773079,0.04502606391906738,-0.008688952773809433,0.361009,-0.291041,0.45148568405566597,0.0348327461759083,0.24086214851014587,1.07475564772168,-2.9867118643142954,False
157,0,0.15120293200016022,-1.5589460134506226,0.1075432077050209,-1.5128110647201538,-0.015424887649714947,-0.05011855810880661,0.1518174409866333,-1.559216856956482,0.10869589447975159,-1.51310133934021,-0.01561177708208561,-0.050269655883312225,0.028714008629322052,0.04367237165570259,-0.018835335969924927,0.054918915033340454,0.04497528076171875,-0.008711319416761398,0.361009,-0.291041,0.45148568405566597,0.0348327461759083,0.24086214851014587,1.07475564772168,-2.996711864314295,False
158,0,0.1518174409866333,-1.559216856956482,0.10869589447975159,-1.51310133934021,-0.01561177708208561,-0.050269655883312225,0.15259981155395508,-1.5588788986206055,0.10919201374053955,-1.51254141330719,-0.015095269307494164,-0.05046958476305008,0.028513595461845398,0.04365472495555878,-0.018885131925344467,0.054865483194589615,0.04496051371097565,-0.00870627909898758,0.361009,-0.291041,0.45148568405566597,0.03554465097566159,0.2410787593113623,1.0746440069956409,-3.006500606302229,False
159,0,0.15259981155395508,-1.5588788986206055,0.10919201374053955,-1.51254141330719,-0.015095269307494164,-0.05046958476305008,0.15301714837551117,-1.5588455200195312,0.10975322872400284,-1.5125333070755005,-0.015042013488709927,-0.05057254061102867,0.028369814157485962,0.043671946972608566,-0.018889695405960083,0.054749876260757446,0.04492345452308655,-0.008720532059669495,0.361009,-0.291041,0.45148568405566597,0.03567496642360624,0.24114393423841868,1.0745902721581082,-3.016453871303267,False
160,0,0.15301714837551117,-1.5588455200195312,0.10975322872400284,-1.5125333070755005,-0.015042013488709927,-0.05057254061102867,0.15378403663635254,-1.5586036443710327,0.11014042794704437,-1.511873722076416,-0.014549651183187962,-0.05080537125468254,0.028258919715881348,0.043663542717695236,-0.018916316330432892,0.05470415949821472,0.04490294307470322,-0.008720792829990387,0.361009,-0.291041,0.45148568405566597,0.035886603748689114,0.24120173834812447,1.0745650920849015,-3.0263928980116543,False
161,0,0.15378403663635254,-1.5586036443710327,0.11014042794704437,-1.511873722076416,-0.014549651183187962,-0.05080537125468254,0.15422263741493225,-1.5584732294082642,0.11080582439899445,-1.5119590759277344,-0.014509099535644054,-0.050894126296043396,0.028129957616329193,0.043699271976947784,-0.018902145326137543,0.05458516627550125,0.044881194829940796,-0.008739076554775238,0.361009,-0.291041,0.45148568405566597,0.035886603748689114,0.24120173834812447,1.0745650920849015,-3.0363928980116546,False
162,0,0.15422263741493225,-1.5584732294082642,0.11080582439899445,-1.5119590759277344,-0.014509099535644054,-0.050894126296043396,0.15496891736984253,-1.558250904083252,0.11116045713424683,-1.5112817287445068,-0.014001045376062393,-0.05112423747777939,0.028004460036754608,0.04367333650588989,-0.018948744982481003,0.05454377457499504,0.044845327734947205,-0.008735351264476776,0.361009,-0.291041,0.45148568405566597,0.03649523960965975,0.2414028158880148,1.074459824846971,-3.046215658854065,False
163,0,0.15496891736984253,-1.558250904083252,0.11116045713424683,-1.5112817287445068,-0.014001045376062393,-0.05112423747777939,0.1552109271287918,-1.5579091310501099,0.11126478761434555,-1.5110868215560913,-0.013761011883616447,-0.051171813160181046,0.02788107842206955,0.04371253401041031,-0.018929585814476013,0.05442458763718605,0.04482739418745041,-0.008754398673772812,0.361009,-0.291041,0.45148568405566597,0.036732498638023005,0.24147173629885968,1.0744149435494492,-3.0561382509468356,False
164,0,0.1552109271287918,-1.5579091310501099,0.11126478761434555,-1.5110868215560913,-0.013761011883616447,-0.051171813160181046,0.1557125747203827,-1.5578736066818237,0.11183815449476242,-1.5109742879867554,-0.01362872589379549,-0.051299046725034714,0.027841776609420776,0.04370129108428955,-0.01894783228635788,0.054390907287597656,0.04479387402534485,-0.008756548166275024,0.361009,-0.291041,0.45148568405566597,0.03676205850916965,0.2414908531445294,1.0743936568795205,-3.0661238808879627,False
165,0,0.1557125747203827,-1.5578736066818237,0.11183815449476242,-1.5109742879867554,-0.01362872589379549,-0.051299046725034714,0.1558651626110077,-1.5581084489822388,0.11226574331521988,-1.511168360710144,-0.01378680020570755,-0.051339540630578995,0.027720369398593903,0.04370197653770447,-0.018966298550367355,0.05432939901947975,0.04477497190237045,-0.008760236203670502,0.361009,-0.291041,0.45148568405566597,0.036917154759809494,0.24153832037604328,1.0743733798099897,-3.076081184031913,False
166,0,0.1558651626110077,-1.5581084489822388,0.11226574331521988,-1.511168360710144,-0.01378680020570755,-0.051339540630578995,0.1559619903564453,-1.558266043663025,0.1125483587384224,-1.511295199394226,-0.013887162320315838,-0.051367443054914474,0.027654238045215607,0.04369843751192093,-0.018979832530021667,0.0543205700814724,0.044781312346458435,-0.008757248520851135,0.361009,-0.291041,0.45148568405566597,0.036917154759809494,0.24153832037604328,1.0743733798099897,-3.0860811840319133,False
167,0,0.1559619903564453,-1.558266043663025,0.1125483587384224,-1.511295199394226,-0.013887162320315838,-0.051367443054914474,0.1563786268234253,-1.5579596757888794,0.11276121437549591,-1.5109589099884033,-0.013579655438661575,-0.05148269981145859,0.02761070430278778,0.04369635879993439,-0.01898840069770813,0.05431455001235008,0.044786058366298676,-0.00875537097454071,0.361009,-0.291041,0.45148568405566597,0.036917154759809494,0.24153832037604328,1.0743733798099897,-3.096081184031913,False
168,0,0.1563786268234253,-1.5579596757888794,0.11276121437549591,-1.5109589099884033,-0.013579655438661575,-0.05148269981145859,0.15687322616577148,-1.5579476356506348,0.11337107419967651,-1.5108879804611206,-0.013500492088496685,-0.05161990225315094,0.027539744973182678,0.043699782341718674,-0.018997859209775925,0.05425341799855232,0.04475603252649307,-0.008762490004301071,0.361009,-0.291041,0.45148568405566597,0.0373032508296134,0.24168659695568892,1.074274074476014,-3.1059587100144967,False
169,0,0.15687322616577148,-1.5579476356506348,0.11337107419967651,-1.5108879804611206,-0.013500492088496685,-0.05161990225315094,0.15729202330112457,-1.5577768087387085,0.11374157667160034,-1.5106996297836304,-0.013313503935933113,-0.05173129215836525,0.02741469442844391,0.04369840770959854,-0.01902036741375923,0.05419544130563736,0.04473759979009628,-0.008765019476413727,0.361009,-0.291041,0.45148568405566597,0.037534054855802024,0.24175511119459092,1.0742353584512456,-3.115888010527221,False
170,0,0.15729202330112457,-1.5577768087387085,0.11374157667160034,-1.5106996297836304,-0.013313503935933113,-0.05173129215836525,0.15806086361408234,-1.5573968887329102,0.11424344778060913,-1.510191559791565,-0.012887444347143173,-0.05194908007979393,0.027325615286827087,0.04369756206870079,-0.019036609679460526,0.05414111167192459,0.04471300542354584,-0.008769229054450989,0.361009,-0.291041,0.45148568405566597,0.037798219595675336,0.24181989554721248,1.0742052757791851,-3.1258089797354276,False
171,0,0.15806086361408234,-1.5573968887329102,0.11424344778060913,-1.510191559791565,-0.012887444347143173,-0.05194908007979393,0.1584271490573883,-1.557366132736206,0.11459831893444061,-1.5100443363189697,-0.012781583704054356,-0.05206018313765526,0.027183495461940765,0.04370749369263649,-0.019052524119615555,0.05403444916009903,0.04466971755027771,-0.008781202137470245,0.361009,-0.291041,0.45148568405566597,0.037798219595675336,0.24181989554721248,1.0742052757791851,-3.135808979735428,False
172,0,0.1584271490573883,-1.557366132736206,0.11459831893444061,-1.5100443363189697,-0.012781583704054356,-0.05206018313765526,0.15923018753528595,-1.5569621324539185,0.11526592075824738,-1.50963294506073,-0.012333833612501621,-0.0522606298327446,0.02710232138633728,0.043714530766010284,-0.019059792160987854,0.0539868026971817,0.044658906757831573,-0.008785702288150787,0.361009,-0.291041,0.45148568405566597,0.038539211715906574,0.24206534708675184,1.0740640462771147,-3.145586098255716,False
173,0,0.15923018753528595,-1.5569621324539185,0.11526592075824738,-1.50963294506073,-0.012333833612501621,-0.0522606298327446,0.15981338918209076,-1.5568219423294067,0.11556269228458405,-1.5091309547424316,-0.01199681032449007,-0.05245474725961685,0.02693565934896469,0.04371127486228943,-0.01909012347459793,0.05387851595878601,0.044606879353523254,-0.008794493973255157,0.361009,-0.291041,0.45148568405566597,0.038682636164412566,0.24213406934973447,1.0740286100195413,-3.1555501498953777,False
174,0,0.15981338918209076,-1.5568219423294067,0.11556269228458405,-1.5091309547424316,-0.01199681032449007,-0.05245474725961685,0.16028152406215668,-1.556667447090149,0.11622971296310425,-1.5091809034347534,-0.011933322064578533,-0.05255628749728203,0.026837415993213654,0.04374238848686218,-0.01907683163881302,0.05378834158182144,0.04459474980831146,-0.008808903396129608,0.361009,-0.291041,0.45148568405566597,0.038682636164412566,0.24213406934973447,1.0740286100195413,-3.1655501498953775,False
175,0,0.16028152406215668,-1.556667447090149,0.11622971296310425,-1.5091809034347534,-0.011933322064578533,-0.05255628749728203,0.16100800037384033,-1.5563850402832031,0.11667882651090622,-1.5086208581924438,-0.011446597054600716,-0.05276670679450035,0.026708580553531647,0.04371781647205353,-0.019123218953609467,0.053742267191410065,0.0445571094751358,-0.008805997669696808,0.361009,-0.291041,0.45148568405566597,0.03931838514490705,0.24233099702294073,1.0739156307485438,-3.175357080397621,False
176,0,0.16100800037384033,-1.5563850402832031,0.11667882651090622,-1.5086208581924438,-0.011446597054600716,-0.05276670679450035,0.16164922714233398,-1.5562303066253662,0.11711681634187698,-1.5082004070281982,-0.01116599515080452,-0.05297126621007919,0.026575304567813873,0.04374036565423012,-0.019121840596199036,0.05363106727600098,0.044528067111968994,-0.008820764720439911,0.361009,-0.291041,0.45148568405566597,0.0395258359956835,0.2424156497416373,1.0738690337281682,-3.185299659749943,False
177,0,0.16164922714233398,-1.5562303066253662,0.11711681634187698,-1.5082004070281982,-0.01116599515080452,-0.05297126621007919,0.16211703419685364,-1.556086778640747,0.1177908331155777,-1.5082553625106812,-0.011106310412287712,-0.053073469549417496,0.026454947888851166,0.043761514127254486,-0.01912330463528633,0.05354103818535805,0.04450772702693939,-0.00883248820900917,0.361009,-0.291041,0.45148568405566597,0.03985394816658471,0.2425063920162825,1.0738115274554267,-3.195194251594823,False
178,0,0.16211703419685364,-1.556086778640747,0.1177908331155777,-1.5082553625106812,-0.011106310412287712,-0.053073469549417496,0.16284894943237305,-1.5558128356933594,0.11826276779174805,-1.5077100992202759,-0.010632394813001156,-0.05328715965151787,0.02632524073123932,0.04373730719089508,-0.019169315695762634,0.05349503457546234,0.04447099566459656,-0.008829586207866669,0.361009,-0.291041,0.45148568405566597,0.03985394816658471,0.2425063920162825,1.0738115274554267,-3.205194251594823,False
179,0,0.16284894943237305,-1.5558128356933594,0.11826276779174805,-1.5077100992202759,-0.010632394813001156,-0.05328715965151787,0.1635219156742096,-1.5556526184082031,0.11883626878261566,-1.5073853731155396,-0.010379086248576641,-0.05348401144146919,0.026188693940639496,0.04375901445746422,-0.019169583916664124,0.05338401347398758,0.04444180428981781,-0.008843984454870224,0.361009,-0.291041,0.45148568405566597,0.04048068749767978,0.24270625811821092,1.0737127810808003,-3.2150171849832114,False
180,0,0.1635219156742096,-1.5556526184082031,0.11883626878261566,-1.5073853731155396,-0.010379086248576641,-0.05348401144146919,0.16401860117912292,-1.555108666419983,0.11889667809009552,-1.5067912340164185,-0.009827778674662113,-0.05362139269709587,0.026049084961414337,0.04376940429210663,-0.019184160977602005,0.053295478224754333,0.04441453516483307,-0.008852891623973846,0.361009,-0.291041,0.45148568405566597,0.040820085848608155,0.24281932443847692,1.073648486838745,-3.2249167756207946,False
181,0,0.16401860117912292,-1.555108666419983,0.11889667809009552,-1.5067912340164185,-0.009827778674662113,-0.05362139269709587,0.16448546946048737,-1.5550780296325684,0.11951027810573578,-1.5067856311798096,-0.009803947061300278,-0.05374692752957344,0.02598588913679123,0.04377857595682144,-0.019186314195394516,0.053211797028779984,0.04437144845724106,-0.008865203708410263,0.361009,-0.291041,0.45148568405566597,0.041026780535077814,0.24289150470100587,1.073601343779747,-3.2348520631634723,False
182,0,0.16448546946048737,-1.5550780296325684,0.11951027810573578,-1.5067856311798096,-0.009803947061300278,-0.05374692752957344,0.16510948538780212,-1.5552273988723755,0.12048452347517014,-1.506882905960083,-0.009827960282564163,-0.05390816554427147,0.025864221155643463,0.043770018965005875,-0.01921660453081131,0.05316281318664551,0.044348910450935364,-0.008865520358085632,0.361009,-0.291041,0.45148568405566597,0.041026780535077814,0.24289150470100587,1.073601343779747,-3.2448520631634725,False
183,0,0.16510948538780212,-1.5552273988723755,0.12048452347517014,-1.506882905960083,-0.009827960282564163,-0.05390816554427147,0.16556325554847717,-1.5551456212997437,0.12089216709136963,-1.5066943168640137,-0.009707390330731869,-0.05404859036207199,0.025682687759399414,0.04376211762428284,-0.01925332099199295,0.05309715494513512,0.04433203488588333,-0.00886509194970131,0.361009,-0.291041,0.45148568405566597,0.04136632685581665,0.243036159147954,1.0735046973721085,-3.2547481256524233,False
184,0,0.16556325554847717,-1.5551456212997437,0.12089216709136963,-1.5066943168640137,-0.009707390330731869,-0.05404859036207199,0.16632667183876038,-1.5548498630523682,0.12151479721069336,-1.5062735080718994,-0.009300373494625092,-0.054260093718767166,0.025586605072021484,0.04376857727766037,-0.019265353679656982,0.05304046720266342,0.044314563274383545,-0.008870381861925125,0.361009,-0.291041,0.45148568405566597,0.041746131828489554,0.24316296892243203,1.0734336851548563,-3.2646370173399637,False
185,0,0.16632667183876038,-1.5548498630523682,0.12151479721069336,-1.5062735080718994,-0.009300373494625092,-0.054260093718767166,0.1667546033859253,-1.5547220706939697,0.12211459875106812,-1.506313443183899,-0.009261500090360641,-0.05436232313513756,0.025429345667362213,0.043775737285614014,-0.019284293055534363,0.05293433740735054,0.04427541792392731,-0.008880753070116043,0.361009,-0.291041,0.45148568405566597,0.042036706339769525,0.24324727130615048,1.0733799889537765,-3.2745448550399923,False
186,0,0.1667546033859253,-1.5547220706939697,0.12211459875106812,-1.506313443183899,-0.009261500090360641,-0.05436232313513756,0.1672854721546173,-1.554209589958191,0.12197130918502808,-1.5054453611373901,-0.008591019548475742,-0.054550718516111374,0.02531299740076065,0.043755240738391876,-0.019325487315654755,0.05289275944232941,0.04424263536930084,-0.008878402411937714,0.361009,-0.291041,0.45148568405566597,0.042036706339769525,0.24324727130615048,1.0733799889537765,-3.284544855039992,False
187,0,0.1672854721546173,-1.554209589958191,0.12197130918502808,-1.5054453611373901,-0.008591019548475742,-0.054550718516111374,0.16770270466804504,-1.5541554689407349,0.12261978536844254,-1.5055181980133057,-0.008549628779292107,-0.054643139243125916,0.025269508361816406,0.04379437118768692,-0.019295599311590195,0.05278909206390381,0.04421566426753998,-0.008899565786123276,0.361009,-0.291041,0.45148568405566597,0.042036706339769525,0.24324727130615048,1.0733799889537765,-3.2945448550399923,False
188,0,0.16770270466804504,-1.5541554689407349,0.12261978536844254,-1.5055181980133057,-0.008549628779292107,-0.054643139243125916,0.16836616396903992,-1.5542713403701782,0.12360014021396637,-1.5056058168411255,-0.0086150411516428,-0.05482722446322441,0.025147706270217896,0.043775804340839386,-0.01933341473340988,0.05274670571088791,0.044188931584358215,-0.00889723002910614,0.361009,-0.291041,0.45148568405566597,0.042766693647956086,0.24350600454337512,1.0732288665213081,-3.3043308153941595,False
189,0,0.16836616396903992,-1.5542713403701782,0.12360014021396637,-1.5056058168411255,-0.0086150411516428,-0.05482722446322441,0.16881383955478668,-1.5541441440582275,0.124101422727108,-1.5055068731307983,-0.008488526567816734,-0.05494631081819534,0.024962596595287323,0.043766770511865616,-0.01937498152256012,0.052680645138025284,0.04416743665933609,-0.00889662653207779,0.361009,-0.291041,0.45148568405566597,0.04300918848324333,0.24358514528233902,1.073180625687611,-3.3142571059459547,False
190,0,0.16881383955478668,-1.5541441440582275,0.124101422727108,-1.5055068731307983,-0.008488526567816734,-0.05494631081819534,0.16936294734477997,-1.5535852909088135,0.12414858490228653,-1.5048153400421143,-0.007877846248447895,-0.05511317774653435,0.024855151772499084,0.04375990852713585,-0.019400518387556076,0.05262777581810951,0.044141195714473724,-0.008898723870515823,0.361009,-0.291041,0.45148568405566597,0.04328066013149191,0.24365509661222354,1.0731468091049803,-3.3241776061991026,False
191,0,0.16936294734477997,-1.5535852909088135,0.12414858490228653,-1.5048153400421143,-0.007877846248447895,-0.05511317774653435,0.16999764740467072,-1.5538095235824585,0.12521052360534668,-1.505028247833252,-0.008059333078563213,-0.05528739467263222,0.024782434105873108,0.04377724230289459,-0.01939939334988594,0.05253231152892113,0.044102706015110016,-0.008910775184631348,0.361009,-0.291041,0.45148568405566597,0.04328066013149191,0.24365509661222354,1.0731468091049803,-3.334177606199103,False
192,0,0.16999764740467072,-1.5538095235824585,0.12521052360534668,-1.505028247833252,-0.008059333078563213,-0.05528739467263222,0.17077988386154175,-1.5533756017684937,0.12574276328086853,-1.504542589187622,-0.007648809347301722,-0.05551951378583908,0.02458125352859497,0.04376516491174698,-0.01945291832089424,0.05247650295495987,0.04409303516149521,-0.00890086218714714,0.361009,-0.291041,0.45148568405566597,0.044017192661622476,0.24392636223697306,1.0729865499905926,-3.343963476991924,False
193,0,0.17077988386154175,-1.5533756017684937,0.12574276328086853,-1.504542589187622,-0.007648809347301722,-0.05551951378583908,0.17077988386154175,-1.5533756017684937,0.12574276328086853,-1.504542589187622,-0.007648809347301722,-0.05551951378583908,0.024423323571681976,0.04376939684152603,-0.019485335797071457,0.05237116292119026,0.04404956102371216,-0.008904669433832169,0.361009,-0.291041,0.45148568405566597,0.044017192661622476,0.24392636223697306,1.0729865499905926,-3.3539634769919244,False
194,0,0.17077988386154175,-1.5533756017684937,0.12574276328086853,-1.504542589187622,-0.007648809347301722,-0.05551951378583908,0.17077988386154175,-1.5533756017684937,0.12574276328086853,-1.504542589187622,-0.007648809347301722,-0.05551951378583908,0.024423323571681976,0.04376939684152603,-0.019485335797071457,0.05237116292119026,0.04404956102371216,-0.008904669433832169,0.361009,-0.291041,0.45148568405566597,0.044017192661622476,0.24392636223697306,1.0729865499905926,-3.363963476991924,False
195,0,0.17077988386154175,-1.5533756017684937,0.12574276328086853,-1.504542589187622,-0.007648809347301722,-0.05551951378583908,0.17077988386154175,-1.5533756017684937,0.12574276328086853,-1.504542589187622,-0.007648809347301722,-0.05551951378583908,0.024423323571681976,0.04376939684152603,-0.019485335797071457,0.05237116292119026,0.04404956102371216,-0.008904669433832169,0.361009,-0.291041,0.45148568405566597,0.044017192661622476,0.24392636223697306,1.0729865499905926,-3.373963476991924,False
196,0,0.17077988386154175,-1.5533756017684937,0.12574276328086853,-1.504542589187622,-0.007648809347301722,-0.05551951378583908,0.17122232913970947,-1.5533061027526855,0.12642613053321838,-1.5046355724334717,-0.0076376693323254585,-0.05562105402350426,0.024423323571681976,0.04376939684152603,-0.019485335797071457,0.05237116292119026,0.04404956102371216,-0.008904669433832169,0.361009,-0.291041,0.45148568405566597,0.04425820358111818,0.24398619266196067,1.0729567988844464,-3.3838919858248078,False
197,0,0.17122232913970947,-1.5533061027526855,0.12642613053321838,-1.5046355724334717,-0.0076376693323254585,-0.05562105402350426,0.17174318432807922,-1.552789568901062,0.12627258896827698,-1.503767490386963,-0.006976345553994179,-0.055815067142248154,0.024286769330501556,0.043748095631599426,-0.01953478902578354,0.052329327911138535,0.04402463138103485,-0.008895829319953918,0.361009,-0.291041,0.45148568405566597,0.044288522773282615,0.24401140225103732,1.072929841454227,-3.3938773480278357,False
198,0,0.17174318432807922,-1.552789568901062,0.12627258896827698,-1.503767490386963,-0.006976345553994179,-0.055815067142248154,0.17196449637413025,-1.5530993938446045,0.12683720886707306,-1.504019856452942,-0.007203254848718643,-0.05587419122457504,0.02424195408821106,0.04378728196024895,-0.019507713615894318,0.052226874977350235,0.0439998060464859,-0.008914671838283539,0.361009,-0.291041,0.45148568405566597,0.044288522773282615,0.24401140225103732,1.072929841454227,-3.403877348027836,False
199,0,0.17196449637413025,-1.5530993938446045,0.12683720886707306,-1.504019856452942,-0.007203254848718643,-0.05587419122457504,0.1725952923297882,-1.553088665008545,0.12766112387180328,-1.503989338874817,-0.007153440732508898,-0.05605316534638405,0.02414976805448532,0.043783433735370636,-0.019528746604919434,0.052215009927749634,0.044009849429130554,-0.008908499032258987,0.361009,-0.291041,0.45148568405566597,0.04480507579000171,0.24420611908723355,1.0728235970224862,-3.4137348172041984,False
